/* XPM */
static char *model2540_xpm[]={
"300 147 6159 3",
"Qt. c None",
".qS c None",
".fL c #000000",
".lu c #00002a",
".cS c #00002b",
".c7 c #000266",
".po c #51420a",
".AB c #000000",
".AM c #000001",
".nA c #88722d",
".xp c #6b3c00",
".bM c #a59766",
".q. c #774f00",
".At c #494b4b",
".k1 c #6e6446",
".eE c #9d8741",
".bZ c #977000",
".k0 c #bb9b2d",
".oD c #846d1e",
".AA c #000000",
".vE c #775900",
".gN c #dbb325",
".e1 c #ae9238",
".m5 c #b0922d",
".AL c #847e69",
".dp c #8e782c",
".kA c #8d7a42",
".AC c #7e7764",
".n9 c #c0a23a",
".tX c #98790f",
".pn c #b18d13",
".dB c #bc9c2d",
".gn c #8e741c",
".kz c #bb9b2d",
".y7 c #c3bba0",
".kd c #998442",
".nB c #bfa13b",
".zf c #b1a687",
".AD c #746e5a",
".mx c #bb9b2d",
".zq c #a29b82",
".sF c #a4851a",
".fb c #b69529",
".cx c #caa62e",
".xo c #c5b996",
".hm c #dcb42e",
".oC c #b3921e",
".jN c #96803a",
".fA c #c9a630",
".ci c #ae9234",
".m6 c #c0a33f",
".kc c #bb9b2d",
".xz c #bcb293",
".dX c #b3952b",
".vD c #b3a98a",
".rH c #ae8e20",
".vP c #b9b091",
".Au c #82837c",
".Az c #72736e",
".tW c #a79f84",
".xe c #dbd1b1",
".Ay c #949691",
".vv c #d9cfac",
".t8 c #ccc2a1",
".AE c #6a6965",
".bB c #e6c44f",
".sE c #a6a088",
".jk c #9d863a",
".lZ c #bb9b2d",
".tP c #cec4a1",
".sM c #c5ba98",
".bL c #e9ce74",
".bs c #d3b241",
".my c #bea241",
".d8 c #d0ac37",
".rG c #a59e86",
".g2 c #bd9e36",
".sA c #d7ceac",
".AK c #7d7b72",
".rQ c #cfc3a1",
".qT c #af9022",
".Ax c #605f57",
".ry c #d3c8a7",
".n8 c #b79624",
".qZ c #d7cca9",
".jM c #bb9b2d",
".qK c #cec4a1",
".qe c #d0c4a0",
".p3 c #d6cca7",
".y8 c #f2e4bc",
".l0 c #c1a443",
".pA c #dfd3ae",
".hU c #deb937",
".pd c #dcd2b0",
".g. c #ddb93b",
".qR c #aea071",
".q# c #b29225",
".oP c #e0d4ad",
".lt c #bb9b2d",
".es c #cba832",
".fM c #cbaa3f",
".zg c #cfc29b",
".os c #d4c9a6",
".c8 c #dfbf52",
".AF c #91918c",
".cR c #c6a535",
".nY c #d6cba6",
".oi c #e4d6af",
".y9 c #cec4a4",
".np c #dfd3af",
".iO c #8a7634",
".nN c #f2e4ba",
".nz c #b59526",
".lv c #c5a846",
".0F c #eeedee",
".3s c #eeedef",
".2k c #efeeef",
".5p c #f6f5f6",
".Zj c #fafafa",
".mT c #ded1ad",
".pp c #b29225",
".jj c #bb9b2d",
".bC c #b7ae8c",
".ne c #f1e2b7",
".Av c #5f5a52",
".ml c #ded1ab",
".xq c #d9c891",
".cW c #e2c050",
".mI c #efe2b8",
".ze c #b8ad8e",
".lP c #e1d5af",
".m# c #f2e5bb",
".p9 c #b19f61",
".eF c #e3c14f",
".AJ c #8c8d87",
".hy c #d5b446",
".c. c #a49872",
".b0 c #e1c256",
".lj c #e1d5af",
".cH c #a69357",
".bK c #e6c658",
".bA c #f5d86a",
".kZ c #bb9b2d",
".k2 c #c8ab48",
".de c #a99453",
".lF c #f1e4b8",
".oE c #b89a32",
".dN c #a8924b",
".kR c #ddd1ab",
".bJ c #e0c050",
".bI c #e2c355",
".ei c #a58f46",
".vF c #d5c388",
".bH c #e4c457",
".ir c #e5c147",
".bG c #e3c458",
".by c #efda89",
".bz c #f0db8a",
".l. c #f1e3ba",
".eQ c #a48e45",
".ku c #d9cda8",
".bx c #f0d982",
".cn c #e1bf4a",
".gM c #e4bf43",
".bF c #e7c85c",
".m4 c #b79728",
".bE c #edce61",
".bw c #efd988",
".bv c #efda86",
".fo c #a18c44",
".cG c #d0af3e",
".bu c #f6dc70",
".do c #d8b641",
".e0 c #debc45",
".kH c #f1e4ba",
".iN c #bb9b2d",
".j6 c #d4c9a5",
".cV c #e2c04d",
".bD c #e2c45c",
".zp c #e8dab2",
".bt c #f4d97a",
".fZ c #9a853f",
".dd c #c5a536",
".b9 c #dcbb48",
".cm c #e2c04b",
".AI c #64635e",
".AG c #636059",
".gB c #998440",
".kB c #caad48",
".jD c #d6caa5",
".kk c #f1e2b8",
".dM c #be9e2f",
".go c #e2c359",
".dC c #eacb65",
".hc c #9a833e",
".eh c #ba9a2c",
".o. c #cdb254",
".j. c #ded2ab",
".pm c #b7a25c",
".tY c #d7c383",
".jV c #f5e7bc",
".Aw c #39332a",
".hJ c #937d39",
".eP c #b9992c",
".ky c #bc9c2d",
".iC c #e2d6b1",
".jt c #f5e7bd",
".fn c #ba9a2c",
".if c #877536",
".fY c #ba9a2d",
".h6 c #ead695",
".iZ c #f2e0a8",
".AH c #3f3930",
".mw c #bb9a28",
".gA c #bb9b2d",
".ke c #ceb049",
".QQ c #000000",
".PJ c #000001",
".FN c #000003",
".CS c #000004",
".Mw c #000006",
".D# c #000103",
".GK c #000104",
".Li c #000107",
".HA c #000206",
".Js c #000507",
".S0 c #000912",
".Lw c #010003",
".DN c #010103",
".Hk c #010104",
".NT c #010105",
".Fg c #010205",
".FH c #010206",
".QC c #010209",
".Jp c #010306",
".Ig c #010309",
".Ju c #010c0d",
".Mu c #020205",
".Te c #020302",
".JJ c #020305",
".JG c #020306",
".Qs c #020307",
".Hm c #020309",
".DC c #020407",
".DI c #020409",
".DH c #02040a",
".Fj c #02040b",
".Jt c #020d0f",
".H# c #021619",
".4v c #030201",
".Qp c #030203",
".Qq c #030204",
".Qo c #030304",
".Qr c #030305",
".IO c #030406",
".CY c #030407",
".CT c #030408",
".NF c #030409",
".CW c #030508",
".Dn c #03050a",
".Dm c #03050b",
".Ej c #030609",
".DE c #03080b",
".FL c #03080c",
".DF c #03090c",
".S3 c #030b10",
".Hc c #031112",
".H. c #03171a",
".Eo c #040406",
".N0 c #040407",
".CX c #040409",
".Qu c #040506",
".Ce c #040507",
".CV c #040508",
".C0 c #040509",
".Qt c #04050a",
".CU c #040609",
".CZ c #04060a",
".Es c #04060b",
".Do c #04060c",
".Q# c #040709",
".P9 c #04070a",
".Kc c #04080b",
".Jv c #04090b",
".FK c #04090c",
".Jb c #040a0b",
".Hd c #041213",
".G9 c #041519",
".S1 c #041520",
".Cf c #050509",
".Kb c #050608",
".Cg c #050609",
".Cj c #05060a",
".M8 c #05060e",
".5r c #050707",
".EO c #050709",
".Ck c #05070a",
".Cq c #05070b",
".HX c #05070c",
".NC c #05070d",
".DD c #05090b",
".FM c #05090c",
".EG c #050b0e",
".Fx c #050b0f",
".Hb c #050d0f",
".IX c #053c36",
"#a6 c #060605",
".NU c #060607",
".Cr c #06060a",
"#a5 c #060706",
".DG c #060709",
".Ci c #06070a",
".Cl c #06070b",
".Co c #06070c",
".LP c #06070e",
".Qv c #060809",
".Db c #06080a",
".Cs c #06080b",
".NV c #06080c",
".Q. c #06090b",
".Dt c #060b0d",
".Ha c #060f12",
".S2 c #06151f",
".Lf c #070609",
".JF c #07060b",
".F6 c #070703",
".Qa c #070708",
".ET c #070709",
".CA c #07070a",
".Cn c #07070b",
".Os c #07070c",
".M6 c #070808",
".Da c #07080a",
".Ch c #07080b",
".Cm c #07080c",
".KL c #07080d",
".C1 c #07090a",
".Cy c #07090b",
".C2 c #07090c",
".Ct c #07090d",
".Dq c #07090f",
".KQ c #070910",
".ER c #070a0c",
".ES c #070a0d",
".Du c #070c0e",
".Jz c #070e0f",
".He c #070e10",
".Kn c #071917",
".Ko c #07231e",
".Nk c #080608",
".Ja c #080609",
".JE c #08060b",
".Mt c #080708",
".Oe c #080709",
".Jc c #08070a",
"#wm c #080806",
"#xQ c #080808",
".Qb c #080809",
".Cd c #08080a",
".Cz c #08080b",
".DL c #08080c",
".KN c #08080d",
"#v0 c #080906",
"#xx c #080907",
".DK c #08090a",
".CE c #08090b",
".DJ c #08090c",
".CC c #08090d",
".KR c #08090e",
".EP c #080a0b",
".Cx c #080a0c",
".C3 c #080a0d",
".O6 c #080a0e",
".Eb c #080b0d",
".Ds c #080b0e",
".Dv c #080c0e",
".Gl c #080c0f",
".Kp c #08251f",
".Ks c #083a2b",
".IU c #087361",
".L3 c #09070a",
".I2 c #09080c",
"#w7 c #090907",
"#yj c #090908",
".CB c #09090b",
".Cu c #09090c",
".Eq c #09090d",
".Cp c #09090e",
".Gu c #090a0b",
".CI c #090a0c",
".CF c #090a0d",
".Dr c #090a0e",
".Dp c #090a0f",
".DM c #090b0c",
".Dl c #090b0d",
".Df c #090b0e",
".OE c #09111b",
".OG c #091625",
".OF c #091726",
".MM c #09362a",
"#s0 c #0a0a07",
"#x7 c #0a0a08",
"#v6 c #0a0a09",
".CG c #0a0a0c",
".Cv c #0a0a0d",
".Ek c #0a0a0e",
".Ep c #0a0a0f",
"#xD c #0a0b08",
"#vC c #0a0b09",
"#vD c #0a0b0a",
".CH c #0a0b0c",
".Cw c #0a0b0d",
".Dg c #0a0b0e",
".DY c #0a0b0f",
".Dj c #0a0c0d",
".DZ c #0a0c0e",
".Dd c #0a0c0f",
".Dc c #0a0c10",
".Gm c #0a0d0f",
".I3 c #0a0d10",
".Jw c #0a1010",
".Jx c #0a1312",
".Jy c #0a1414",
".Kq c #0a1a17",
"#xB c #0b0a08",
"#xh c #0b0b08",
"#wx c #0b0b09",
"#wq c #0b0b0a",
".P8 c #0b0b0d",
".CD c #0b0b0e",
".Fh c #0b0b0f",
"#vZ c #0b0c09",
"#w. c #0b0c0a",
".KO c #0b0c0d",
".Dk c #0b0c0e",
".Di c #0b0c0f",
".EQ c #0b0c10",
".Er c #0b0d0f",
".Fi c #0b0d10",
".M7 c #0b0d11",
".OH c #0b121c",
".NS c #0b1d1a",
".Lx c #0b4c39",
"#xC c #0c0b09",
"#xP c #0c0b0a",
".Gn c #0c0b0c",
"#xb c #0c0c09",
"#u4 c #0c0c0a",
"#v5 c #0c0c0b",
".Fy c #0c0c0c",
".KM c #0c0c0d",
".JX c #0c0c0f",
"#wZ c #0c0d0a",
"#y. c #0c0d0b",
".KP c #0c0d0e",
".I# c #0c0d0f",
".FG c #0c0d10",
".Dh c #0c0d11",
".De c #0c0e10",
".Pf c #0c1014",
".NP c #0c231e",
".Kv c #0c2b24",
".JS c #0c2e2c",
"#xc c #0d0c0a",
"#xA c #0d0c0b",
".EH c #0d0c0d",
".CJ c #0d0c0e",
"#xW c #0d0d08",
".Ta c #0d0d0a",
"#wl c #0d0d0b",
".Dw c #0d0d0e",
"#sx c #0d0e0a",
"#wW c #0d0e0b",
"#vO c #0d0e0c",
".F9 c #0d0e0f",
".Pc c #0d1318",
".NQ c #0d2f26",
".IW c #0d7c68",
".JY c #0e0c0e",
"#w6 c #0e0d09",
"#xv c #0e0d0a",
".I4 c #0e0d0e",
".Of c #0e0d0f",
"#w3 c #0e0e0a",
"#u5 c #0e0e0b",
"#vL c #0e0e0c",
"#xY c #0e0e0d",
".Jh c #0e0e0e",
".KK c #0e0e10",
"#wX c #0e0f0c",
"#yB c #0e0f0d",
".NR c #0e2f26",
".JW c #0e2f27",
".ON c #0e3149",
".I. c #0e392d",
".H6 c #0e3934",
".Lv c #0e3e31",
".FT c #0f0406",
"#sZ c #0f0d09",
".L4 c #0f0d0f",
"#xE c #0f0e0a",
".1z c #0f0e0b",
"#w0 c #0f0e0c",
"#vQ c #0f0e0d",
".Nl c #0f0e10",
".FY c #0f0f0b",
"#sy c #0f0f0c",
"#ww c #0f0f0d",
"#ye c #0f100b",
"#yf c #0f100c",
"#xo c #0f100d",
".NW c #0f1010",
".Pd c #0f151c",
".Pe c #0f161d",
".MP c #0f2f26",
".Lz c #0f3c30",
".MJ c #0f4033",
".I1 c #0f4434",
".OK c #0f4567",
".NY c #100a0d",
".NZ c #100b0e",
"#wI c #100f0b",
"#wd c #100f0c",
"#wB c #100f0d",
"#xs c #10100b",
"#un c #10100c",
"#wy c #10100d",
"#wt c #10100e",
"#b8 c #10100f",
"#y6 c #10110c",
"#y5 c #10110d",
"#xU c #10110e",
"#wK c #10110f",
"#xd c #101110",
"#xt c #101111",
".P. c #101212",
".w7 c #101213",
".w8 c #101313",
".SU c #103d57",
".Ls c #104738",
".NX c #110b0d",
"#vy c #110f0b",
"#wE c #11100c",
"#yo c #11100d",
".Jl c #11100e",
".JA c #111010",
"#vY c #11110d",
"#wA c #11110e",
"#vl c #11110f",
"#v1 c #111110",
"#vE c #11120f",
"#yt c #111210",
".JT c #11352b",
".H7 c #113d30",
"#m1 c #120f0a",
"#wf c #12100c",
"#vV c #12110c",
"#uo c #12110d",
"#wi c #12110e",
".S8 c #12110f",
"#o# c #121110",
"#xr c #12120d",
"#wb c #12120e",
".4i c #12120f",
"#o. c #121210",
".xb c #121211",
"#xR c #12130f",
"#x6 c #121311",
"#xV c #121312",
".xa c #121415",
".Kt c #125440",
"#wH c #13110c",
".C4 c #131112",
"#uX c #13120d",
"#va c #13120e",
"#vI c #13120f",
"#yi c #131210",
".O0 c #13130a",
"#u6 c #13130f",
".7E c #131310",
".8E c #131311",
"#yA c #131312",
".8n c #131411",
"#wY c #131412",
"#wV c #131413",
".w9 c #131415",
".SX c #13364c",
".JV c #134a3a",
".Ku c #135440",
"#wh c #14110c",
"#wJ c #14110d",
"#oj c #14130f",
"#wF c #141310",
".2Y c #141311",
".Oz c #141312",
"#nC c #14140f",
"#vz c #141410",
".6d c #141411",
"#oM c #141412",
"#wv c #141413",
".F2 c #14150b",
"#z# c #141510",
".7I c #141511",
".Jg c #141512",
"#wz c #141513",
".JU c #144a3b",
".MG c #144d3e",
"#uZ c #15100a",
"#ne c #15120c",
"#w4 c #151310",
"#np c #151410",
"#wj c #151412",
".Qw c #151413",
"#nJ c #151510",
"#wU c #151511",
"#nu c #151512",
"#lY c #151513",
"#w2 c #151514",
"#xf c #151515",
"#yT c #151611",
".6h c #151612",
"#x4 c #151613",
"#xO c #151614",
".1w c #151714",
".wP c #151717",
".x. c #151718",
".QV c #15496a",
".H8 c #155c46",
".H9 c #155c47",
".FQ c #160000",
"#l2 c #16140e",
"#n4 c #16140f",
"#nq c #161410",
"#xg c #161411",
"#yu c #161412",
"#yY c #161510",
"#no c #161511",
"#n5 c #161512",
"#xX c #161514",
"#yv c #161611",
"#l# c #161612",
".4n c #161613",
"#vN c #161614",
"#wa c #161615",
".Pb c #161711",
".4q c #161713",
"#wT c #161714",
"#a7 c #161715",
"#xz c #161717",
".x# c #161718",
".6j c #161814",
".2X c #161815",
"#yO c #161817",
".IY c #164c3c",
"#uY c #17120c",
".C. c #171310",
"#wc c #17150f",
".S4 c #171511",
".Gv c #171517",
"#vn c #171611",
"#oi c #171612",
"#yJ c #171712",
"#oN c #171713",
"#xj c #171714",
".1n c #171715",
"#wD c #171716",
".Je c #171812",
"#yL c #171813",
"#sz c #171814",
"#wr c #171815",
".wR c #171817",
".wI c #171819",
".ZT c #171917",
".wQ c #171918",
"#yq c #171a18",
".6G c #171a19",
".6H c #171a1a",
".6J c #171b1b",
".Km c #172723",
".L2 c #173c53",
".PO c #175276",
".MN c #175342",
".MO c #175442",
".OL c #175b85",
".H5 c #177765",
"#sY c #18150f",
"#sp c #181510",
"#.i c #181610",
"#.a c #181611",
"#yg c #181612",
".JD c #181613",
"#n3 c #181712",
"#lb c #181713",
"#vb c #181714",
"#wk c #181715",
".Jf c #181812",
".D0 c #181813",
"#lU c #181814",
".ZS c #181815",
"#vG c #181816",
"#xT c #181817",
".Pa c #181912",
"#nv c #181914",
".2P c #181915",
"#xq c #181916",
"#yE c #181917",
".wN c #181918",
".wM c #181919",
".7J c #181a17",
".8O c #181a18",
".wK c #181a19",
".6F c #181a1a",
".5M c #181b18",
".6I c #181b1b",
".6P c #181c1c",
".NO c #182421",
".LZ c #185275",
"#wg c #19150f",
"#vt c #191510",
"#nT c #19160f",
"#oH c #191610",
"#uh c #191612",
"#mS c #191712",
"#uW c #191713",
".Ke c #191714",
"#lc c #191813",
"#la c #191814",
".8Y c #191815",
".Td c #19190c",
"#vP c #191913",
"#lT c #191914",
"#mK c #191915",
"#uu c #191916",
"#vM c #191917",
"#xN c #191918",
".P# c #191a14",
"#yR c #191a15",
".2W c #191a16",
".4m c #191a17",
".4r c #191a18",
".wS c #191a19",
".wJ c #191a1a",
".6i c #191b18",
".5L c #191b19",
".wO c #191b1a",
".0# c #191c1a",
".6K c #191c1b",
".6L c #191c1c",
".6O c #191c1d",
".6M c #191d1d",
".6Q c #191d1e",
".H3 c #196d5d",
".KI c #1a090b",
"#nm c #1a140c",
"#mN c #1a1710",
"#we c #1a1813",
"#l1 c #1a1913",
"#yX c #1a1914",
"#lZ c #1a1915",
".0c c #1a1916",
"#u8 c #1a1917",
".Lg c #1a191b",
"#w# c #1a1a15",
"#oa c #1a1a16",
"#w5 c #1a1a17",
"#wS c #1a1a18",
"#yl c #1a1a19",
"#pq c #1a1b17",
".8o c #1a1b18",
".4l c #1a1b19",
".wT c #1a1b1a",
".wL c #1a1b1b",
".4s c #1a1c18",
".7D c #1a1c19",
".5K c #1a1c1a",
".5N c #1a1c1b",
".6N c #1a1c1c",
".5P c #1a1d1b",
".5O c #1a1d1c",
".6R c #1a1f1f",
".PF c #1a5d83",
".OM c #1a5f89",
".Jo c #1b0c0e",
"#mw c #1b1710",
"#le c #1b1711",
"#l9 c #1b1912",
"#ld c #1b1913",
"#n2 c #1b1914",
"#l0 c #1b1a15",
"#sG c #1b1a16",
".Tb c #1b1b0d",
".D4 c #1b1b12",
".G. c #1b1b14",
"#kq c #1b1b16",
"#yG c #1b1b17",
"#wQ c #1b1b18",
"#xF c #1b1b19",
".G8 c #1b1c12",
".8D c #1b1c1a",
".6E c #1b1c1b",
".1o c #1b1d1a",
"#xn c #1b1d1c",
".5J c #1b1e1b",
".5H c #1b1e1c",
"#wP c #1b1e1d",
".5G c #1b1f1c",
".6T c #1b1f1f",
".6S c #1b1f20",
".JP c #1b5e52",
".JR c #1b6659",
".Lu c #1b6951",
".QS c #1b6d98",
".Ea c #1c0e10",
"#mh c #1c170e",
"#nn c #1c1811",
"#uR c #1c1812",
".OD c #1c1815",
"#vx c #1c1912",
"#sU c #1c1913",
"#tz c #1c1914",
"#mT c #1c1a14",
"#m0 c #1c1a15",
"#AD c #1c1a16",
"#os c #1c1b15",
"#mL c #1c1b16",
"#rS c #1c1b17",
"#xu c #1c1b18",
".G6 c #1c1c11",
"#uN c #1c1c17",
"#lV c #1c1c18",
"#wG c #1c1c19",
"#ws c #1c1c1a",
".Tc c #1c1d0e",
"#x1 c #1c1d18",
"#oB c #1c1d1a",
".6C c #1c1d1b",
".wU c #1c1d1c",
".5Q c #1c1e1b",
".5F c #1c1e1c",
"#x# c #1c1e1d",
".5I c #1c1f1c",
".5E c #1c1f1d",
"#wp c #1c1f1e",
".6V c #1c2020",
".6U c #1c2021",
".6W c #1c2121",
".H4 c #1c7967",
"#n1 c #1d170f",
"#vT c #1d1912",
"#nd c #1d1913",
"#sN c #1d1a14",
"#mM c #1d1b15",
"#lS c #1d1b16",
"#vd c #1d1b17",
"#vH c #1d1b18",
".JB c #1d1b19",
".Gc c #1d1c13",
"#om c #1d1c16",
"#nI c #1d1c17",
"#kr c #1d1c18",
"#v9 c #1d1c19",
"#xa c #1d1c1a",
".F1 c #1d1d11",
".G7 c #1d1d12",
"#u9 c #1d1d18",
"#ph c #1d1d19",
"#vF c #1d1d1a",
"#xG c #1d1d1b",
".D8 c #1d1e12",
".O7 c #1d1e14",
"#yN c #1d1e19",
"#u7 c #1d1e1a",
".6D c #1d1e1c",
".O9 c #1d1f18",
".5R c #1d1f1c",
".RR c #1d1f21",
".1v c #1d201c",
".5D c #1d201e",
".5C c #1d201f",
".6Z c #1d2121",
".6X c #1d2122",
".6Y c #1d2222",
".Kj c #1d3c33",
".Lt c #1d6a53",
".M2 c #1e080b",
"#vX c #1e1912",
"#oA c #1e1a13",
"#tH c #1e1b15",
"#tA c #1e1b16",
"#vS c #1e1c14",
"#ob c #1e1c16",
"#sH c #1e1c19",
"#nw c #1e1d18",
"#tg c #1e1d19",
"#v8 c #1e1d1a",
"#wu c #1e1d1b",
".IL c #1e1e0f",
"#vR c #1e1e19",
"#oO c #1e1e1a",
"#up c #1e1e1b",
"#yz c #1e1e1c",
".O5 c #1e1e1d",
".5S c #1e1f1d",
".6B c #1e1f1e",
".8k c #1e201c",
".5T c #1e201d",
".5B c #1e211f",
".5A c #1e2120",
"#v3 c #1e2121",
".61 c #1e2122",
"#vB c #1e2221",
".60 c #1e2223",
".Od c #1e4862",
".JQ c #1e675a",
"#sP c #1f1a13",
"#nx c #1f1b13",
"#vU c #1f1b15",
"#vJ c #1f1c17",
"#mi c #1f1d17",
"#uO c #1f1d19",
"#yQ c #1f1e19",
"#qc c #1f1e1a",
".JC c #1f1e1b",
"#xL c #1f1e1c",
".O8 c #1f1f15",
"#ur c #1f1f1a",
"#pa c #1f1f1b",
"#v7 c #1f1f1c",
"#x2 c #1f1f1d",
"#o2 c #1f201d",
".5V c #1f201e",
"#v4 c #1f201f",
".RS c #1f2020",
".w6 c #1f2021",
".6A c #1f211e",
".5U c #1f211f",
".RJ c #1f2122",
".RN c #1f2123",
".5z c #1f2221",
".RM c #1f2223",
".62 c #1f2224",
"#kp c #1f2324",
"#vW c #201b13",
"#qb c #201c15",
"#sX c #201c17",
"#on c #201d17",
".Ji c #201e11",
".FZ c #201f10",
".F0 c #201f11",
"#k6 c #201f19",
".Ki c #201f1a",
"#tK c #201f1b",
"#xM c #201f1c",
"#y# c #201f1d",
"#rT c #20201b",
".8X c #20201c",
"#jI c #20201d",
"#w8 c #20201e",
"#sA c #20211c",
"#iW c #20211d",
".6z c #20211f",
".RK c #202123",
".5W c #20221f",
".6y c #202220",
".RQ c #202223",
".RI c #202224",
".RL c #202225",
".5y c #202321",
"#q2 c #202323",
"#lX c #202324",
"#n8 c #202424",
"#k9 c #202425",
"#zN c #202526",
".JO c #202b20",
".PI c #205474",
".PL c #2078a7",
".LM c #210203",
".D9 c #210d10",
"#mD c #211c13",
"#nS c #211c15",
"#lQ c #211d16",
"#sK c #211e18",
".Qn c #211e1c",
".9F c #211f1a",
"#vK c #211f1b",
".Q7 c #21200f",
"#k5 c #21201a",
"#m2 c #21201b",
"#k7 c #21201c",
"#so c #21201d",
".DX c #212022",
"#tR c #21211b",
"#tY c #21211c",
".8W c #21211d",
"#x0 c #21211e",
"#oh c #21221e",
"#wL c #212220",
"#um c #212222",
".RP c #212224",
".7C c #21231f",
".5X c #212321",
"#l. c #212323",
".RG c #212324",
".RO c #212325",
".5x c #212423",
"#tF c #212424",
"#u3 c #212524",
"#qg c #212525",
"#po c #212526",
"#oG c #221d15",
"#l3 c #221e16",
"#mE c #221f19",
".Jj c #222011",
"#ks c #22201b",
"#yC c #22201c",
"#sF c #22211b",
"#to c #22211c",
"#ii c #22211d",
".Ps c #22211e",
"#ys c #22211f",
".P1 c #22220d",
"#tJ c #22221d",
".8V c #22221e",
"#yr c #22221f",
"#lD c #22231f",
".5Y c #222320",
".wV c #222321",
"#tG c #222322",
".Re c #222323",
".RH c #222324",
".0a c #22241f",
".6x c #222422",
"#a9 c #222423",
"#rQ c #222425",
"#s3 c #222525",
"#jG c #222526",
".5w c #222625",
"#ns c #222626",
".8i c #222627",
"#cd c #222727",
".Nj c #225372",
".L0 c #226c97",
"#sT c #231d13",
"#m. c #231e14",
"#uV c #231e17",
".B9 c #231e1a",
"#sM c #231f18",
"#lR c #231f19",
".Gg c #232014",
"#ug c #23201a",
".Jk c #232111",
"#sO c #23211b",
"#pk c #23211c",
"#si c #23221c",
"#tI c #23221d",
"#st c #23221e",
"#wR c #23221f",
"#mP c #23231e",
"#y7 c #23231f",
"#yy c #232320",
"#xZ c #232321",
"#sb c #232420",
"#yU c #232421",
".5s c #232422",
".HW c #232424",
".5Z c #232522",
".6w c #232523",
".RF c #232527",
".6v c #232624",
"#jH c #232626",
"#b. c #232725",
"#ba c #232928",
".SV c #235c7d",
".QM c #236c96",
".L1 c #236d97",
".FS c #240605",
".B8 c #241e1b",
"#oz c #241f17",
"#vr c #241f18",
"#ty c #241f19",
"#sL c #242018",
"#mO c #242019",
"#kv c #24211a",
".ZQ c #24211b",
".9H c #24221c",
"#u# c #24221d",
"#tf c #24231e",
"#oW c #24231f",
".M5 c #242324",
"#xp c #24241f",
"#sC c #242420",
"#yP c #242421",
"#rU c #242520",
".6a c #242522",
"#md c #242524",
"#u0 c #242624",
".6u c #242625",
".RE c #242628",
".RD c #242629",
".FR c #250605",
".B5 c #251f1c",
".B3 c #251f1d",
"#k2 c #252019",
".B4 c #25201d",
"#oc c #252119",
".9G c #25221c",
"#nN c #25231b",
".wX c #25231d",
"#uC c #25231e",
"#xw c #25231f",
"#yM c #252320",
".Gx c #252415",
".wZ c #25241e",
".1k c #25241f",
"#iX c #252420",
"#yF c #252421",
".JK c #252517",
"#s5 c #252520",
".wW c #252521",
"#z. c #252622",
".50 c #252623",
".52 c #252624",
".6s c #252625",
"#b# c #252626",
".51 c #252724",
".6t c #252725",
"#q3 c #252726",
".RC c #252729",
".RB c #25282a",
".8F c #252a28",
".Kk c #254a3f",
".SW c #255f80",
".MI c #25735b",
".OA c #262018",
".B6 c #26201c",
".B7 c #26201d",
".B2 c #26201e",
"#ll c #262119",
".BZ c #26211e",
"#uc c #26221a",
"#sD c #26221b",
"#t7 c #26251f",
"#iY c #262520",
".yN c #262521",
"#xi c #262522",
"#yI c #262620",
"#ov c #262622",
"#na c #262624",
"#mX c #262626",
".7K c #262723",
"#oV c #262725",
".6r c #262726",
"#li c #262827",
"#n9 c #262828",
".RA c #262829",
".Rz c #26282a",
".8B c #26292a",
".8N c #262b29",
".Oa c #266990",
"#sW c #272219",
"#mg c #27221c",
".B0 c #27221f",
".BY c #272220",
".Ow c #27231b",
"#kt c #27231c",
"#ot c #27241c",
"#sI c #27241f",
".BS c #272421",
".BQ c #272422",
"#u. c #27251e",
".IE c #27261e",
".2M c #272620",
".NK c #272621",
"#sJ c #272622",
".BU c #272623",
"#ij c #272722",
"#oo c #272723",
"#m5 c #272725",
"#mW c #272727",
"#cc c #272728",
".53 c #272926",
".5v c #272927",
".Rx c #27292b",
".Ry c #27292c",
".6q c #272a27",
"#fx c #272a2a",
"#gZ c #272b2b",
"#gf c #272b2c",
"#E# c #273030",
".Kl c #27483d",
"#Ec c #274d5c",
".Ng c #2777a4",
".B1 c #28221f",
"#m8 c #28241b",
".BR c #282422",
"#ny c #28251d",
"#sd c #28251e",
".Ms c #282522",
".BT c #282523",
".BC c #282524",
".T# c #28261d",
"#mF c #282620",
"#ux c #282622",
".GB c #282714",
".S9 c #28271b",
".2Z c #282722",
"#gg c #282723",
"#m3 c #282823",
".2O c #282925",
".54 c #282926",
"#rR c #282927",
"#o7 c #282929",
".55 c #282a26",
".6o c #282a28",
"#pp c #282a29",
"#iV c #282a2a",
".Rw c #282a2c",
".6p c #282b28",
".8U c #282b2b",
"#eE c #282c2c",
".8l c #282d2c",
"#ya c #283130",
"#yx c #283231",
".IT c #283c25",
"#Dy c #284f5e",
"#CR c #285060",
".QP c #286083",
".Ly c #28755d",
"#m7 c #29241b",
"#nL c #29251c",
".BX c #292522",
".BP c #292523",
"#ou c #292620",
".BV c #292623",
"#mj c #292720",
"#fz c #292823",
"#q4 c #292824",
".LQ c #292918",
"#sR c #292924",
"#pr c #292925",
"#zJ c #292926",
".9E c #292a26",
"#lL c #292a27",
"#nh c #292a28",
"#mQ c #292a29",
".56 c #292b28",
".6m c #292b29",
".Rv c #292b2c",
".6n c #292c2b",
".8m c #292e2d",
"#ig c #293131",
"#ge c #293132",
"#fs c #293231",
"#ez c #293232",
"#ds c #293332",
".H2 c #293421",
"#D5 c #294f5e",
"#DV c #294f5f",
"#Do c #29505f",
"#Ct c #295161",
"#C5 c #295262",
"#D9 c #296886",
"#Ei c #296887",
"#D2 c #296988",
"#DS c #296a89",
".I0 c #29765e",
".BO c #2a2524",
"#nl c #2a261d",
"#tE c #2a261f",
".BW c #2a2624",
".BM c #2a2625",
"#r1 c #2a2721",
".Le c #2a2723",
".BD c #2a2725",
".BF c #2a2726",
".Oy c #2a2820",
"#nR c #2a2822",
"#s4 c #2a2823",
"#oP c #2a2923",
"#ro c #2a2924",
"#g1 c #2a2925",
".T. c #2a2a1d",
"#oe c #2a2a25",
"#n. c #2a2a27",
".Rs c #2a2a2b",
"#nb c #2a2b29",
".Rr c #2a2b2c",
".Rq c #2a2b2d",
".57 c #2a2c28",
"#nt c #2a2c2b",
".Rt c #2a2c2c",
".Rp c #2a2c2d",
"#g0 c #2a2d2d",
"#ci c #2a2d2e",
"#yp c #2a2f2d",
".7F c #2a302e",
"#eC c #2a3132",
"#iU c #2a3232",
"#du c #2a3233",
"#gc c #2a3332",
"#cf c #2a3333",
"#gX c #2a3433",
"#Dd c #2a5162",
"#DI c #2a6b8b",
"#uk c #2b261e",
".BN c #2b2624",
"#ku c #2b271e",
"#rJ c #2b2720",
".Ka c #2b2724",
".Or c #2b2725",
".9Q c #2b2822",
".J# c #2b2824",
".CR c #2b2826",
".BE c #2b2827",
".Ox c #2b2922",
"#ts c #2b2923",
"#s8 c #2b2924",
"#nD c #2b2926",
".F3 c #2b2a0d",
".wY c #2b2a24",
"#nO c #2b2b26",
"#qh c #2b2b27",
"#pb c #2b2b28",
"#mV c #2b2b29",
".5u c #2b2c28",
"#oC c #2b2c29",
"#sw c #2b2c2a",
"#cb c #2b2c2b",
"#c# c #2b2c2c",
"#s1 c #2b2d2c",
"#ih c #2b2d2d",
".Ru c #2b2d2e",
"#yw c #2b2f2d",
"#yH c #2b302d",
"#xH c #2b302e",
"#wM c #2b302f",
".64 c #2b3233",
"#if c #2b3332",
"#.N c #2b3333",
".9K c #2b3334",
"#mJ c #2b3433",
"#oK c #2b3434",
"#qe c #2b3435",
".75 c #2b3437",
".9J c #2b3535",
"#E. c #2b383b",
"#D3 c #2b383c",
"#Dl c #2b6c8b",
".MH c #2b765f",
".E. c #2c0e0f",
".Jm c #2c0e10",
"#lI c #2c241b",
"#mo c #2c261b",
"#qa c #2c261e",
"#sQ c #2c271f",
"#sE c #2c281f",
"#n0 c #2c2920",
"#nM c #2c2921",
"#lv c #2c2922",
".BG c #2c2927",
".v8 c #2c2a23",
".yM c #2c2a24",
"#eG c #2c2a25",
"#sB c #2c2b25",
"#mR c #2c2b26",
"#zO c #2c2c28",
"#zI c #2c2c2a",
".IH c #2c2d19",
"#l7 c #2c2d2b",
"#o1 c #2c2d2d",
"#fn c #2c2f2e",
"#bc c #2c2f30",
"#wn c #2c302e",
"##W c #2c3230",
"##V c #2c3331",
".9h c #2c3332",
".Z8 c #2c3334",
"##U c #2c3432",
".Z7 c #2c3434",
".Z6 c #2c3435",
"#sv c #2c3436",
".Z3 c #2c3535",
".8z c #2c3536",
"#C3 c #2c3637",
"#Cr c #2c383b",
"#C2 c #2c3a3c",
"#DT c #2c3a3d",
"#Dc c #2c3a3e",
"#Dm c #2c3b3e",
"#Dv c #2c6c8b",
"#Db c #2c6d8b",
"#Eg c #2c7294",
"#Eh c #2c7394",
"#mC c #2d271d",
"#kk c #2d281e",
".9S c #2d2820",
"#k4 c #2d2821",
".BL c #2d2827",
"#rA c #2d2921",
"#sj c #2d2922",
".9R c #2d2923",
".AR c #2d2925",
".BI c #2d2928",
"#r2 c #2d2a23",
".9P c #2d2a24",
".yL c #2d2a25",
".BJ c #2d2a27",
".BH c #2d2a28",
"#sS c #2d2b25",
"#zb c #2d2b27",
".By c #2d2b2a",
"#vk c #2d2c26",
"#gh c #2d2c27",
"#hC c #2d2c28",
"#rW c #2d2d28",
".5t c #2d2d2a",
"#nV c #2d2d2b",
"#ms c #2d2d2d",
".HY c #2d2e1a",
".6c c #2d2e2a",
"#zt c #2d2e2c",
"#zs c #2d2e2e",
".Ro c #2d2e2f",
".F7 c #2d2e31",
".HU c #2d2e34",
"#su c #2d2f2e",
".G4 c #2d2f34",
"#.P c #2d3030",
"#v2 c #2d3230",
"#AE c #2d3331",
"#hB c #2d3332",
"#aY c #2d3333",
".9i c #2d3432",
".7H c #2d3433",
".9j c #2d3434",
"#s2 c #2d3435",
".Z2 c #2d3535",
".Z1 c #2d3536",
".Z4 c #2d3636",
".ZV c #2d3637",
"#CQ c #2d3737",
"#CP c #2d3b3d",
"#Dw c #2d3b3f",
"#Bd c #2d4652",
"#Bc c #2d4753",
".NL c #2d4941",
"#Be c #2d4956",
"#Bk c #2d4a58",
"#C1 c #2d6d8a",
"#Ef c #2d7294",
"#DZ c #2d7394",
"#Ee c #2d7395",
"#DY c #2d7495",
"#DL c #2d7496",
"#D8 c #2d7497",
"#DR c #2d7597",
".IZ c #2d7862",
"#q# c #2e281f",
".Id c #2e2a27",
".BK c #2e2a29",
"#r9 c #2e2b24",
".F5 c #2e2c0f",
"#iZ c #2e2c26",
"#y4 c #2e2c27",
".DB c #2e2c29",
".GF c #2e2d15",
"#nU c #2e2d26",
"#fA c #2e2d28",
"#m4 c #2e2d2a",
".BA c #2e2d2b",
".G3 c #2e2e11",
"#x8 c #2e2e2a",
".58 c #2e2e2b",
"#l6 c #2e2e2c",
"#zC c #2e2e2d",
"#ca c #2e2f2e",
".Rf c #2e2f2f",
".Tf c #2e2f31",
"#fy c #2e302f",
".Rn c #2e3030",
"#oZ c #2e3130",
"#vA c #2e3230",
"##0 c #2e3232",
"#u1 c #2e3331",
"#gU c #2e3332",
"##M c #2e3333",
"#fo c #2e3434",
"#b0 c #2e3435",
".6e c #2e3533",
".9g c #2e3534",
"##Z c #2e3535",
".Z5 c #2e3536",
".Z9 c #2e3537",
".Z0 c #2e3636",
".ZU c #2e3637",
"#fp c #2e3736",
".ZZ c #2e3737",
".ZX c #2e3738",
"#Bf c #2e4753",
"#DQ c #2e7394",
"#DN c #2e7395",
"#DM c #2e7494",
"#DB c #2e7495",
"#DD c #2e7496",
"#D6 c #2e7497",
"#DF c #2e7596",
"#DG c #2e7597",
".E# c #2f1010",
".9T c #2f271e",
"#sV c #2f291e",
".FU c #2f2b21",
"#od c #2f2b23",
"#yW c #2f2c24",
".EN c #2f2c28",
".F4 c #2f2d0f",
".S7 c #2f2d22",
"#rN c #2f2d26",
"#g2 c #2f2d28",
"#xe c #2f2d29",
".Bz c #2f2d2b",
"#uB c #2f2e28",
"#yS c #2f2e2a",
".0d c #2f2f29",
"#zz c #2f2f2d",
".xc c #2f302a",
"#zA c #2f302e",
"#rO c #2f302f",
"#hA c #2f312f",
".Rg c #2f3130",
".Rm c #2f3231",
"#ek c #2f3232",
"#iT c #2f3332",
"#ie c #2f3433",
"#da c #2f3434",
".9s c #2f3533",
"#q1 c #2f3534",
".8Q c #2f3535",
"##T c #2f3635",
".9L c #2f3636",
".0. c #2f3637",
"#yD c #2f3735",
"#fq c #2f3736",
".8T c #2f3737",
".ZW c #2f3738",
"#.K c #2f3837",
"#.L c #2f3838",
".ZY c #2f3839",
"#Bl c #2f4956",
"#Bi c #2f4a57",
"#Bm c #2f4a58",
"#AX c #2f4a59",
".MQ c #2f4b3c",
"#CO c #2f6f8c",
"#D1 c #2f7394",
"#D7 c #2f7395",
"#DO c #2f7494",
"#Ds c #2f7495",
"#DC c #2f7496",
"#D0 c #2f7497",
"#Du c #2f7595",
"#D. c #2f7596",
"#Dg c #2f7597",
"#DH c #2f7598",
"#Di c #2f7697",
"#Dj c #2f7698",
"#Dh c #2f7798",
"#Ed c #2f7799",
"#Dz c #2f789a",
"#.C c #30271d",
".OB c #302b21",
".OC c #302c21",
"#ss c #302c22",
"#yZ c #302c25",
".Ei c #302c2a",
"#rq c #302d26",
".FF c #302d29",
"#jN c #302e27",
"#q5 c #302e28",
"#gi c #302e29",
".BB c #302e2c",
"#rh c #302f28",
"#w1 c #302f29",
"#mG c #302f2a",
"#x9 c #30302a",
"#zH c #30302e",
"#n# c #30302f",
".IM c #303035",
".59 c #30312d",
"#oI c #30312e",
"#zB c #30312f",
"#ga c #303130",
"#or c #303230",
".Ri c #303231",
".Rj c #303232",
"#aX c #303334",
".M3 c #303336",
"#k8 c #303432",
".LN c #303435",
"#lW c #303533",
"#gb c #303534",
".8q c #303535",
".9u c #303634",
"#Eb c #303636",
".6g c #303737",
".8h c #303738",
"#fr c #303837",
"##X c #303838",
"#gW c #303839",
"#.J c #303938",
"#aZ c #303939",
"#jF c #303a38",
"#ft c #303a39",
"#Bg c #304852",
"#Bo c #304856",
"#Bp c #304956",
"#Bb c #304a57",
"#Bq c #304a58",
"#AY c #304a59",
"#Bj c #304b58",
"#AW c #304b5a",
"#AU c #304c5c",
"#AV c #304c5d",
".Lr c #304e3f",
".NN c #304f45",
"#DK c #307494",
"#DA c #307495",
"#DX c #307496",
"#Dq c #307595",
"#CW c #307596",
"#C9 c #307597",
"#DP c #307598",
"#C8 c #307696",
"#CV c #307697",
"#Da c #307698",
"#D# c #307798",
"#CY c #307799",
"#DJ c #30789b",
"#De c #307a9b",
".PG c #3088b8",
".IV c #308976",
"#jy c #312c24",
"#oF c #312d25",
"#jJ c #312d27",
"#rj c #312e24",
".El c #312e2e",
"#nf c #312f29",
"#g3 c #312f2a",
"#nj c #312f2b",
"#wC c #31302b",
"#zG c #31302d",
"#mn c #31312b",
"#zy c #31312f",
"#r8 c #31322f",
"#nF c #313230",
".Rd c #313231",
".P2 c #313236",
".6# c #313330",
"#o0 c #313332",
".Rk c #313333",
".8C c #313433",
"#bZ c #313434",
".KJ c #313436",
"##L c #313535",
"#mI c #313635",
"#pm c #313735",
"#qd c #313736",
".4o c #313837",
".4p c #313838",
"#fv c #313839",
"#ch c #313938",
"#.I c #313939",
"#ce c #31393a",
"#fu c #31393b",
"#eD c #313a38",
".8s c #313a39",
".8t c #313a3a",
"#fw c #313a3b",
"#pn c #313b39",
".8L c #313b3a",
"#xl c #313b3b",
"#Bh c #314955",
"#B# c #314956",
"#Bt c #314a57",
"#Ba c #314b58",
".MF c #315142",
"#DE c #317495",
"#Dt c #317496",
"#Dr c #317595",
"#Df c #317596",
"#Dk c #317597",
"#C0 c #317697",
"#CX c #317698",
"#CU c #317797",
"#Cw c #317798",
"#CZ c #317799",
"#DW c #31789b",
"#Dp c #31799b",
".PH c #3188b9",
".GJ c #321010",
"#vw c #322a1e",
"#rI c #322d24",
"#lH c #322e27",
".SL c #322f22",
".9O c #322f29",
".A2 c #322f2a",
"#eH c #323029",
"#dx c #32302a",
".yO c #32312b",
"#hD c #32312c",
"#xy c #32312d",
"#kA c #32322f",
"#q9 c #32332e",
"#pl c #323331",
"#c. c #323332",
".Rh c #323333",
"#mY c #323433",
".9B c #323533",
".8j c #323534",
"#oJ c #323635",
".9t c #323837",
".9e c #323838",
".9p c #323937",
".81 c #323938",
"#dv c #323939",
"#gV c #32393a",
".8x c #323a39",
".8y c #323a3a",
".8v c #323a3b",
"##Y c #323b39",
".8r c #323b3a",
".8w c #323b3b",
".8I c #323b3c",
".8K c #323c3b",
".8J c #323c3c",
"#B. c #324751",
"#A0 c #324a57",
"#A2 c #324b58",
"#AZ c #324b59",
"#AT c #324c59",
"#CT c #327698",
"#Cz c #327797",
"#Cv c #327798",
"#C7 c #327799",
"#Cy c #327898",
"#CK c #327899",
"#CM c #32789a",
"#CN c #32799b",
"#C6 c #32799c",
"#CS c #327a9c",
".Iz c #330d0b",
"#k3 c #332d24",
".za c #332e25",
"#r. c #332f28",
"#vm c #333027",
"#jD c #333029",
".9N c #33302a",
".OW c #333118",
"#jC c #33312a",
"#t1 c #33312c",
"#zd c #33322d",
"#pA c #33332e",
"#mr c #33332f",
"#lw c #333330",
"#ps c #33342f",
"#mZ c #333430",
"#n6 c #333432",
".O1 c #333437",
".6. c #333532",
"#eF c #333533",
"#a8 c #333534",
".Rl c #333636",
".9C c #333735",
".9v c #333837",
".9l c #333938",
"#Dx c #333939",
".9f c #333a38",
"#.O c #333a39",
".8R c #333a3a",
"#Ej c #333b39",
".2Q c #333b3a",
".8e c #333b3b",
".8c c #333b3c",
".8d c #333b3d",
".8u c #333c3a",
".8a c #333c3b",
".7G c #333c3c",
".78 c #333c3d",
".8g c #333c3e",
".8H c #333d3c",
".8f c #333d3d",
".79 c #333d3e",
"#A9 c #33474f",
"#A3 c #334955",
"#Bn c #334c59",
"#AS c #334d5b",
"#AQ c #334e5c",
"#AR c #334e5d",
"#CE c #337798",
"#CL c #337799",
"#CA c #337898",
"#Cx c #337899",
"#CJ c #33789a",
"#CB c #337999",
"#CD c #33799a",
"#Cu c #337a9c",
"#q. c #342c20",
"#mp c #342e24",
"#kE c #342f26",
"#oX c #343026",
"#rv c #343129",
"#.# c #34312a",
"#y1 c #34312b",
"#q6 c #34322c",
"#xS c #34322d",
".YT c #34332f",
".D5 c #343412",
".yK c #343430",
".yG c #343432",
"#lM c #343433",
".LU c #343520",
"#nP c #343532",
".YO c #343533",
".JH c #343537",
"#iB c #343633",
"#dw c #343635",
"#cj c #343636",
"#d# c #343737",
".8Z c #343a38",
".9k c #343a39",
".9b c #343b39",
"#Dn c #343b3a",
".66 c #343b3b",
"#DU c #343c3a",
"#qf c #343c3b",
".8. c #343c3c",
".74 c #343c3d",
".8# c #343c3e",
".8b c #343d3c",
".2V c #343d3d",
".2R c #343d3e",
".2T c #343d3f",
".1t c #343e3e",
".1r c #343e3f",
"#AG c #344751",
"#A4 c #344953",
"#Bu c #344a54",
"#A1 c #344c59",
".Kw c #345442",
"#CF c #347798",
"#CH c #347899",
"#CC c #347999",
"#CG c #34799a",
"#CI c #347a9a",
".Jn c #350e0f",
".Gk c #351010",
"#vu c #352c1f",
"#oQ c #353027",
"#i0 c #35312a",
".NG c #353227",
"#kn c #35322a",
"#jB c #35322b",
"#rV c #35332b",
"#uH c #35332c",
".ND c #353333",
"#yK c #353430",
".yJ c #353432",
".HT c #353515",
"#oS c #353531",
".yH c #353532",
".wH c #353533",
".YN c #353633",
".YM c #353634",
"#ol c #353635",
"#b9 c #353734",
"#jE c #353735",
"#ow c #353736",
"#nr c #353835",
".9I c #353837",
".9q c #353b38",
".80 c #353b3a",
".88 c #353b3b",
".65 c #353c3b",
"#zc c #353c3d",
"#zM c #353c3e",
".1p c #353d3c",
".2S c #353d3d",
".1u c #353d3e",
".73 c #353d3f",
".2U c #353e3d",
".1s c #353e3e",
".1q c #353e3f",
".71 c #353e40",
".8M c #353f3f",
".72 c #353f41",
"#A8 c #354850",
"#A7 c #354951",
"#Br c #354b57",
"#Bs c #354c59",
".NM c #35574f",
"#BA c #355764",
"#.D c #362f25",
"#pj c #363028",
"#il c #363129",
"#i1 c #363229",
"#jK c #36322b",
"#eI c #36332c",
"#m9 c #36332d",
".S5 c #363422",
"#gj c #36342c",
"#tj c #36342f",
"#ma c #363530",
".4u c #363531",
"#zx c #363533",
".S6 c #363625",
".yF c #363634",
"#my c #363635",
".yE c #363734",
".YL c #363735",
".YQ c #363836",
"#oy c #363838",
"#mH c #363936",
".8P c #363a3b",
".8p c #363a3c",
".9y c #363c3a",
"#yc c #363d3e",
".67 c #363d3f",
"#xk c #363e3e",
".6f c #363e3f",
".69 c #363e40",
".68 c #363f3f",
".8G c #363f40",
".70 c #363f41",
".7Z c #363f42",
"#zL c #364041",
"#By c #364144",
"#A5 c #36474e",
"#A6 c #36484e",
"#nk c #373229",
".FX c #37322a",
"#rp c #37332c",
"#v. c #37342c",
"#ik c #37342d",
".Ie c #373436",
".D3 c #373517",
".Et c #373518",
"#fB c #37352d",
"#lf c #37352e",
"#ck c #37352f",
"#nY c #373533",
".N3 c #373619",
".IP c #37361e",
"#x5 c #373631",
"#oT c #373633",
".yI c #373634",
".D7 c #373714",
".yD c #373735",
"#of c #373834",
"#x3 c #373835",
".yw c #373836",
"#nG c #373837",
".LY c #37391e",
".Pt c #373934",
".YJ c #373936",
".YK c #373937",
".9M c #373938",
".9D c #373b38",
".9r c #373d3a",
".9. c #373d3c",
".9m c #373d3d",
".9o c #373e3d",
"#xK c #373e3f",
"#x. c #373f3f",
"#xm c #373f40",
".7a c #373f41",
".7# c #373f42",
"#AF c #374040",
".7b c #374041",
".7. c #374042",
"#Bv c #374950",
".QT c #3793c4",
"#hF c #38352d",
"#hE c #383530",
"#p3 c #38362e",
"#ng c #383630",
"#zD c #383632",
"#lj c #38372e",
".yC c #383835",
"#nK c #383836",
"#m6 c #383935",
".YI c #383936",
".yA c #383937",
"#ok c #383938",
"#nH c #383939",
".YH c #383a37",
".YP c #383a38",
"#kI c #383a39",
"#.H c #383a3a",
".7A c #383b3b",
".89 c #383e3e",
".9c c #383f3d",
".7z c #383f3f",
"##S c #38403f",
"#w9 c #384040",
".7W c #384042",
".7Y c #384043",
".7c c #384142",
".7X c #384143",
".7d c #384144",
"#xJ c #384243",
".7e c #384244",
"#Bw c #38484f",
"#AP c #384e5a",
"#tQ c #393228",
"#rY c #39342c",
".AS c #39342f",
"#jL c #39352c",
".AT c #393530",
".AU c #393531",
"#tb c #39362e",
".AV c #393631",
".AW c #393632",
".Ih c #39371b",
"#tL c #39372f",
"#lz c #393731",
"#zp c #393835",
"#zi c #393837",
"#oU c #393935",
".yB c #393937",
"#nQ c #393938",
".D6 c #393a14",
"#nc c #393a36",
".YF c #393a37",
".oq c #393a38",
"#pc c #393a39",
".Sv c #393a3a",
".Sx c #393b39",
".Sw c #393b3a",
"#lE c #393b3b",
".YG c #393c39",
"##1 c #393c3a",
".9n c #39403f",
"#dr c #394142",
".7V c #394143",
".7g c #394243",
".7h c #394244",
"#xI c #394344",
".Kz c #396f58",
"#q0 c #3a3226",
"#ri c #3a362b",
"#yV c #3a362c",
"#hG c #3a362d",
"#im c #3a362e",
".AZ c #3a3632",
"#dy c #3a3730",
".A0 c #3a3731",
".AX c #3a3732",
".AY c #3a3733",
"#t# c #3a3831",
".D2 c #3a3916",
"#qi c #3a3932",
"#q7 c #3a3933",
"#tm c #3a3934",
"#nz c #3a3935",
".Gb c #3a3a24",
"#pt c #3a3a34",
"#zh c #3a3a38",
"#q8 c #3a3b36",
".yz c #3a3b38",
".yx c #3a3b39",
".Ss c #3a3b3a",
".Su c #3a3b3b",
".YE c #3a3c39",
".Sy c #3a3c3a",
".St c #3a3c3b",
".Sd c #3a3d3c",
".Sb c #3a3d3e",
"#dl c #3a4142",
"#dk c #3a4143",
".7i c #3a4243",
".7l c #3a4244",
".7k c #3a4343",
".7j c #3a4344",
".7f c #3a4345",
"#vq c #3b352b",
"#qX c #3b352c",
"#pB c #3b362d",
"#.j c #3b362f",
".A1 c #3b3733",
"#i2 c #3b382f",
"#eJ c #3b3831",
".A3 c #3b3833",
".Fk c #3b3919",
"#rB c #3b3932",
"#rH c #3b3933",
"#tN c #3b3a37",
".Yx c #3b3b37",
".p1 c #3b3b38",
".yy c #3b3b39",
"#nE c #3b3b3a",
".YB c #3b3c39",
".Sl c #3b3c3a",
".Sr c #3b3c3b",
".SC c #3b3c3c",
".YD c #3b3d3a",
".Sz c #3b3d3c",
".S. c #3b3d3d",
"#.Q c #3b3e3c",
".Sc c #3b3e3d",
".82 c #3b413f",
"##N c #3b4343",
".7m c #3b4346",
".7n c #3b4446",
".LA c #3b624d",
".QU c #3b96c8",
"#.t c #3c3429",
"#kU c #3c3529",
"#pg c #3c352a",
"#nZ c #3c362c",
"#jM c #3c382f",
"#g5 c #3c3930",
"#qu c #3c3931",
"#jU c #3c3932",
"#av c #3c3933",
"#th c #3c3a33",
"#y3 c #3c3a35",
"#is c #3c3b36",
"#i3 c #3c3c38",
".Sp c #3c3c39",
".nn c #3c3c3a",
".YA c #3c3d39",
".So c #3c3d3a",
".Sq c #3c3d3b",
".SA c #3c3d3c",
".YC c #3c3e3b",
".SB c #3c3e3d",
".Sa c #3c3e3e",
".9d c #3c4342",
"#do c #3c4345",
".7U c #3c4445",
".7S c #3c4446",
"#db c #3c4544",
".7R c #3c4546",
"#AJ c #3c4f58",
"#AL c #3c5059",
"#qP c #3d362a",
"#g4 c #3d3931",
"#y0 c #3d3932",
"#fC c #3d3a31",
"#rw c #3d3a33",
".A4 c #3d3a36",
"#mm c #3d3b36",
".M9 c #3d3c1b",
".Il c #3d3c1c",
"#zo c #3d3c39",
".6k c #3d3d36",
"#iE c #3d3d37",
".pb c #3d3d39",
".Sm c #3d3d3b",
"#ql c #3d3e39",
".Sn c #3d3e3b",
".Qz c #3d3e3c",
"#kX c #3d3f3d",
".S# c #3d3f3e",
".Se c #3d3f3f",
"#ox c #3d3f40",
".Sk c #3d403e",
".7L c #3d4241",
"##O c #3d4544",
".7T c #3d4546",
".7P c #3d4547",
".7O c #3d4548",
".7Q c #3d4647",
".7q c #3d4648",
".7o c #3d4649",
"#AI c #3d4f55",
".Ob c #3d88b3",
"#g6 c #3e392f",
"#g# c #3e3931",
"#r# c #3e3a2f",
"#sc c #3e3a31",
"#fD c #3e3a32",
".D1 c #3e3b19",
"#gk c #3e3b32",
"#dz c #3e3b34",
".Hn c #3e3c1b",
"#y2 c #3e3c35",
"#bd c #3e3c36",
".A5 c #3e3c37",
"#zj c #3e3c38",
".A9 c #3e3c39",
"#mU c #3e3d38",
"#i7 c #3e3d39",
"#l8 c #3e3e3a",
"#rg c #3e3f38",
"#og c #3e3f3c",
"#kK c #3e3f3d",
"#l5 c #3e403e",
".Sh c #3e4040",
".Sg c #3e4140",
"#.h c #3e4141",
"#.b c #3e4241",
".9w c #3e4441",
".85 c #3e4443",
".84 c #3e4544",
"#dp c #3e4546",
"##P c #3e4645",
".7p c #3e4648",
".vU c #3e464c",
"##Q c #3e4746",
".7r c #3e4748",
".7N c #3e4749",
"#Bx c #3e4d52",
"#AK c #3e5058",
"#AM c #3e5159",
"#AN c #3e525b",
".Oc c #3e8bb6",
"#.s c #3f392e",
"#gl c #3f3b33",
"#r3 c #3f3c31",
"#qL c #3f3c32",
"#ir c #3f3c33",
".B. c #3f3c39",
".G# c #3f3d24",
".B# c #3f3d39",
".A7 c #3f3d3a",
"#AC c #3f3e3a",
"#jV c #3f3f3a",
"#kQ c #3f3f3b",
"#mz c #3f3f3c",
".N7 c #3f4024",
"#me c #3f403d",
"#op c #3f403e",
".Sj c #3f413f",
".Si c #3f4140",
".Sf c #3f4241",
".O# c #3f4327",
"#lq c #3f4345",
"#dn c #3f4648",
"#di c #3f4649",
"#a0 c #3f4746",
".7M c #3f4749",
".7s c #3f4849",
"#AO c #3f5058",
"#qB c #403a31",
"#.E c #403b32",
"#gT c #403b33",
"#hz c #403c33",
"#jr c #403d33",
"#cl c #403d36",
"#lk c #403d37",
".A8 c #403d3a",
".Ga c #403e25",
"#y9 c #403e38",
"#au c #403e39",
".A6 c #403e3a",
"#iJ c #403f3a",
".Ot c #403f3b",
"#ml c #403f3c",
"#oD c #40403e",
".yv c #40403f",
".lN c #40413f",
"#nA c #40423d",
".9x c #404643",
".9z c #404644",
"#dj c #404749",
".7y c #404849",
"#uj c #413423",
"#sq c #413b30",
"#sl c #413b32",
".Ip c #413d1c",
"#gm c #413d33",
"#eL c #413d34",
"#id c #413d35",
"#iR c #413e37",
"#pd c #414039",
".qI c #41403b",
"#lu c #41413c",
"#sh c #41413d",
".Yz c #41423e",
".Yy c #41423f",
".Qy c #414340",
".9A c #414542",
".9a c #414745",
"##R c #414848",
".7x c #414849",
"#Ek c #414949",
".7v c #41494a",
".7u c #41494b",
".7t c #414a4b",
"#lO c #423a30",
"#qv c #423b2f",
"#fE c #423d33",
".Gd c #423f1b",
"#iK c #423f35",
"#eK c #423f36",
".nT c #42413c",
"#lN c #42413d",
"#lA c #42423b",
"#nB c #42423d",
"#jl c #42423f",
"#oE c #424240",
".vm c #424340",
"#oq c #424442",
".7w c #42494a",
"#dq c #424a4b",
"#AH c #424e52",
".MT c #427462",
".KE c #43211c",
"#tD c #433727",
"#lK c #433f34",
"#uI c #433f36",
"#uD c #434038",
".EB c #43411a",
".ZP c #434137",
"#kF c #43413b",
"#nX c #43413d",
".Ex c #43421c",
".2L c #43423d",
"#ta c #43423e",
"#kB c #43433d",
".nV c #43433f",
".R9 c #434341",
"#j. c #434441",
"#lp c #434648",
"#dm c #434a4c",
"#b1 c #434b49",
"#ex c #434b4c",
"#ev c #434d4d",
"#sr c #443b2e",
"#qm c #443d31",
"#r5 c #443d33",
".Pw c #443f2f",
"#lm c #443f35",
"#eM c #444036",
"#zK c #444039",
"#uv c #444137",
"#hH c #444139",
".GV c #444222",
"#tX c #44423e",
".Hr c #44431d",
".Fo c #44431e",
"#qj c #44433d",
"#nW c #44433f",
".ld c #444340",
"#t5 c #44443e",
"#ni c #444440",
".mR c #444443",
"#yd c #44453f",
"#at c #444541",
".Qx c #444641",
"#ly c #444646",
"#mc c #444747",
".9# c #444a49",
"#et c #444d4d",
"#eu c #444e4e",
".Iw c #450b09",
"#qZ c #453a2d",
"#p2 c #453d32",
"#qC c #453f34",
"#.F c #453f37",
"#t. c #454036",
"#.R c #454037",
"#iS c #45413a",
".9U c #454235",
"#za c #454239",
".Yu c #45433c",
"#rn c #454541",
".kP c #454543",
".JI c #454546",
".IF c #454625",
"#ym c #45463f",
"#iz c #454846",
".83 c #454b4a",
".87 c #454b4b",
"#ew c #454d4e",
".q6 c #454d53",
"#Cq c #456f83",
".MY c #46241e",
"#vv c #463c2d",
".SP c #463e2c",
"#hy c #464137",
".zl c #46413a",
".Hv c #46421c",
"#qK c #464239",
"#cm c #46423a",
"##K c #46423b",
".Ba c #46423d",
"#dA c #46433a",
"#kS c #46433d",
".Yw c #46443e",
"#te c #46443f",
".Ff c #464444",
".pa c #46453f",
".nl c #464540",
"#in c #46463f",
".vf c #464740",
"#lo c #464742",
".q5 c #464e54",
"#ey c #464f4f",
".GG c #471112",
"#pf c #473f35",
"#kd c #474135",
"#uP c #474136",
"#.G c #474139",
"#qJ c #474237",
".Fs c #47431c",
"#vo c #474338",
"#jz c #47433a",
"#yh c #47443e",
"#mq c #47443f",
"#kC c #47453c",
"#o8 c #47453e",
".p# c #47453f",
"#ra c #47463e",
".oo c #474641",
".nU c #474642",
".ve c #474740",
".op c #474742",
"#jq c #474743",
".mj c #474744",
".iA c #474746",
".uL c #474840",
".vg c #474841",
"#qk c #474844",
"#lF c #474848",
".vV c #474f54",
".r# c #475055",
"#uU c #483c2c",
"#gS c #484137",
"#ic c #48443a",
".Pg c #48453c",
"#be c #48453e",
".Ge c #48461b",
".Gf c #48461c",
"#pV c #48463f",
"#as c #484742",
".nm c #484743",
".Nb c #484924",
".jC c #484948",
".IG c #484a26",
"#qt c #484a45",
"#iv c #484a49",
".q7 c #484f56",
".qo c #485055",
".q9 c #485056",
"#pC c #493f31",
"#g. c #494337",
".92 c #49433b",
"#f9 c #494439",
".JZ c #49443a",
".I5 c #49443b",
".FV c #494535",
".FW c #494536",
".Ia c #49453b",
"#tn c #49453c",
"#.x c #494642",
".Qc c #49473e",
"#o6 c #494741",
"#ln c #494842",
".1y c #494844",
".GZ c #49491b",
"#kw c #494943",
".rw c #494947",
"#kY c #494948",
"#jO c #494a44",
".P7 c #494a46",
"#b6 c #494a48",
".yV c #494b47",
".Nf c #494f2a",
".q8 c #495156",
".LD c #499b7e",
"#qY c #4a4134",
"#.B c #4a4235",
"#.S c #4a4339",
"#.u c #4a4439",
"#jA c #4a453b",
".KS c #4a453d",
".L5 c #4a463c",
".EI c #4a463d",
".Bc c #4a4641",
".lK c #4a4843",
".Bx c #4a4844",
".kM c #4a4944",
".3u c #4a4946",
".lg c #4a4947",
".yU c #4a4a46",
".mQ c #4a4a47",
".j4 c #4a4a48",
".SZ c #4a4b4d",
".vp c #4a4c48",
".vq c #4a4c49",
".vr c #4a4d49",
".86 c #4a504f",
".r. c #4a5257",
"#es c #4a5354",
".ra c #4a5358",
".93 c #4b453b",
".Hf c #4b463c",
".Go c #4b463d",
"#vc c #4b463e",
".Bd c #4b4741",
"#lG c #4b483e",
".Og c #4b483f",
"#kR c #4b4840",
"#qI c #4b4841",
".HL c #4b4928",
".mP c #4b4a45",
".5n c #4b4a46",
"#kc c #4b4b46",
".kt c #4b4b4a",
".nW c #4b4b4b",
".yW c #4b4c48",
".y0 c #4b4c49",
".hw c #4b4c4b",
".vo c #4b4d49",
"#mu c #4b4d4b",
"#pz c #4b4e4e",
".q4 c #4b5358",
"#el c #4b5555",
"#BC c #4b8099",
"#BB c #4b829a",
".Lo c #4b9577",
".Ni c #4ba0cf",
".PN c #4ba5d7",
"#rM c #4c4538",
"#ej c #4c463c",
"#gs c #4c473d",
".Bb c #4c4741",
"#ha c #4c483d",
"#dC c #4c483e",
".Ec c #4c483f",
".Bf c #4c4842",
"#zw c #4c4843",
".mO c #4c4943",
"#yk c #4c4a41",
".mh c #4c4a44",
"#lg c #4c4b45",
".5m c #4c4b47",
".5l c #4c4b48",
".vd c #4c4c45",
".i4 c #4c4c49",
".FP c #4c4c4e",
"#ji c #4c4d48",
".yX c #4c4d4a",
"#pX c #4c504e",
"#eo c #4c5556",
"#ep c #4c5656",
"#BD c #4c819a",
"#fm c #4d4539",
"#.T c #4d463b",
"#fl c #4d473b",
"#eT c #4d483f",
"#mf c #4d4942",
".Be c #4d4943",
"#.o c #4d4944",
"#ib c #4d4a40",
"#vh c #4d4a41",
".Bg c #4d4a44",
"#tS c #4d4b42",
"#uq c #4d4b44",
"#kj c #4d4b47",
"#kZ c #4d4c46",
"#s7 c #4d4c47",
".xW c #4d4d46",
".mi c #4d4d48",
".j2 c #4d4d49",
".kO c #4d4d4a",
"#ip c #4d4d4b",
".yZ c #4d4e4a",
".yY c #4d4e4b",
".c5 c #4d5052",
"#.d c #4d5256",
"#en c #4d5757",
"#BE c #4d8198",
"#BL c #4d8299",
"#Cm c #4d829a",
"#BM c #4d849d",
"#ui c #4e3f2b",
"#o4 c #4e473b",
"#sf c #4e473e",
"#aw c #4e493c",
"#dD c #4e493f",
"#fF c #4e4a3f",
".9V c #4e4a43",
".97 c #4e4a44",
"#.r c #4e4b41",
"#y8 c #4e4b43",
"#zg c #4e4b47",
"#lC c #4e4c45",
".4k c #4e4d46",
".5k c #4e4d49",
".lM c #4e4e4a",
".j3 c #4e4e4b",
".i7 c #4e4e4d",
".N2 c #4e4f4a",
"#jp c #4e4f4b",
".g0 c #4e4f4e",
".Iv c #4e4f51",
".vn c #4e504d",
"#i9 c #4e504f",
"#iw c #4e514e",
"#El c #4e5556",
".vW c #4e555a",
"#em c #4e5858",
"#Cl c #4e829a",
"#BK c #4e839b",
"#BO c #4e839c",
"#BN c #4e849c",
".ST c #4f452d",
"#pK c #4f4537",
"#km c #4f493e",
"#pi c #4f493f",
"#.v c #4f4943",
".v9 c #4f4a3c",
"#h2 c #4f4b3f",
"#g7 c #4f4b41",
"#dB c #4f4b42",
".p0 c #4f4b44",
".Bh c #4f4b46",
"#l4 c #4f4d45",
".mg c #4f4d47",
".5j c #4f4d4a",
".1m c #4f4e48",
".tH c #4f4e4a",
".kq c #4f4e4c",
".GM c #4f4e50",
".ks c #4f4f4c",
".ML c #4f4f51",
".O4 c #4f504a",
"#jR c #4f504c",
"#jh c #4f504e",
".Jr c #4f5051",
"#jY c #4f514f",
".OJ c #4f5154",
"#j# c #4f5250",
".PK c #4f5255",
"#.f c #4f5559",
"#.e c #4f565a",
".vX c #4f575b",
".rb c #4f575c",
"#er c #4f5859",
"#eq c #4f595a",
"#Cn c #4f8298",
"#Ch c #4f829a",
"#BU c #4f839a",
"#Ci c #4f839b",
".PM c #4fa4d2",
"#vs c #504536",
"#qW c #50483b",
"#kl c #504a3f",
"#vp c #504b3f",
"#eN c #504b40",
"#vj c #504b41",
".ZR c #504c41",
".rt c #504c42",
".Dx c #504c43",
".OZ c #504d16",
".Q4 c #504d2a",
".ru c #504d45",
".uK c #504e41",
"#lr c #504e46",
"#lh c #504e47",
"#zP c #504e4b",
".HC c #504e50",
"#kM c #504f49",
"#mv c #504f4a",
".w5 c #504f4b",
".1A c #505049",
".YR c #50504b",
".P5 c #50514c",
"#b4 c #50514e",
"#yn c #50524e",
"#iq c #50524f",
".QR c #505255",
"#jd c #505351",
"#.g c #505559",
"#Cp c #508095",
"#Co c #508299",
"#BF c #508399",
"#BJ c #50839b",
"#BP c #50859e",
".Nh c #50a1cc",
".QO c #50a4d1",
"#hv c #514432",
"##y c #514b3f",
"#f8 c #514b40",
"##J c #514b41",
"#zk c #514b43",
"#gR c #514c41",
".QD c #514d35",
"#bf c #514d44",
"#rE c #514d45",
".Bk c #514d46",
".Bi c #514d47",
"#iQ c #514e45",
".pZ c #514e46",
".Bl c #514e49",
".rv c #514f48",
".5i c #514f4b",
".L6 c #515048",
"#r0 c #51504b",
".HP c #515122",
".Ib c #515149",
".jB c #51514e",
".Hh c #51524a",
".y1 c #51524c",
".iz c #51524f",
"#kL c #515251",
".7B c #515352",
"#pY c #515452",
"#.c c #515659",
".rW c #51595c",
".vY c #51595d",
"#BG c #518296",
"#BH c #518298",
"#BI c #518399",
"#B3 c #51849c",
"#BR c #51849d",
"#BQ c #51859d",
".Gh c #521515",
"#f6 c #524735",
"#tB c #524738",
"#.U c #524b41",
"#pR c #524c41",
"#p5 c #524c44",
"##q c #524c45",
".Bj c #524d47",
".CK c #524e45",
".4j c #524f44",
"#mx c #524f46",
".qG c #524f47",
".Bm c #524f49",
".qH c #525049",
".yQ c #52514a",
".lf c #52524f",
".i6 c #525250",
".h4 c #525252",
".Gq c #52534a",
".P6 c #52544e",
"#pN c #525553",
".vZ c #52595d",
".uc c #525a5e",
"#B5 c #528298",
"#BS c #52839b",
"#Cg c #52849b",
"#BV c #52859b",
".QN c #52a3cf",
"#p9 c #534739",
"#pM c #534c42",
"#.k c #534d40",
"#fk c #534d41",
"#hx c #534d43",
"##2 c #534e43",
"#v# c #534e45",
"#vi c #534f46",
"#ia c #534f47",
".Bn c #534f4a",
"#tZ c #535047",
".Yv c #535049",
"#ze c #53504c",
"#kz c #53514a",
".5h c #53514d",
".le c #53524d",
".Oh c #53534b",
".1x c #53534d",
".kr c #53534e",
".kN c #53534f",
"#k# c #535350",
".h0 c #535351",
".FA c #53544d",
"#k. c #535451",
".vs c #535551",
".qr c #53595d",
".qp c #535b60",
".rc c #535c62",
"#BT c #538299",
"#B6 c #53869d",
"#Cc c #53879e",
".MR c #539279",
"#uS c #54442f",
"#gO c #544835",
"#oR c #544e44",
"#qw c #544f43",
".qF c #545048",
".OY c #545116",
".sw c #545146",
"#sg c #545148",
"#o3 c #54514a",
".OX c #545215",
"#m# c #54524b",
".sx c #54534d",
".jz c #54534e",
".lL c #54544e",
".3B c #54544f",
".h3 c #545452",
".II c #545526",
".3A c #545550",
".Pu c #545553",
".3z c #545651",
"#j2 c #545652",
"#pW c #545756",
"#BZ c #548499",
"#Cj c #54849b",
"#Cb c #54859c",
"#B2 c #54869d",
"#Ce c #54869e",
"#Cd c #5487a0",
"#B4 c #54889e",
"##r c #554e47",
"#.A c #554f47",
".yP c #555046",
"#kW c #555047",
"#.w c #55504a",
".PX c #55512a",
"#hw c #555147",
"#p4 c #55514a",
"#.p c #55524a",
".ix c #555451",
".Nn c #55554d",
".vc c #55554e",
"#ju c #555552",
"##k c #555553",
"#j6 c #555652",
".fJ c #555654",
"#jZ c #555856",
"#pI c #555859",
"#pZ c #555958",
".v0 c #555d60",
".qs c #555d61",
".sQ c #555e62",
"#Ck c #55849c",
"#Cf c #55869e",
"#B7 c #5588a0",
".Ky c #559c7f",
"##s c #564e46",
"##p c #564f46",
"#d. c #565045",
".Bo c #56524d",
".pY c #56534a",
"#lP c #56534d",
".yT c #56544c",
".vl c #56544d",
".nk c #56544e",
".Bq c #56544f",
".5g c #565450",
"#ar c #56554e",
"#kT c #565652",
".jA c #565653",
"#zS c #565656",
".EK c #56574f",
"#i5 c #565855",
".gk c #565857",
".d6 c #565858",
".SD c #565956",
"#jc c #565957",
".dz c #565959",
"#pH c #565a5a",
".qq c #565d62",
"#B0 c #56879e",
".MC c #56b090",
"#fh c #574d3c",
"#.V c #575044",
"##t c #57504a",
"##I c #575145",
"#gP c #575249",
"#bg c #57534a",
".GA c #575422",
".1l c #575449",
"#p# c #57544d",
".tE c #57554d",
".sy c #57554e",
".Bp c #57554f",
"#mB c #575551",
".GC c #57561d",
".3C c #575651",
".J0 c #57574e",
".KT c #57574f",
".Ed c #575750",
".3v c #575752",
".ht c #575753",
".iy c #575754",
".lh c #575756",
".NB c #575852",
".3y c #575853",
"#kb c #575854",
".hv c #575856",
"#zR c #575857",
"#zT c #575958",
"#pG c #575b5a",
".qu c #575d60",
".qv c #575e63",
"#BY c #57869a",
"#BW c #57869b",
"#B9 c #57889e",
"#Ca c #57889f",
"#C. c #5789a1",
".Kx c #579779",
".LI c #58291e",
"#h9 c #584f40",
"#p6 c #585145",
"#vg c #585246",
"##v c #585248",
"#p7 c #585348",
"#zn c #585349",
"#f7 c #58544a",
"#rX c #58544b",
"#i. c #58554c",
"#.n c #58554d",
"#.. c #585550",
".94 c #58564d",
".5f c #585651",
".Br c #585752",
".IK c #585825",
".Nm c #585850",
".jy c #585855",
".h2 c #585856",
"#lx c #585857",
".IJ c #585926",
".4t c #585951",
".z6 c #585953",
"##i c #585955",
".gi c #585956",
".gZ c #585957",
".eC c #585958",
"#kH c #585c5d",
".s0 c #585f61",
".r3 c #586063",
"#BX c #58879c",
"#C# c #5889a0",
"#pu c #594c3b",
"#uQ c #594d3c",
".Kf c #595139",
"#ei c #595144",
"#uM c #595247",
".Lj c #59533a",
"#lB c #595347",
".91 c #59554a",
".sv c #59554b",
"#gQ c #59554c",
"#.m c #59554e",
".Ln c #59563e",
".yS c #59564d",
"#zW c #595757",
"#iC c #595852",
"#kG c #595853",
".i5 c #595854",
"#zQ c #595856",
"##g c #595954",
"#AA c #595958",
".I6 c #595a52",
".Af c #595a54",
"#i6 c #595a56",
".gY c #595a58",
"#zV c #595a59",
".xV c #595b56",
".xH c #595e60",
".r4 c #596063",
".qt c #596064",
"#B1 c #59879d",
"#eh c #5a5348",
"##H c #5a5448",
"#bY c #5a554a",
"#cn c #5a564d",
".tG c #5a574f",
"#mk c #5a5754",
".xX c #5a584c",
".5e c #5a5854",
".ZO c #5a594f",
".3D c #5a5954",
"##h c #5a5955",
"#zZ c #5a5956",
".MB c #5a5a40",
".KU c #5a5a52",
".Ae c #5a5a54",
"#b5 c #5a5a58",
".uM c #5a5b53",
".v# c #5a5b54",
".Aq c #5a5b55",
".Ag c #5a5b56",
".gl c #5a5b59",
"#zU c #5a5b5a",
".rZ c #5a6165",
".rY c #5a6264",
".r1 c #5a6265",
".ud c #5a6266",
"#B8 c #5a8aa0",
"#ec c #5b5141",
".Kh c #5b533b",
"#pU c #5b5344",
"#tu c #5b5448",
"#ve c #5b5549",
"##6 c #5b564a",
"#.7 c #5b574b",
"#dE c #5b574c",
"#zF c #5b574d",
"#i# c #5b574f",
"#p0 c #5b584f",
"#AB c #5b5955",
".nS c #5b5a54",
".h1 c #5b5a57",
".EJ c #5b5b53",
".va c #5b5b54",
"##j c #5b5b56",
"#iF c #5b5b57",
"#Az c #5b5b5a",
".Hg c #5b5c54",
".v. c #5b5c55",
".Mq c #5b5c56",
".UT c #5b5c5e",
".SH c #5b5d5c",
".UM c #5b5d62",
".bX c #5b5e5f",
".rX c #5b6265",
".v1 c #5b6266",
".qw c #5b6267",
".r2 c #5b6366",
".r6 c #5b6367",
".GQ c #5c0e09",
"#fg c #5c513f",
"##a c #5c524b",
"#ed c #5c5345",
"##5 c #5c554a",
"##u c #5c554f",
"#lJ c #5c564f",
"#zl c #5c574d",
"#p. c #5c574f",
".99 c #5c5750",
".Kg c #5c5841",
"#co c #5c584f",
"#.y c #5c5853",
"#sk c #5c5951",
"#tp c #5c5a52",
".tF c #5c5a53",
".5d c #5c5a56",
".yh c #5c5b51",
"#zY c #5c5b58",
".Fz c #5c5c55",
".Ad c #5c5c56",
"#jt c #5c5c57",
".UO c #5c5c61",
".vb c #5c5d55",
".v7 c #5c5d56",
".Lb c #5c5d57",
".UL c #5c5d61",
".Gp c #5c5e56",
".Rc c #5c5e5a",
".SG c #5c5e5c",
".X7 c #5c5f5c",
".xG c #5c605f",
"#pF c #5c6061",
".cu c #5c6062",
"#pO c #5c6161",
".xN c #5c6365",
".r0 c #5c6467",
".MS c #5c9d88",
".GH c #5d1310",
".It c #5d1512",
"#k0 c #5d5449",
"#pT c #5d5548",
"##3 c #5d574b",
"#uJ c #5d574c",
".Gz c #5d5922",
"#fj c #5d594f",
".FI c #5d5959",
"#.q c #5d5a51",
".3E c #5d5b57",
"#zX c #5d5b5a",
".3w c #5d5c57",
".5c c #5d5c58",
"#z1 c #5d5c5b",
".u9 c #5d5d56",
".3G c #5d5d57",
".hu c #5d5d5a",
".pc c #5d5d5d",
".Ap c #5d5e57",
".Ac c #5d5e58",
".gW c #5d5e5b",
".UP c #5d5e62",
".UF c #5d5f5c",
".uo c #5d6260",
".xO c #5d6364",
".xI c #5d6365",
".rd c #5d6467",
".sS c #5d6468",
".sU c #5d6568",
".sR c #5d6569",
".v2 c #5d6669",
"#f5 c #5e5241",
"#zm c #5e574d",
"##G c #5e584c",
"##c c #5e584d",
".98 c #5e5851",
"#qn c #5e5a50",
"#ry c #5e5b55",
".Yt c #5e5c51",
"#.l c #5e5c55",
"#z0 c #5e5c59",
".GE c #5e5d1e",
"#ky c #5e5d54",
".Mr c #5e5d56",
".vj c #5e5d57",
".3F c #5e5d59",
"#z3 c #5e5d5c",
".GD c #5e5e1f",
".YU c #5e5e55",
".Ph c #5e5e56",
".yi c #5e5e57",
".Ao c #5e5e58",
".gX c #5e5e59",
".f. c #5e5e5c",
"#Aw c #5e5e5d",
".wv c #5e5f57",
".Lc c #5e5f58",
".u8 c #5e5f59",
".UK c #5e5f62",
".UN c #5e5f63",
"#jS c #5e605b",
".fI c #5e605d",
"#jW c #5e605e",
".SE c #5e615e",
"#a4 c #5e615f",
"#hT c #5e6160",
".v6 c #5e625e",
".xP c #5e6465",
".xJ c #5e6466",
".sZ c #5e6567",
".sT c #5e6568",
".ue c #5e6569",
".GI c #5f1511",
"#pJ c #5f584d",
"##z c #5f5852",
"#hp c #5f594d",
"#eg c #5f594e",
"#kD c #5f5a52",
"#dL c #5f5b51",
"#bh c #5f5b53",
"#zq c #5f5b54",
"#zf c #5f5c55",
".vk c #5f5d55",
".JN c #5f5e2b",
".Pr c #5f5e58",
".6l c #5f5e59",
".5b c #5f5e5a",
"#Av c #5f5e5b",
"#z2 c #5f5e5d",
"#jj c #5f5f58",
".u7 c #5f5f59",
".fG c #5f5f5c",
"#z5 c #5f5f5e",
".Mp c #5f6059",
".uZ c #5f605a",
"#kx c #5f605d",
".To c #5f615f",
"#je c #5f6361",
".xU c #5f6462",
"#pP c #5f6564",
".xQ c #5f6567",
".xM c #5f6668",
".uf c #5f676a",
".Mx c #605b3d",
"#tx c #605b52",
"#bi c #605c52",
".xY c #605d51",
".Kd c #605d5d",
"#s6 c #605e55",
".UR c #605e5e",
"#j8 c #605f58",
".3x c #605f5a",
"#z4 c #605f5e",
".UQ c #605f5f",
".US c #605f60",
".JM c #606029",
"#j7 c #606059",
".3H c #60605a",
".gj c #60605d",
".UJ c #606062",
".u6 c #60615a",
".u3 c #60615b",
".e9 c #60615e",
".e7 c #60615f",
".fH c #606160",
".R# c #60625d",
".up c #606361",
"#pQ c #606363",
".r7 c #606668",
".xK c #606769",
".r5 c #60676b",
".sY c #60686b",
".v3 c #60696b",
"#gN c #615745",
"##4 c #61594e",
"#fY c #615b51",
".Gy c #615c22",
"#eO c #615c51",
"#zr c #615c52",
"##e c #615d50",
".w0 c #615d54",
".w4 c #615e55",
".5a c #615f5b",
"#Ae c #615f5f",
".Ld c #616058",
".JL c #61612a",
".u2 c #61615b",
".u0 c #61625c",
".Oq c #61625d",
"#jP c #616260",
".u4 c #61635c",
"#a2 c #61635f",
".SF c #616360",
".c4 c #616466",
"#jk c #616564",
".s1 c #616667",
".xR c #616768",
".xL c #61686a",
".sV c #61686b",
".sX c #61696c",
".Hz c #621410",
".EF c #621511",
"#gG c #625b50",
"##b c #625b52",
"#.Z c #625b55",
".tD c #625d50",
"#fi c #625e55",
".AQ c #625e5c",
".p. c #625f58",
"#mA c #625f5b",
"#At c #625f5d",
"#Au c #62605c",
"#Af c #626060",
".5# c #62615d",
"#z6 c #626160",
"#Ao c #626162",
"#hN c #62625b",
".Ai c #62625d",
"#hW c #62625e",
"#An c #626262",
".u1 c #62635c",
"#iI c #62635f",
".f# c #626363",
"#b7 c #626462",
".UB c #626463",
".Vi c #626564",
".Vk c #626665",
".un c #626868",
".v5 c #626869",
".xS c #62686a",
".uh c #62686b",
".ug c #62696c",
".v4 c #626a6d",
"#hu c #635948",
"#c3 c #635a4b",
"#.4 c #635b4b",
"##D c #635b52",
"#kV c #635c53",
"#lt c #635d51",
"#.z c #635d57",
"#zE c #635e53",
".9X c #635e5b",
"#fG c #635f54",
"#tr c #635f57",
".9Y c #635f5c",
".RT c #636157",
"#tU c #636159",
"#Ak c #63615e",
"#Ad c #636161",
".1j c #63625a",
".on c #63625c",
".5. c #63625e",
"#Ah c #636262",
".u5 c #63635d",
".ez c #636360",
"#b3 c #636361",
".i8 c #636363",
".A# c #63645e",
"#bu c #636460",
".d5 c #636462",
".X6 c #636562",
".Tp c #636563",
".UA c #636564",
".Vj c #636565",
".zE c #636661",
"#j3 c #636664",
".Uy c #636665",
".xT c #63696a",
".ui c #636a6c",
".sW c #636a6e",
".um c #636b6d",
".Gi c #641814",
".KF c #641817",
"#uT c #64533d",
".9W c #645d57",
"#f. c #645e53",
"#.Y c #645e54",
"#zv c #645e56",
"##m c #645f52",
"#aW c #645f55",
"#Aj c #64615e",
".xZ c #646256",
"#kO c #64625a",
"#z9 c #64625f",
"#Ap c #646262",
"#Ac c #646263",
".Bs c #64635a",
".yR c #64635b",
".mN c #64635c",
".3J c #64635d",
".3I c #64635e",
"#A# c #64635f",
"#z8 c #646360",
"#Ay c #646362",
"#Am c #646363",
".w2 c #64645d",
".An c #64645e",
".Am c #64645f",
".e8 c #646461",
"#Ax c #646464",
".CM c #64655e",
".Ab c #64655f",
".eB c #646562",
".bq c #646566",
".Ux c #646664",
".Uz c #646665",
".Tq c #646764",
".Vl c #646766",
"#py c #646866",
"#fQ c #646867",
".uj c #646c6f",
".Lq c #64ae8b",
".Gj c #651814",
".KH c #651d1b",
"#tC c #65543e",
"#h8 c #655c4c",
"#pS c #655c4d",
"#rK c #655e50",
"#us c #656055",
"#o9 c #656057",
"#uK c #656156",
"#bj c #656157",
".x0 c #656358",
"#Al c #656360",
"#A. c #656361",
"#Ab c #656362",
".49 c #656460",
"#z7 c #656463",
"#Ag c #656464",
".LV c #656527",
".yn c #65655d",
".YV c #65655e",
".Al c #65655f",
"#jT c #656561",
".Dy c #65665e",
"#mb c #656667",
".cv c #656668",
".R. c #656762",
".Tr c #656764",
".Uw c #656765",
".cr c #656766",
".dy c #656867",
".Vm c #656868",
".ct c #65686a",
"#px c #656968",
"#rL c #665b4b",
"#vf c #666053",
"#.8 c #666059",
".re c #666255",
"#iP c #66635b",
"#rl c #66635e",
"#As c #666360",
".w3 c #66645c",
".3K c #66645f",
"#Ai c #666461",
".x1 c #666559",
"##l c #66655d",
".Ak c #66655f",
"#Aa c #666561",
".uN c #66665e",
".zY c #66665f",
".A. c #666660",
".Bt c #666760",
".Ra c #666864",
".WA c #666865",
".Ts c #666866",
".UC c #666867",
".Va c #666964",
".Vn c #666968",
".WK c #666a69",
"#hU c #666b6a",
".ME c #66c09b",
".KG c #671c1b",
".MU c #675e40",
"#c4 c #675f52",
"### c #675f58",
"##7 c #676155",
".tj c #676458",
"#gn c #67645a",
"#uE c #67645b",
".YS c #67645f",
"#Ar c #676462",
".x6 c #676559",
".x2 c #67655a",
".x5 c #676659",
".x3 c #67665a",
".48 c #676662",
".CL c #676760",
".Aa c #676761",
"#pE c #676862",
".Ar c #676863",
".y2 c #676864",
".dw c #676865",
".iw c #676866",
".Tt c #676966",
".Tu c #676967",
".WL c #676968",
".a6 c #67696b",
".WF c #676a66",
".Tv c #676a68",
".Vo c #676a69",
".Vp c #676a6a",
".Vr c #676b6a",
".WM c #676c6b",
".qn c #676d71",
".Lp c #67b89a",
".HG c #681109",
".Ix c #681410",
".Iy c #681510",
".OO c #68583a",
"#.3 c #68615b",
".qy c #68645a",
".x4 c #68655a",
".x7 c #68665a",
".d4 c #686763",
".Aj c #686861",
".uY c #686862",
"#h1 c #686863",
".bU c #686967",
".zv c #686a64",
".Tw c #686a68",
".Wy c #686a69",
".Rb c #686b66",
".Vq c #686b6a",
".c3 c #686b6b",
"#pw c #686c6b",
".Vs c #686c6c",
".Fw c #691511",
"#c9 c #696054",
"#ls c #696359",
".96 c #69635b",
".r8 c #696458",
".s2 c #696459",
".IA c #696657",
"#eU c #69665d",
".zk c #696662",
".x8 c #69675b",
"#Aq c #696766",
".3L c #696862",
".47 c #696864",
".ww c #696961",
".yj c #696962",
".uX c #696963",
".eA c #696965",
".L7 c #696a62",
".uW c #696a63",
".yu c #696a64",
".Zh c #696a68",
"#a1 c #696b67",
".UD c #696b68",
".Tx c #696b69",
".d3 c #696b6a",
".Wx c #696b6b",
".Tz c #696c6a",
".X2 c #696c6b",
".Vt c #696c6c",
".Vv c #696d6c",
".WN c #696d6d",
".be c #696d6e",
".ul c #697174",
".LB c #69c3a0",
"#uf c #6a6356",
"#c8 c #6a6357",
".vi c #6a665c",
"#t2 c #6a675d",
".wu c #6a685b",
".x9 c #6a685c",
".D. c #6a6868",
".y. c #6a695d",
".wB c #6a6a62",
".uO c #6a6a63",
".uV c #6a6a64",
".3M c #6a6a65",
".c2 c #6a6a67",
".Ah c #6a6b65",
"#iM c #6a6b67",
".Vb c #6a6c68",
".Ty c #6a6c69",
".TA c #6a6c6a",
".X3 c #6a6c6b",
"#a3 c #6a6d69",
".Yh c #6a6d6b",
".Vu c #6a6d6c",
".Vw c #6a6d6d",
".bW c #6a6d6e",
".WO c #6a6e6e",
".qx c #6a6e71",
"##o c #6b6250",
"#.W c #6b6253",
"#bS c #6b6355",
"#p8 c #6b6356",
".uq c #6b6658",
"#aq c #6b675a",
"#uw c #6b685f",
".y# c #6b695d",
"#g8 c #6b6960",
"#fK c #6b6961",
".ya c #6b6a5e",
".K# c #6b6a62",
"#rc c #6b6a66",
".46 c #6b6a67",
".uR c #6b6b62",
".Hi c #6b6b63",
".uQ c #6b6b64",
".z9 c #6b6b65",
"#hI c #6b6b66",
".mk c #6b6b6a",
".uU c #6b6c65",
".4w c #6b6c66",
"#kf c #6b6c68",
".fF c #6b6c6b",
".UE c #6b6d69",
".Uv c #6b6d6a",
".TB c #6b6d6b",
".Vh c #6b6d6c",
".Ww c #6b6d6d",
".Uu c #6b6e6b",
"#fR c #6b6e6c",
".Vx c #6b6e6d",
".Vy c #6b6f6e",
".WP c #6b6f6f",
".WS c #6b706f",
".pI c #6b7174",
".uk c #6b7376",
".OS c #6c5d40",
"#pe c #6c6559",
"#qV c #6c675b",
"#ef c #6c675d",
"#zu c #6c675f",
"#ho c #6c685f",
".2N c #6c695e",
"#k1 c #6c6964",
"#rt c #6c6a64",
".yb c #6c6b5f",
"#s. c #6c6b64",
".45 c #6c6b68",
".uP c #6c6c64",
"#h# c #6c6c67",
".z8 c #6c6d66",
"##f c #6c6d68",
".Us c #6c6d6a",
".Ur c #6c6e6a",
".Ut c #6c6e6b",
".TC c #6c6e6c",
".QA c #6c6e6d",
".TD c #6c6f6d",
".Vz c #6c6f6e",
".VA c #6c706f",
".WQ c #6c7070",
".pL c #6c7376",
"#tt c #6d685e",
"#cE c #6d685f",
".ti c #6d695a",
"#bw c #6d6a5f",
"#gt c #6d6a62",
".yc c #6d6b5f",
".0b c #6d6b63",
".6b c #6d6b64",
".J. c #6d6c65",
".wF c #6d6d67",
".3N c #6d6d68",
".LO c #6d6d6d",
".Gs c #6d6e66",
".wx c #6d6e67",
".dx c #6d6e6b",
".cs c #6d6e6c",
".Yg c #6d6e6d",
".zw c #6d6f6a",
".Uq c #6d6f6b",
"#hY c #6d6f6c",
".TE c #6d6f6d",
".X4 c #6d6f6f",
".Tn c #6d706c",
".Wz c #6d706e",
".X5 c #6d706f",
".bV c #6d7070",
".zF c #6d716d",
".WT c #6d7170",
".pR c #6d7171",
".WR c #6d7172",
".qk c #6d7377",
"#dh c #6d7474",
".pO c #6d7477",
"#pL c #6e6453",
"#.2 c #6e6761",
"#o5 c #6e685d",
"#gF c #6e6960",
"#oY c #6e6a61",
".C# c #6e6a68",
".yd c #6e6c61",
".yk c #6e6e67",
".wG c #6e6e68",
".Zg c #6e6e6a",
".ys c #6e6f68",
".wz c #6e6f69",
".NA c #6e706a",
".Vc c #6e706b",
".Tj c #6e706c",
".TF c #6e706e",
".VB c #6e706f",
".zx c #6e716d",
".TG c #6e716e",
".WJ c #6e716f",
".VC c #6e7170",
".WU c #6e7271",
".ql c #6e7578",
".MZ c #6f1614",
"#pD c #6f6655",
"#bR c #6f675b",
".95 c #6f6860",
"#.0 c #6f6965",
".44 c #6f6d6a",
".Ic c #6f6e66",
".GY c #6f6f25",
".LX c #6f6f28",
".FD c #6f6f67",
".z5 c #6f6f69",
"#mt c #6f6f6e",
".wy c #6f706a",
".G5 c #6f706f",
".TH c #6f716e",
".Up c #6f716f",
".X1 c #6f7170",
".VD c #6f7171",
".TI c #6f726e",
".zD c #6f726f",
".VE c #6f7271",
".bp c #6f7272",
".WV c #6f7372",
".bo c #6f7374",
"#p1 c #706555",
"#.9 c #706861",
"#c7 c #706a5f",
"#cv c #706c62",
"#aG c #706c63",
".ye c #706e62",
"#tM c #706e65",
"#hb c #706f67",
"#kg c #706f69",
".43 c #706f6b",
".LW c #707029",
".zU c #707068",
".yt c #70706a",
"#hM c #70706b",
".zH c #707169",
".wA c #70716a",
".yl c #70716b",
".Za c #70716f",
".Vd c #70726d",
".TJ c #70726e",
".Uo c #70726f",
".Wt c #707270",
".X0 c #707271",
".bm c #707273",
".TK c #70736e",
".zy c #70736f",
".zG c #707370",
".Wr c #707371",
".VH c #707372",
".TL c #70746e",
".TQ c #70746f",
".zz c #707471",
".WW c #707473",
".WX c #707474",
".qm c #70767a",
".PA c #716345",
"##F c #71685e",
"##x c #716b62",
".yf c #716f62",
".LT c #717032",
"#ix c #71706a",
".Hj c #717168",
".3O c #71716b",
".z7 c #71726b",
".ym c #71726c",
"#kN c #71726d",
"#eW c #71726f",
".Wu c #717270",
".Tk c #71736f",
".Ws c #717370",
".Un c #717371",
".VF c #717372",
".TM c #71746e",
".TO c #71746f",
".Um c #717470",
".zB c #717471",
".VG c #717472",
".VI c #717473",
".TN c #717570",
".zA c #717571",
".VJ c #717572",
"#gA c #717573",
".WY c #717574",
"#Ea c #717578",
"#eA c #717679",
".LC c #71ccb0",
"#ub c #726959",
"#.X c #726a57",
"#bk c #726c60",
"#uy c #726d61",
"#ee c #726e65",
".LR c #727030",
"#se c #727068",
".LS c #72712e",
"#rd c #72716c",
".42 c #72716d",
".Gt c #727269",
".wE c #72726b",
".GX c #727326",
".Z# c #727371",
".c1 c #727373",
".Ve c #72746f",
".bn c #727471",
".bb c #727472",
".Wv c #727473",
".TP c #72756f",
".Ul c #727571",
".zC c #727572",
".XU c #727573",
".aH c #727576",
".XT c #727673",
".WZ c #727675",
"#dt c #727679",
".8A c #72767a",
".pK c #727779",
"#cg c #72777a",
"#ko c #72787a",
".pQ c #72797d",
".MD c #72ceb2",
"#pv c #736c5f",
"##A c #736c64",
"#ti c #736d63",
"#uG c #736e63",
"#fX c #736e64",
"#dF c #736f63",
".90 c #736f69",
".z# c #736f6b",
".yg c #737064",
"#ja c #73716c",
".zT c #737269",
"#gr c #73726d",
".zS c #737369",
".zR c #73736b",
".yr c #73736c",
".Z. c #737371",
".zQ c #73746b",
".zP c #73746c",
".z3 c #73746d",
".z4 c #73746e",
"#gv c #737470",
".XZ c #737472",
".Y6 c #737473",
".WG c #737570",
".Wq c #737572",
".XY c #737573",
".XV c #737574",
".VK c #737673",
".Yi c #737674",
".XW c #737675",
".W0 c #737676",
".VL c #737773",
".Yj c #737774",
".W1 c #737775",
".8S c #73777a",
"#bb c #73777b",
".W2 c #737875",
".pN c #73787a",
"#.M c #73787b",
"#ul c #73797a",
"#gd c #73797b",
"##9 c #746d5c",
"#ua c #746e63",
"#e9 c #746f65",
"#jb c #74716a",
"#j1 c #74726a",
"#iy c #74726c",
".GW c #747326",
".tU c #747369",
".41 c #747370",
".zK c #74746a",
".zJ c #74746b",
".zL c #74746c",
".z2 c #74746e",
".R8 c #74746f",
".Zf c #747471",
".zV c #74756e",
"#b2 c #747570",
".O3 c #747571",
".Yf c #747572",
".Y7 c #747573",
".Y5 c #747574",
".Tl c #747671",
".Uk c #747672",
".XS c #747673",
".XX c #747674",
".Uj c #747773",
".XR c #747774",
".VN c #747872",
".VM c #747873",
".Yk c #747874",
".W3 c #747875",
"#yb c #74787a",
"#wN c #74787b",
".W4 c #747975",
"#u2 c #74797a",
"#gY c #74797b",
"#n7 c #74797c",
"#oL c #747a7c",
".pP c #747b7f",
".M1 c #752221",
"#d8 c #757065",
"#kJ c #75736b",
"#j0 c #75736d",
".40 c #757470",
".zI c #75756b",
".zO c #75756c",
".yq c #75756d",
"#fL c #75756f",
".gm c #757575",
".I9 c #75766f",
".Ze c #757673",
".Y8 c #757674",
".Y9 c #757675",
".Y# c #757772",
"#cL c #757773",
".Zb c #757775",
".Wp c #757874",
".XQ c #757875",
"#he c #757876",
"#hQ c #757878",
".VO c #757973",
".Ui c #757974",
".VQ c #757975",
"#jf c #757976",
"#hh c #757978",
".bd c #757979",
"#wo c #75797b",
".76 c #75797c",
".VP c #757a74",
".Ud c #757a76",
"#Bz c #757a7c",
"#C4 c #757a7d",
"##w c #766e62",
"#.5 c #766e65",
"##. c #766e66",
".w. c #766f5d",
".vh c #767164",
"#sm c #767167",
"#eY c #76726c",
".t5 c #767365",
"#fO c #76736c",
".zM c #76756c",
".zN c #76756d",
".Eh c #76756e",
"#jx c #76756f",
".Eg c #76766e",
".Bw c #76766f",
".3P c #767670",
".4Z c #767672",
".zX c #76776f",
".Ya c #767773",
".Zd c #767774",
".TR c #767872",
".Tm c #767873",
".Pq c #767874",
".Zc c #767875",
"#hi c #767877",
".Uh c #767974",
".Y3 c #767975",
".Ua c #767977",
".Ue c #767a75",
".Uc c #767a76",
".U# c #767a77",
".Wj c #767a79",
"#Cs c #767a7c",
".Wm c #767c78",
".sa c #776d56",
"##E c #777162",
"#ah c #777265",
"#uL c #777367",
"#hS c #77746c",
"#r6 c #77756e",
"#s# c #77756f",
".FE c #77766e",
".4Y c #777672",
".CQ c #77776f",
".z1 c #777770",
".Yb c #777773",
".zW c #777871",
"#fM c #777872",
"#jm c #777873",
".Y4 c #777874",
"#hV c #777875",
".aw c #777879",
".WH c #777974",
".Ug c #777975",
".Vg c #777976",
"#hL c #777977",
".HN c #777a34",
".Uf c #777a75",
".Wo c #777a76",
".Ub c #777a77",
".Wn c #777b77",
".Wl c #777b78",
".Wk c #777b79",
".Wi c #777b7a",
".W5 c #777c76",
"#dc c #777e7b",
"#de c #777e7c",
".M0 c #782320",
"#bX c #786e5f",
"#c6 c #787267",
"#.6 c #787369",
".9Z c #78736e",
"#gz c #78746a",
"#rD c #78746d",
"##C c #787473",
"#qQ c #787670",
".EM c #787770",
"#hR c #787771",
".4X c #787773",
".FC c #787871",
".3Q c #787872",
"#hm c #787873",
".Yc c #787874",
".j5 c #787878",
"#fN c #787974",
"#gD c #787975",
"#hK c #787a75",
".WI c #787a76",
"#e0 c #787a77",
".Yl c #787b76",
".XP c #787b77",
".Wh c #787b78",
".W6 c #787c77",
".VR c #787c78",
".W7 c #787d77",
".W8 c #787d78",
"#dd c #787f7d",
".sI c #797460",
"#ut c #79756a",
"#eV c #797872",
".hs c #797977",
".DA c #797a72",
".Pi c #797a73",
"#hd c #797a75",
".Vf c #797a76",
".j1 c #797a77",
".qJ c #797a79",
".XN c #797b77",
".XO c #797b78",
".Ym c #797c77",
".XM c #797c78",
"#hP c #797c79",
".pH c #797c7c",
".a5 c #797c7d",
".Yn c #797d77",
".Yp c #797d78",
".Y2 c #797d79",
".Y0 c #797d7a",
".W9 c #797e78",
".X. c #797e79",
".XK c #797e7a",
".LJ c #7a0505",
".s# c #7a6f58",
"#t6 c #7a756a",
"#fP c #7a756b",
"#ff c #7a766c",
".Ik c #7a773d",
".Q6 c #7a792f",
"#ke c #7a7970",
"#eP c #7a7972",
"#kh c #7a7973",
".3R c #7a7974",
".4W c #7a7975",
"#fV c #7a7a76",
".No c #7a7b73",
".Yd c #7a7b76",
"#iu c #7a7b77",
".YW c #7a7c79",
".Y1 c #7a7c7a",
".Yo c #7a7d78",
".Ti c #7a7d79",
".XL c #7a7d7a",
".YZ c #7a7d7b",
".YY c #7a7d7c",
".Yq c #7a7e79",
".XH c #7a7e7d",
".XG c #7a7e7e",
".X# c #7a7f7b",
".XI c #7a7f7d",
"#dV c #7a7f7f",
"#bW c #7b7264",
".sb c #7b7562",
"#dM c #7b776e",
"##d c #7b7770",
"#bI c #7b7870",
"#cU c #7b7871",
"#r4 c #7b7872",
"#jv c #7b7972",
".3S c #7b7a75",
".4V c #7b7a76",
".EL c #7b7b73",
"#sa c #7b7b77",
".dA c #7b7b7c",
"#gw c #7b7c77",
".Ye c #7b7c78",
".Qd c #7b7d76",
"#jg c #7b7d7a",
"#gx c #7b7e7a",
".aT c #7b7e7f",
".XJ c #7b7f7d",
".XF c #7b7f7e",
".YX c #7b7f7f",
".Yr c #7b807a",
".pM c #7b8083",
".vT c #7b8084",
".vI c #7b8182",
".pJ c #7b8183",
".w1 c #7c766b",
"#ae c #7c776a",
".P0 c #7c7923",
"#gM c #7c796f",
"#gy c #7c7972",
"#hq c #7c7b75",
".3T c #7c7b77",
".N8 c #7c7c33",
".CP c #7c7c74",
"#gu c #7c7c76",
".Q5 c #7c7d31",
".P4 c #7c7d78",
".3U c #7c7d79",
".HO c #7c7e37",
"#hO c #7c7e7a",
".bc c #7c7e7b",
"#it c #7c7f7d",
".Xa c #7c817e",
".sD c #7d7863",
".rK c #7d7864",
".t0 c #7d796a",
"#hg c #7d796e",
"#hf c #7d7a73",
".Ij c #7d7b3e",
"#iO c #7d7b73",
".PZ c #7d7c26",
".nj c #7d7c76",
".4U c #7d7c78",
".PY c #7d7d28",
".uT c #7d7d76",
"#hc c #7d7d78",
".a3 c #7d7d79",
"#hk c #7d7e77",
".RU c #7d7e78",
"#fT c #7d7f7c",
"#iA c #7d7f7d",
".Ys c #7d807c",
".#5 c #7d8081",
".vJ c #7d8485",
".KA c #7e704c",
"#tv c #7e776a",
".Ev c #7e7a2f",
"#cp c #7e7a6f",
"#d7 c #7e7a72",
".yp c #7e7d76",
".4T c #7e7d79",
".Im c #7e7e2b",
"#gC c #7e7e78",
".XD c #7e7e79",
".3V c #7e7e7a",
".IR c #7e7f33",
".N9 c #7e7f34",
".Oi c #7e7f79",
"#eX c #7e7f7a",
"#iG c #7e807a",
".Op c #7e807b",
"#io c #7e807c",
".aQ c #7e807f",
".XE c #7e8280",
"#df c #7e8583",
".QH c #7f704b",
"#.1 c #7f7673",
"#bV c #7f776a",
"#c5 c #7f7a6f",
"#bp c #7f7b71",
".Hp c #7f7c33",
".H1 c #7f7d34",
"#h7 c #7f7d75",
".Ef c #7f7f77",
"#hZ c #7f7f7a",
".3W c #7f7f7b",
".Pj c #7f807a",
".4h c #7f807c",
".aU c #7f8081",
".RV c #7f817b",
".U. c #7f817c",
".X8 c #7f8180",
".aS c #7f8283",
"#cC c #7f8381",
".LL c #80100f",
"#uA c #80796d",
".sK c #807a65",
"#eZ c #807c72",
".Fm c #807d3a",
".4S c #807e7a",
".N5 c #807f2e",
".H0 c #807f35",
"#jo c #807f79",
".mf c #807f7b",
".Ey c #808027",
".z0 c #808079",
"#e6 c #80807b",
"#hJ c #80817c",
"#h5 c #80817d",
"#rs c #80817f",
".ey c #808180",
".Qe c #80827b",
"#fH c #80827d",
"#i8 c #80827f",
".a4 c #808280",
"#kP c #808380",
".bT c #808383",
"##8 c #817a6c",
".rB c #817b66",
"#uF c #817c72",
"#t9 c #817c73",
"#cV c #817d72",
"#tl c #817e77",
"#gB c #818079",
"#jn c #81807a",
".In c #81812a",
".Bv c #81817a",
".3X c #81817c",
"#iH c #81817d",
"#h0 c #81827c",
"#h. c #81827d",
".R7 c #81827e",
".aE c #81827f",
".Pp c #81837d",
".Ql c #81837f",
"#rf c #818380",
".Qm c #81847f",
"#dg c #818987",
"#aV c #827868",
".ri c #827965",
".Eu c #827d2f",
".Ew c #827d35",
"#aP c #827d74",
".Hq c #827e38",
"#bB c #828074",
"#hl c #82817a",
".J1 c #82827b",
"#fU c #82827c",
"#gp c #82827d",
".y4 c #82827e",
".HM c #828337",
"#g9 c #82837d",
"#rZ c #82837e",
".R6 c #82837f",
"#jX c #828380",
".O. c #828438",
".zu c #82847e",
"#cN c #828481",
".#E c #828487",
".V# c #828582",
".aG c #828586",
".GN c #831008",
".NJ c #837a4c",
".pV c #837c68",
".qC c #837c69",
"##n c #837d77",
".pT c #837e6d",
".DO c #837e7d",
".Ii c #837f3d",
".sc c #838173",
".HZ c #838237",
".3Y c #83827e",
"#e1 c #83837f",
"#hj c #838380",
".RW c #83847e",
"#go c #83847f",
"#dW c #838685",
"#qs c #838887",
".vK c #83898a",
".rh c #847b67",
".qV c #847e6a",
".rE c #847f69",
"#tP c #847f75",
".sd c #848174",
".se c #848175",
".sf c #848276",
"#s9 c #84827c",
".CO c #84837c",
".Fp c #84842b",
".N# c #84842d",
".G0 c #84842f",
".3Z c #84847f",
"#fS c #848480",
".aR c #848481",
"#e3 c #84857f",
"#e2 c #848581",
".Io c #84862e",
"#fJ c #848680",
"#i4 c #848681",
".ai c #848787",
".vM c #848887",
".av c #848888",
".vL c #848a8b",
".PE c #85734d",
".qB c #857e6b",
"#bU c #857e71",
"#dT c #858077",
".Fn c #85823f",
".sg c #858276",
".N4 c #858331",
".sh c #858376",
".si c #858377",
"#js c #85847e",
"#gH c #85847f",
".4R c #858480",
".Hs c #85852b",
"#e5 c #85857e",
".30 c #858580",
".no c #858585",
"#fI c #858680",
".y3 c #858682",
"#eQ c #858781",
"#cK c #858987",
"#aT c #867e6f",
".pU c #867f6d",
".o7 c #86806f",
".Ho c #868133",
"#tk c #86827a",
"#ao c #86837a",
".tQ c #868475",
".o9 c #86847d",
".N6 c #868539",
"#h3 c #86857e",
".Ez c #868629",
".0e c #868681",
".hx c #868686",
".Fq c #86872a",
".EA c #86872c",
".G1 c #86872f",
"#f0 c #868781",
"#j5 c #868785",
".Nd c #868833",
".at c #868886",
".a2 c #868888",
".Po c #868983",
".LK c #87231f",
"#qR c #877f73",
".rN c #878069",
"#ax c #878070",
"#eb c #87857d",
"#bA c #87867d",
"#e4 c #87867f",
".Ht c #87872a",
".G2 c #87872f",
".KV c #87877f",
".Nc c #878837",
".Mo c #878882",
".R5 c #878883",
".La c #878982",
".Oo c #878983",
"#dO c #878986",
".aF c #878989",
".Fl c #88843a",
"#az c #888476",
".NI c #888553",
"#dS c #88857f",
".sj c #88867a",
".pS c #88877b",
".VS c #888880",
"#jQ c #888881",
".xj c #888883",
".vH c #888981",
".L# c #888982",
".L. c #888983",
"#h6 c #888985",
"#gq c #888986",
".af c #888988",
".HR c #888a34",
".vt c #888a87",
"#dK c #888a88",
".#t c #888a8b",
".WE c #888b88",
".au c #888b8c",
"#dR c #888c8a",
"#dQ c #888c8b",
"#qS c #897f70",
"#aJ c #898376",
".Hl c #898585",
".th c #89877a",
".sk c #89877b",
"#fW c #89877f",
"#iL c #898981",
".KW c #898982",
".K9 c #898a83",
".K8 c #898a84",
".Qk c #898a85",
".K7 c #898b84",
".xs c #898b85",
".ou c #8a846c",
"#aS c #8a8478",
".sl c #8a877b",
".sm c #8a877c",
"#e7 c #8a877e",
".ss c #8a887b",
".sn c #8a887c",
".NH c #8a895b",
".KX c #8a8a82",
".Np c #8a8a83",
"#cF c #8a8a85",
".K2 c #8a8b83",
".K6 c #8a8b84",
".Nz c #8a8b85",
".31 c #8a8b86",
".SY c #8a8b8c",
".Ny c #8a8c86",
".Pn c #8a8c87",
".#2 c #8a8c89",
"#j4 c #8a8d89",
".oN c #8b836b",
".py c #8b846c",
".lW c #8b8571",
".rj c #8b8675",
"#e8 c #8b8981",
"#sn c #8b8982",
"#gL c #8b8a84",
".5o c #8b8a88",
".KY c #8b8b83",
".K5 c #8b8b84",
"#hr c #8b8b86",
".bf c #8b8b8c",
".Hu c #8b8c2f",
".HQ c #8b8c36",
".K1 c #8b8c84",
".KZ c #8b8c85",
".Mn c #8b8c86",
".RZ c #8b8c87",
".R3 c #8b8c88",
".R0 c #8b8d87",
".RX c #8b8d88",
".xi c #8b8d89",
".ah c #8b8e8f",
".ag c #8b8f8e",
"#Em c #8b8f91",
".OR c #8c7f56",
".s. c #8c846e",
".m8 c #8c866e",
".mB c #8c866f",
".IS c #8c8a3b",
".so c #8c8a7e",
".sp c #8c8a7f",
"#gE c #8c8a81",
"#f4 c #8c8b84",
"#f2 c #8c8b85",
"#iN c #8c8b86",
".K3 c #8c8c84",
".K0 c #8c8c85",
"#eR c #8c8c86",
"#h4 c #8c8c87",
".R4 c #8c8c88",
".Fr c #8c8d30",
".K4 c #8c8d85",
".Nq c #8c8d86",
".L9 c #8c8d87",
".RY c #8c8d88",
".FO c #8c8d8e",
".Ml c #8c8e88",
".Mk c #8c8e89",
"#d0 c #8c8e8c",
".SI c #8c8e8f",
"#dX c #8c8f8c",
"#qT c #8d7f6e",
".n0 c #8d866e",
".l3 c #8d866f",
".qP c #8d8770",
".mu c #8d8772",
"#bT c #8d877b",
"#bl c #8d897e",
".sq c #8d8b7f",
".IQ c #8d8c3c",
"#fa c #8d8c85",
"#f# c #8d8c86",
"#gJ c #8d8d86",
".L8 c #8d8d87",
"#rC c #8d8d88",
".4Q c #8d8d89",
".GL c #8d8d8f",
".Oj c #8d8e88",
".R1 c #8d8e89",
".gh c #8d8e8c",
".HB c #8d8e8f",
".HS c #8d8f35",
".Mj c #8d8f89",
".Mi c #8d8f8a",
".Nx c #8d9089",
".Nw c #8d908a",
".#S c #8d9092",
".EC c #8e1a16",
".QW c #8e7b49",
".QL c #8e7d4e",
".ID c #8e7f70",
"#aU c #8e8271",
".sr c #8e8c80",
"#cw c #8e8c83",
"#hn c #8e8d83",
"#gI c #8e8d86",
"#j9 c #8e8d89",
"#hX c #8e8d8b",
".R2 c #8e8e89",
".MK c #8e8e90",
".M. c #8e8f89",
".Mm c #8e8f8a",
".Iu c #8e8f8f",
".Jq c #8e8f90",
".Mb c #8e908a",
".Nv c #8e908b",
"#dP c #8e908d",
"#dU c #8e9190",
".Q0 c #8f7e53",
"#aQ c #8f897b",
"#bJ c #8f897e",
".tb c #8f8c7e",
".tf c #8f8c7f",
".tg c #8f8c80",
"#iD c #8f8d8a",
"#f1 c #8f8e86",
"#d4 c #8f8e87",
"#ht c #8f8e88",
".32 c #8f8f8a",
".4P c #8f8f8b",
".OI c #8f8f90",
".Nr c #8f908a",
".Mc c #8f908b",
".as c #8f908f",
".Kr c #8f9090",
".#T c #8f9092",
".Md c #8f918b",
".M# c #8f918c",
".Ns c #8f928c",
"#eS c #8f928e",
".vB c #8f9291",
".vy c #8f9596",
".vz c #8f9696",
"#qU c #908575",
".pf c #908970",
"#ag c #908a80",
"#uz c #908b7e",
".tc c #908c7f",
".oL c #908d7d",
".td c #908d7f",
".te c #908d80",
".N. c #908f34",
"#fZ c #908f89",
".33 c #90908a",
"#bx c #909189",
".Mh c #90918b",
".Me c #90918c",
".4O c #90918d",
".i3 c #90918e",
".#C c #90918f",
".Ma c #90928c",
".Ok c #90928d",
"#cu c #909290",
".#P c #909291",
"#dY c #909493",
".#R c #909496",
"#cH c #909798",
".HD c #911209",
".LE c #918454",
"#ud c #918774",
".rg c #918975",
".qN c #918a71",
".m2 c #918b75",
".ta c #918d80",
"#tq c #918e88",
".Mv c #918e8d",
"##B c #918f8e",
"#fe c #919089",
"#jw c #91908a",
".zi c #919188",
"#cD c #91918b",
".Mf c #91928c",
".Mg c #91928d",
".Ne c #91933b",
".Nt c #91938d",
".On c #91938e",
".#3 c #919494",
".#4 c #919596",
".qA c #928c79",
".oJ c #928f7e",
".st c #928f84",
"#bK c #929086",
"#fc c #92918a",
"#c2 c #92918b",
".34 c #92918c",
".Na c #92923a",
".Wg c #92928c",
".35 c #92928e",
".Nu c #92938d",
".Ol c #92938e",
".Pk c #92938f",
".dv c #929392",
".Om c #92948e",
".Pl c #92948f",
"#qD c #929491",
".4N c #929590",
".#Q c #929595",
".qj c #929699",
".vA c #929797",
".s5 c #938a76",
".s6 c #938b78",
".m0 c #938d7a",
".s7 c #938d7b",
".n2 c #938e79",
"#ka c #939087",
".Xb c #939187",
".rs c #93918c",
"#gK c #93928c",
"#d3 c #93938c",
".36 c #93938e",
".37 c #93938f",
".Pm c #93948f",
".Qj c #939490",
".eD c #939494",
"Qt1 c #939496",
".Qf c #939590",
".Qi c #939690",
".4M c #939691",
"#dZ c #939896",
".oh c #948c73",
".p7 c #948d74",
".m9 c #948e79",
".t# c #949081",
".t. c #949182",
"#fb c #949188",
".38 c #949390",
"#f3 c #94948d",
".39 c #949490",
".tI c #949491",
".4. c #949590",
".Qg c #949690",
".Qh c #949691",
".4L c #949793",
".nb c #958f7b",
".mF c #95907c",
".s9 c #959183",
".ll c #959281",
"#hs c #95948e",
".lc c #959592",
"#d2 c #959690",
".4# c #959691",
"#cB c #959999",
".#f c #95999b",
".pk c #968e75",
".nE c #968f76",
".ms c #96917d",
".w# c #96917f",
".s8 c #969283",
".oy c #969484",
".tR c #969586",
".4a c #969691",
".xF c #969794",
".4K c #969994",
".#D c #96999a",
"#qH c #969a98",
".#s c #969a9b",
".ps c #978f76",
".lq c #97917e",
".qD c #979284",
".lp c #979383",
"#an c #97948f",
".tT c #979587",
"#d5 c #97958e",
"#bo c #979691",
"#d1 c #979693",
".4b c #979792",
".kQ c #979797",
"#dG c #979891",
".4J c #979b96",
".lQ c #989075",
".m. c #989076",
".mD c #98927e",
".wa c #989281",
".lD c #989585",
"#tO c #98958b",
"#dN c #989791",
".4c c #989893",
".4e c #989993",
".As c #989996",
".aD c #989998",
".ba c #989a99",
".nx c #99927c",
".lz c #999788",
"#fd c #999790",
".4g c #999993",
".4d c #999994",
"#dH c #999a95",
".sz c #999a9a",
".#1 c #999b9b",
".4I c #999c97",
".#q c #999c9a",
".#r c #999d9f",
".Iq c #9a231e",
".s4 c #9a917c",
".wb c #9a9585",
".ow c #9a9685",
"#d9 c #9a9a93",
"#cR c #9a9a94",
".4f c #9a9b95",
"#dI c #9a9b96",
".tM c #9a9b97",
".1B c #9a9c97",
".4H c #9a9c98",
"#qN c #9a9e9b",
".lk c #9b9278",
".lS c #9b957f",
"#aA c #9b9992",
".20 c #9b9d98",
".4G c #9b9d99",
"#ct c #9b9d9a",
".Ou c #9b9d9b",
".4F c #9b9e99",
".wc c #9c9888",
"#bq c #9c9a91",
"#ki c #9c9a92",
".tS c #9c9b8c",
".tL c #9c9c98",
"#bv c #9c9d97",
"#rk c #9c9d9c",
".4E c #9c9f9a",
"#cI c #9ca0a0",
".Hw c #9d1c17",
".PP c #9d8750",
".nr c #9d957a",
".En c #9d9b9a",
".ZN c #9d9d98",
".tK c #9d9d99",
".tJ c #9d9e9a",
".4D c #9d9f9b",
".vx c #9da09a",
".mo c #9e9883",
"#tc c #9e9d98",
".XC c #9e9e96",
".Y. c #9e9e9c",
".aj c #9e9fa0",
".Zl c #9ea09c",
".xu c #9ea19d",
".Ft c #9f211d",
".nK c #9f9880",
"#bL c #9f9a8e",
".wd c #9f9b8a",
".o6 c #9f9c91",
".bY c #9fa0a0",
".xv c #9fa19e",
".#c c #9fa19f",
".4C c #9fa29d",
"#qE c #9fa4a2",
"#t0 c #a0998b",
".wf c #a09b8b",
".pW c #a09b8d",
".we c #a09c8b",
"#cQ c #a09f98",
".IN c #a0a09f",
".4y c #a0a29d",
"#cy c #a0a2a0",
".4z c #a0a39d",
".4B c #a0a39f",
"#qO c #a0a4a2",
"#qo c #a0a4a3",
"#qF c #a0a5a3",
".PT c #a18e5b",
".oa c #a19a7e",
".wg c #a19c8b",
".wh c #a19d8d",
"#d6 c #a19f98",
"#e# c #a1a098",
".zb c #a1a09a",
"#r7 c #a1a29c",
"#cO c #a1a29d",
".#p c #a1a2a3",
".4A c #a1a39f",
"#dJ c #a1a4a1",
"#cA c #a1a4a2",
".rV c #a1a4a5",
"#qG c #a1a6a6",
"#qp c #a1a6a7",
"#qM c #a1a7a6",
".IC c #a29883",
".nL c #a2997d",
"#a. c #a29b8e",
"#e. c #a29f96",
"#cS c #a2a098",
".IB c #a2a190",
"#td c #a2a19e",
".U1 c #a2a2a6",
"#cP c #a2a39e",
".U0 c #a2a3a6",
"#qz c #a2a5a1",
"#qy c #a2a6a4",
"#qA c #a2a6a5",
"#bt c #a2a7a7",
".oA c #a39a7d",
".n7 c #a39b82",
".uJ c #a39e8e",
"#cW c #a3a29a",
"#cM c #a3a29f",
".U2 c #a3a3a6",
"#cq c #a3a49e",
".U3 c #a3a4a7",
"#rr c #a3a5a1",
".SQ c #a49c63",
".oH c #a49c80",
".wi c #a49f8f",
"#tT c #a4a298",
".Gr c #a4a49f",
".FB c #a4a4a0",
"QtL c #a4a4a6",
".Ee c #a4a5a0",
".y5 c #a4a5a2",
".UG c #a4a5a6",
".4x c #a4a6a1",
".OV c #a59767",
".GR c #a59b79",
".p4 c #a59c80",
".lE c #a59c81",
".mH c #a59d80",
".ly c #a59e85",
".nR c #a5a4a0",
".Zi c #a5a5a4",
".iB c #a5a5a5",
"Qto c #a5a6a8",
"QtY c #a5a7a5",
".#e c #a5a8a9",
"#rb c #a5a9a8",
"#by c #a5acae",
".of c #a69e85",
".l8 c #a69f87",
".wj c #a6a190",
".UW c #a6a4a4",
"#bQ c #a6a59e",
".TS c #a6a69e",
".Dz c #a6a6a1",
".I7 c #a6a6a2",
".tN c #a6a6a3",
".UZ c #a6a6a8",
".U8 c #a6a7a8",
".U7 c #a6a7a9",
".U5 c #a6a7aa",
".xm c #a6a8a7",
".o4 c #a6a8aa",
".#d c #a6aaa9",
"#qx c #a6abaa",
".p5 c #a79e82",
".nv c #a7a088",
"#ea c #a7a69e",
".or c #a7a7a7",
".U6 c #a7a7aa",
".U4 c #a7a8a9",
".0H c #a7a9a5",
"#cJ c #a7aaa7",
"Qty c #a7aaac",
"#cG c #a7aba8",
"#qr c #a7aba9",
"#cX c #a8a59d",
".UX c #a8a6a6",
".e6 c #a8a9a7",
".cq c #a8a9a8",
"#rx c #a8aba8",
".0m c #a8aca9",
".wk c #a9a493",
"#cx c #a9a8a2",
".UY c #a9a8a8",
"#cz c #a9a9a5",
".E8 c #a9aaad",
".0E c #a9aba8",
".ZE c #a9aca6",
".0l c #a9aca8",
".0k c #a9aca9",
".od c #aaa289",
".mW c #aaa28a",
".t1 c #aaa58e",
".t4 c #aaa58f",
".o8 c #aaa79b",
".CN c #aaaaa6",
".#B c #aaaaab",
".ZJ c #aaaba6",
".E9 c #aaabae",
".ZF c #aaaca6",
".ZH c #aaaca7",
".0D c #aaaca8",
".0B c #aaaca9",
".ZK c #aaada7",
".0A c #aaada9",
".0g c #aaadaa",
".o3 c #aaadb0",
".0x c #aaaeab",
"#qq c #aaaeac",
".xw c #aaafaf",
".mm c #aba285",
".oG c #aba286",
"#aH c #aba396",
".HH c #aba888",
"#cT c #aba9a3",
".hZ c #ababa9",
".ZG c #abaca7",
".T9 c #abaca8",
".ZI c #abada7",
".ZL c #abada9",
".0j c #abadaa",
"#ru c #abadab",
".ZM c #abaea9",
".0C c #abaeaa",
".0h c #abaeab",
".0w c #abaeac",
".0t c #abafac",
".lV c #aca388",
".wl c #aca796",
".wp c #aca897",
".#g c #acacad",
".ZA c #acada9",
".0z c #acadab",
".oV c #acadaf",
".ZD c #acaea8",
".Zx c #acaea9",
".Zz c #acaeaa",
".0i c #acaeab",
".0s c #acafab",
".0n c #acafac",
".0v c #acafad",
".E4 c #acafb0",
".0q c #acb0ac",
".0u c #acb0ad",
".xt c #acb0b0",
".SO c #ada25c",
".nt c #ada58b",
".wn c #ada997",
".wm c #ada998",
".ae c #adadac",
".ZC c #adaea9",
".Zy c #adaeaa",
".Fa c #adaeb1",
".Fb c #adaeb2",
".Zt c #adafa9",
".Zs c #adafaa",
".Zr c #adafab",
".0r c #adafac",
"#cr c #adafad",
".Zo c #adb0ab",
".0f c #adb0ac",
".0p c #adb0ad",
"Qt0 c #adb0b0",
".Zp c #adb1ac",
".0o c #adb1ad",
"QtK c #adb1b1",
".E6 c #adb1b2",
".E5 c #adb1b3",
"#bz c #adb3b4",
".nG c #aea68c",
".wo c #aea997",
"#aI c #aeaca4",
"#aB c #aeaca7",
"#c1 c #aeaea6",
".wC c #aeaea9",
".F# c #aeaeb1",
".zd c #aeafa9",
".z. c #aeafaa",
".ZB c #aeafab",
".aP c #aeafad",
".63 c #aeafb1",
".Fc c #aeafb3",
".Fd c #aeafb4",
".Zu c #aeb0aa",
".Zn c #aeb0ab",
".Zq c #aeb0ac",
".T8 c #aeb0ad",
".Zm c #aeb1ac",
".T7 c #aeb1ad",
".TZ c #aeb1ae",
".T6 c #aeb2ae",
".0y c #aeb2af",
".wq c #afaa9a",
".o5 c #afaeaa",
".zm c #afafa9",
".yo c #afafaa",
".Fe c #afafb1",
".Bu c #afb0ac",
".oY c #afb0b2",
".TT c #afb1ac",
".TV c #afb1ad",
".TX c #afb1ae",
".xd c #afb1b0",
".E7 c #afb1b3",
".TU c #afb2ad",
".TW c #afb2ae",
".xh c #afb2af",
".o1 c #afb2b3",
".o2 c #afb2b4",
"QtZ c #afb3b3",
".n6 c #b0a788",
".ob c #b0a789",
".l9 c #b0a78b",
".n4 c #b0a88e",
".lU c #b0a990",
".l5 c #b0a991",
".pX c #b0afac",
".zZ c #b0b0ac",
".5q c #b0b0b1",
".F. c #b0b0b2",
"#bD c #b0b1ad",
".Zv c #b0b2ad",
".TY c #b0b2ae",
".T5 c #b0b2af",
".oX c #b0b2b4",
".T0 c #b0b3af",
".T1 c #b0b3b0",
"QtI c #b0b3b2",
"#ue c #b1a694",
".mV c #b1a88a",
".OQ c #b1a974",
".OP c #b1aa71",
".SS c #b1ac60",
".wr c #b1ac9b",
".SN c #b1ad67",
".SR c #b1ae6a",
"#rF c #b1aea5",
"#bC c #b1b0ab",
"#cs c #b1b2ad",
"QtH c #b1b2b1",
".Pv c #b1b2b2",
".o0 c #b1b2b4",
".Zw c #b1b3ae",
".T4 c #b1b3af",
".T3 c #b1b3b0",
".T2 c #b1b4b0",
".xk c #b1b4b2",
"#aR c #b2ab9f",
".ws c #b2ad9b",
"#aE c #b2ada7",
"#cZ c #b2b1aa",
"#aC c #b2b1ac",
".kp c #b2b1af",
".uS c #b2b2ae",
".lO c #b2b2b1",
".fK c #b2b2b3",
".3r c #b2b3b1",
".2i c #b2b4b1",
".oZ c #b2b4b5",
".oW c #b2b4b6",
".SM c #b3ae6d",
".t2 c #b3ae96",
"#aD c #b3afa7",
"#bG c #b3b0a8",
".aI c #b3b3b3",
".2h c #b3b5b2",
".0J c #b3b7b1",
".nc c #b4a98b",
".qc c #b4ab8c",
".t3 c #b4af97",
".K. c #b4b4af",
".2j c #b4b5b4",
"QtX c #b4b5b5",
".0K c #b4b6b1",
".2g c #b4b6b3",
".0I c #b4b7b2",
".wt c #b5af9e",
"#c0 c #b5b3ab",
".Q9 c #b5b6b4",
".0L c #b5b7b2",
".2c c #b5b7b3",
".2f c #b5b7b4",
".2e c #b5b8b4",
".2d c #b5b8b5",
"QtJ c #b5b9b9",
".qX c #b6ac8c",
".og c #b6ac8f",
".pl c #b6ac90",
".l4 c #b6ad90",
"#cY c #b6b3aa",
"#bF c #b6b3ab",
"#a# c #b6b4ae",
".UU c #b6b7b7",
"Qti c #b6b7b8",
".0O c #b6b8b3",
".3q c #b6b8b4",
".2b c #b6b8b5",
".0P c #b6b9b3",
".0M c #b6b9b4",
".GO c #b7261b",
".nw c #b7ac8c",
".mt c #b7ad8e",
".nd c #b7ae8e",
"#t4 c #b7b1a6",
".EU c #b7b3b2",
".N1 c #b7b7b4",
".1i c #b7b8b3",
".XA c #b7b8b4",
".0Q c #b7b9b3",
".0N c #b7b9b5",
".2a c #b7b9b6",
".0R c #b7bab3",
".GP c #b82214",
".ns c #b8af91",
".ox c #b8b3a3",
".U9 c #b8b8b9",
"#bm c #b8b9b4",
".0S c #b8bab3",
".Xz c #b8bab5",
".3p c #b8bab6",
".2# c #b8bab7",
".2. c #b8bbb8",
".ED c #b92a1f",
".iL c #b99827",
".qz c #b9b29c",
"#tw c #b9b2a6",
".Xy c #b9bab5",
".0W c #b9bbb4",
".XB c #b9bbb5",
".Xx c #b9bbb6",
".3o c #b9bbb7",
".0U c #b9bcb5",
".0T c #b9bcb6",
".19 c #b9bcb9",
".xl c #b9bcbb",
".EE c #ba2519",
".kx c #ba9928",
".gz c #ba9a2c",
".m1 c #baaf8f",
".rf c #bab39c",
".us c #bab39d",
"#ap c #bab8b1",
".WB c #babbbc",
".0V c #babcb5",
".2m c #babcb6",
".Xw c #babcb7",
".Xv c #babcb8",
".3n c #babcb9",
"#eB c #babcbd",
".0X c #babdb7",
".Xu c #babdb8",
".Xt c #babdb9",
".18 c #babdba",
".hI c #bb9b2d",
".lR c #bbb191",
".pr c #bbb294",
".zo c #bbb6a2",
".mM c #bbbab7",
"#bE c #bbbcb5",
".c6 c #bbbcbc",
".77 c #bbbcbd",
".2q c #bbbdb6",
".Xh c #bbbdb7",
".Xi c #bbbdb8",
".Xq c #bbbdb9",
"Qtv c #bbbdba",
"#D4 c #bbbdbd",
"#rP c #bbbdbe",
".2p c #bbbeb7",
".2l c #bbbeb8",
".Xs c #bbbeb9",
".Xr c #bbbeba",
".17 c #bbbebb",
".16 c #bbbfbb",
".15 c #bbbfbc",
".kY c #bc9b28",
".mG c #bcb191",
".nF c #bcb293",
"#t3 c #bcb4a7",
".r9 c #bcb59e",
"#af c #bcb9b1",
".Jd c #bcb9b8",
"#am c #bcbab5",
"#bP c #bcbcb5",
".3t c #bcbcbc",
".2r c #bcbdb7",
".Xj c #bcbdb8",
".Xk c #bcbdb9",
"#wO c #bcbdbe",
".2s c #bcbeb7",
".2n c #bcbeb8",
".Xg c #bcbeb9",
".Xl c #bcbeba",
".Xp c #bcbfbb",
".14 c #bcbfbc",
".13 c #bcc0bd",
".12 c #bcc1bd",
".ie c #bd9c2e",
".iM c #bd9d2e",
".OT c #bdb377",
".mU c #bdb392",
".mn c #bdb393",
".ur c #bdb59e",
".bl c #bdbdbc",
".VT c #bdbeb6",
".2t c #bdbeb8",
".2o c #bdbeb9",
".Xn c #bdbeba",
".Th c #bdbebd",
".E1 c #bdbebe",
".Xm c #bdbfbb",
".Wd c #bdbfbc",
".Wf c #bdc0bb",
".Xo c #bdc0bc",
".zj c #bdc0bd",
"Qth c #bdc0bf",
".11 c #bdc1be",
".W# c #bdc2bd",
".10 c #bdc2bf",
".fX c #be9e2f",
".lm c #beb598",
".OU c #beb67c",
".s3 c #beb6a0",
".ut c #beb7a2",
"#t8 c #bebaae",
".Xc c #bebdb4",
"#bH c #bebdb6",
".#O c #bebebc",
".SK c #bebebf",
".J3 c #bebfba",
".#b c #bebfbf",
".FJ c #bebfc0",
".2u c #bec0b9",
".0Y c #bec0bb",
".Wc c #bec0bc",
".We c #bec0bd",
".V0 c #bec1bc",
".V1 c #bec1bd",
".Wb c #bec1be",
".Wa c #bec2bd",
".W. c #bec2be",
".1Z c #bec2bf",
".1Y c #bec3c0",
".ls c #bf9d29",
".n5 c #bfb798",
".uu c #bfb8a4",
".uv c #bfb8a5",
".uH c #bfb9a7",
".J2 c #bfbfbb",
".#F c #bfbfc0",
".2w c #bfc0b9",
".2v c #bfc0ba",
".J4 c #bfc0bb",
".J9 c #bfc0bc",
".EZ c #bfc0c0",
".EW c #bfc0c1",
".VZ c #bfc1bc",
".VY c #bfc1bd",
".V2 c #bfc2be",
".V9 c #bfc2bf",
".V8 c #bfc3bf",
".1X c #bfc3c1",
".lY c #c09e2a",
".ji c #c09f2e",
".qM c #c0b694",
".nJ c #c0b798",
".uw c #c0b9a6",
".uD c #c0baa7",
"#ai c #c0beb8",
".J8 c #c0c0bb",
".J5 c #c0c0bc",
".E0 c #c0c0c0",
".EY c #c0c0c1",
".J6 c #c0c1bc",
".d2 c #c0c1bf",
".EX c #c0c1c1",
".2x c #c0c2bb",
".0Z c #c0c2bd",
".VX c #c0c2be",
".V4 c #c0c2bf",
"#br c #c0c2c0",
".VW c #c0c3bf",
".V3 c #c0c3c0",
".3m c #c0c3c1",
"Qtw c #c0c3c3",
".V7 c #c0c4c0",
".3l c #c0c4c1",
".1W c #c0c5c1",
".Ir c #c13329",
".kb c #c1a02f",
".oM c #c1b694",
".mC c #c1b897",
".ux c #c1baa6",
".uE c #c1baa7",
".uG c #c1baa8",
".uC c #c1bba8",
".Cc c #c1bfbf",
".J7 c #c1c1bc",
".Xf c #c1c2bd",
".Xe c #c1c3bd",
".00 c #c1c3be",
".VV c #c1c3bf",
".V5 c #c1c3c0",
".V6 c #c1c4c0",
".3k c #c1c4c1",
".3j c #c1c5c1",
".3i c #c1c5c2",
".3h c #c1c6c2",
".jL c #c2a12f",
".uy c #c2bba7",
".uF c #c2bba8",
".uB c #c2bca8",
".uz c #c2bca9",
"#aF c #c2bfba",
".UV c #c2c2c2",
".01 c #c2c4c0",
"Qtl c #c2c4c1",
".03 c #c2c5bf",
".02 c #c2c5c0",
".1U c #c2c6c2",
".1V c #c2c6c3",
"Qtx c #c2c6c5",
".3g c #c2c7c4",
".Is c #c32c21",
".nH c #c3b99a",
".oc c #c3ba9a",
".pv c #c3bba2",
".uA c #c3bca9",
".MX c #c3bd79",
"#aa c #c3c3c0",
".O2 c #c3c4c2",
".04 c #c3c5c0",
".VU c #c3c5c1",
".1T c #c3c6c3",
".1R c #c3c7c3",
".3f c #c3c7c4",
".1Q c #c3c8c4",
".hH c #c4a334",
"#al c #c4c3bf",
".ar c #c4c4c1",
".gV c #c4c4c2",
".05 c #c4c6c1",
".06 c #c4c7c2",
".1S c #c4c7c4",
".1P c #c4c8c4",
".3e c #c4c8c5",
".fm c #c5a435",
".p8 c #c5bb9b",
".qb c #c5bb9c",
".uI c #c5bfac",
"#aO c #c5c4c1",
".p2 c #c5c5c5",
".V. c #c5c6c5",
".07 c #c5c7c2",
"#bn c #c5c7c3",
".ub c #c5c7c8",
".2z c #c5c8c3",
".1O c #c5c8c5",
".1N c #c5c9c5",
".3d c #c5c9c6",
".1M c #c5cac6",
".Hx c #c63328",
".pg c #c6bb9a",
"#tW c #c6c3bc",
"#ad c #c6c4bf",
".Xd c #c6c7c2",
".08 c #c6c8c3",
".2y c #c6c8c4",
".09 c #c6c9c4",
".3c c #c6cac6",
".1L c #c6cac7",
".1K c #c6cbc7",
".Hy c #c72a1c",
".xx c #c7c2ad",
"#bO c #c7c5ba",
"#rG c #c7c6c0",
".tC c #c7c7c6",
"#bs c #c7c8c3",
".1. c #c7c9c4",
".1# c #c7cac4",
".3b c #c7cbc7",
".3a c #c7cbc8",
".1J c #c7ccc8",
".#i c #c8b67a",
".n1 c #c8bd9c",
"#ak c #c8c7c2",
".F8 c #c8c8c7",
".E3 c #c8c8c8",
"Qtf c #c8c9c6",
".1a c #c8cac5",
".1b c #c8cbc6",
".3# c #c8ccc8",
".1I c #c8ccc9",
".1H c #c8cdc9",
".1G c #c8cdca",
"#re c #c8cdcb",
".Ca c #c9b77d",
".px c #c9bd99",
".mX c #c9bf9e",
".kV c #c9c0a1",
".QB c #c9cacb",
".1d c #c9cbc5",
".1c c #c9cbc6",
".2A c #c9cbc7",
".zn c #c9cbc8",
"Qtn c #c9cccb",
".3. c #c9cdc9",
".29 c #c9cdca",
"Qtm c #c9cdcc",
".1F c #c9ceca",
".1D c #c9cecb",
".HE c #ca3328",
".Fu c #ca3a2f",
".#H c #cab25f",
".hW c #cab264",
".al c #cab778",
".dZ c #cab983",
"#bN c #cac8be",
"#ay c #cac8c2",
"#aj c #cac9c3",
".a7 c #cacaca",
"Qtz c #cacacb",
".tk c #cacbc8",
".2B c #caccc8",
".2C c #cacdc8",
".2E c #cacdc9",
".1E c #cacecb",
".28 c #cacecc",
".27 c #cacfcc",
".aK c #cbb25f",
".xB c #cbb363",
".e3 c #cbb365",
".bh c #cbb87a",
".gP c #cbbb85",
".nu c #cbc1a0",
".jx c #cbcbc9",
".g1 c #cbcbcb",
".1e c #cbcdc8",
".2D c #cbcdc9",
".1g c #cbcec9",
".26 c #cbcfcc",
".22 c #cbd0cc",
".HF c #cc2c1e",
".Fv c #cc3124",
".ck c #ccb465",
".km c #ccb771",
".#V c #ccc098",
".pi c #ccc2a3",
".oK c #ccc4ac",
"Qte c #cccac7",
".tB c #cccbc9",
".oU c #cccccd",
".zc c #cccdc8",
".1f c #cccec9",
".2F c #ccceca",
".2H c #cccfc9",
".2G c #cccfca",
".24 c #ccd0cc",
".23 c #ccd0cd",
".25 c #ccd0ce",
".hb c #cdad3c",
".mK c #cdb871",
".aW c #cdc19a",
".nq c #cdc29d",
".lA c #cdc3a2",
".Zk c #cdcccd",
".X9 c #cdcdce",
".2I c #cdcfca",
".ju c #cebe8b",
".rO c #cec39f",
".qU c #cec4a3",
".kT c #cec5a5",
"#aL c #cec8bc",
".MW c #ceca7d",
"#tV c #cecdc4",
".#o c #cecdcc",
".xE c #cecfcd",
".WD c #cecfce",
".1h c #ced0cb",
".2J c #ced0cc",
".AN c #cfb14e",
".dr c #cfb251",
".la c #cfb354",
".ga c #cfb355",
".i1 c #cfb356",
".nO c #cfb458",
"#ac c #cfccc7",
".0G c #cfced0",
".P3 c #cfcfce",
".1C c #cfd3cf",
".eO c #d0af3e",
".#8 c #d0b14a",
".q1 c #d0b55d",
".pC c #d0bb77",
".lG c #d0c190",
".ov c #d0c5a1",
".lC c #d0c5a2",
".MV c #d0c871",
"#ab c #d0ceca",
".lJ c #d0cfcd",
".2K c #d0d2cd",
".a9 c #d1b451",
".oB c #d1bc75",
".u. c #d1bd7c",
".KD c #d1c582",
".nM c #d1c5a1",
".qQ c #d1c6a2",
".lo c #d1c7a5",
".pu c #d1c7a6",
".pw c #d1c7a7",
"QtG c #d1d2d0",
".21 c #d1d6d3",
".cT c #d2c7a4",
".fB c #d2c7a6",
"#aK c #d2cbc1",
"#bM c #d2cdc2",
".tA c #d2d1cf",
".is c #d3c9ab",
".mS c #d3d2d3",
"#rm c #d3d6d5",
".C7 c #d4b343",
".ho c #d4b345",
".vN c #d4ccae",
".a1 c #d4d4d2",
".c0 c #d4d4d3",
"Qtb c #d4d5d5",
".eu c #d5b547",
".jX c #d5b54b",
".mb c #d5b54d",
".iQ c #d5b64b",
".oR c #d5b64e",
".rR c #d5c69c",
".n. c #d5c9a5",
".rA c #d5caa5",
".#v c #d5ceb7",
".GU c #d5d2c1",
".#6 c #d5d5d5",
".jl c #d6b74e",
".sO c #d6b752",
".rF c #d6caa5",
".k8 c #d6cba6",
".kI c #d6cdb0",
".tz c #d6d5d3",
".om c #d6d6d4",
".UI c #d6d6d7",
"#rz c #d6d8d6",
".bO c #d7b74a",
".jO c #d7b951",
".nC c #d7bd62",
".kw c #d7bf70",
".jh c #d7c071",
".rJ c #d7ccaa",
".xg c #d7cdab",
".ay c #d7d1bd",
".#0 c #d7d6d4",
".tt c #d7d7d4",
".tl c #d7d7d5",
".zt c #d7d7d6",
".d7 c #d7d7d7",
".vR c #d8b540",
".gy c #d8b745",
".#w c #d8b746",
".az c #d8b849",
".kf c #d8ba52",
".jK c #d8c071",
".kX c #d8c172",
".na c #d8cda8",
".C5 c #d8d4d3",
".ts c #d8d7d5",
".tx c #d8d8d5",
".tp c #d8d8d6",
"Qtg c #d8dad8",
".hd c #d9b94a",
".ih c #d9bb55",
".iK c #d9c06f",
".oz c #d9cea8",
".pj c #d9ceaa",
".nf c #d9d1b6",
".bN c #d9d3c0",
".et c #d9d4c4",
".tr c #d9d8d6",
".ty c #d9d9d6",
".tq c #d9d9d7",
".qg c #dab846",
".eg c #dab946",
".ig c #daba4c",
".sG c #dac682",
".PB c #dacb87",
".jr c #dacda5",
".iH c #dacea7",
".vC c #dacfac",
".C6 c #dad4c3",
"QtW c #dad9d6",
".tm c #dadad8",
".q3 c #dadbdc",
".kJ c #dbb844",
".it c #dbb946",
".ng c #dbb947",
".gC c #dbbc4e",
".kC c #dbbd57",
".k# c #dbcea6",
".kS c #dbcfa9",
".xn c #dbcfaa",
".sH c #dbcfac",
".QZ c #dbd27e",
".qf c #dbd3ba",
".Gw c #dbd9d8",
"Qtj c #dbdad7",
".fE c #dbdad9",
".tw c #dbdbd9",
"Qtk c #dbdcd9",
".fC c #dcba46",
".iP c #dcbb4d",
".kv c #dccfa7",
".mZ c #dcd0ab",
".vQ c #dcd4bd",
"#aM c #dcd6c9",
".tu c #dcdcda",
"Qt2 c #dcdcdc",
".cU c #ddba44",
".k3 c #ddc05a",
".kF c #ddd0a8",
".zh c #ddd0a9",
".kE c #ddd1a8",
".oI c #ddd1ab",
".k6 c #ddd2ae",
".hn c #ddd8ca",
".rk c #ddddda",
".tO c #dddddb",
".to c #dddddc",
".ge c #deb839",
".#W c #debb45",
".aX c #debb46",
".zr c #debb48",
".lr c #dec87f",
".pq c #dec984",
".iI c #ded0aa",
".kD c #ded1a4",
".jT c #ded1a9",
".mp c #ded2ab",
".iX c #ded2ac",
".vw c #ded2ae",
".tv c #dedddc",
".br c #dedede",
".gd c #dfba3f",
".gS c #dfba40",
".aM c #dfbb40",
".hp c #dfbb41",
".gc c #dfbb42",
".gR c #dfbc44",
".rS c #dfbc45",
"QtR c #dfbc46",
".f0 c #dfc157",
".lw c #dfc15d",
".qa c #dfca82",
".lX c #dfca83",
".jJ c #dfd2aa",
".nZ c #dfd3ab",
".tV c #dfd3ae",
"Qtu c #dfe1df",
".ab c #e0bb42",
".oS c #e0bb43",
".C8 c #e0bc40",
".AO c #e0bc42",
".#M c #e0bc43",
".rT c #e0bc44",
".#. c #e0bc45",
".#K c #e0bc46",
"QtD c #e0bd46",
".#m c #e0bd47",
".#L c #e0bd48",
"Qt7 c #e0bd4a",
"QtS c #e0be48",
".#y c #e0be49",
".fW c #e0bf4c",
"QtQ c #e0c054",
".mz c #e0c25f",
".l1 c #e0c35f",
".hK c #e0c466",
".m7 c #e0c467",
".rI c #e0ca83",
".oF c #e0ce96",
".k4 c #e0d2a5",
".jf c #e0d2aa",
".jq c #e0d3aa",
".sB c #e0d4ad",
".jW c #e0dcd0",
".Lh c #e0dedd",
".su c #e0dfde",
".NE c #e0e0df",
".SJ c #e0e1e1",
".hX c #e1bb3f",
".#j c #e1bc42",
".bi c #e1bd43",
".gQ c #e1bd46",
".pD c #e1be45",
".ev c #e1be47",
".#k c #e1be48",
"QtT c #e1be49",
".ao c #e1be4a",
".#J c #e1be4b",
"Qt8 c #e1bf4a",
".#l c #e1bf4b",
"Qt9 c #e1bf4c",
".a. c #e1bf4d",
".#X c #e1c04d",
".a# c #e1c04e",
".an c #e1c04f",
".id c #e1c152",
".iR c #e1cf97",
".jm c #e1d19c",
".kg c #e1d2a1",
".iG c #e1d4ac",
".iF c #e1d4ad",
".k5 c #e1d5ae",
".ma c #e1ddd2",
".#9 c #e2bd44",
".nP c #e2be44",
".e4 c #e2be45",
".am c #e2be46",
".cl c #e2bf47",
".b. c #e2bf48",
".kn c #e2bf49",
".qh c #e2bf4a",
".mc c #e2c04a",
".bP c #e2c04b",
".#x c #e2c04c",
".co c #e2c04d",
".aY c #e2c04e",
".aa c #e2c04f",
".cY c #e2c052",
".aA c #e2c14f",
".rU c #e2c153",
".l2 c #e2d4aa",
".iU c #e2d4ad",
".k. c #e2d5ac",
".jI c #e2d5ad",
".iV c #e2d5ae",
".HK c #e2d5bc",
".xr c #e2d6af",
".iS c #e2d6b1",
".#7 c #e2dfd9",
".iv c #e2e1e0",
".aC c #e2e2e0",
".M4 c #e2e2e1",
".E2 c #e2e2e2",
".rx c #e2e3e3",
".aL c #e3bf47",
".#I c #e3c049",
".bQ c #e3c04b",
".gb c #e3c14c",
".jY c #e3c14d",
".sP c #e3c14e",
".aZ c #e3c358",
".#Y c #e3c359",
"QtU c #e3c45a",
"Qt6 c #e3c769",
".mv c #e3cd85",
".mA c #e3d5aa",
".iE c #e3d5af",
".k7 c #e3d6ae",
".iD c #e3d6af",
".qO c #e3d7af",
".ph c #e3d7b2",
".PS c #e3d985",
".rl c #e3e3e0",
".y6 c #e3e3e2",
".ds c #e4c14d",
".dL c #e4c24d",
".cX c #e4c24f",
".jv c #e4c55f",
".lH c #e4c65f",
".fp c #e4c762",
".jP c #e4d4a3",
".o# c #e4d5aa",
".lx c #e4d6aa",
".jR c #e4d7ae",
".iW c #e4d7af",
".iT c #e4d7b0",
".nD c #e4d8ae",
".kU c #e4d8af",
".qW c #e4d8b0",
".rm c #e4e3e1",
"Qtt c #e4e4e2",
".gT c #e5c764",
".jp c #e5d8ae",
".jo c #e5d8af",
".j7 c #e5d8b0",
".kh c #e5d9b0",
".jQ c #e5d9b1",
".tZ c #e5d9b4",
".oQ c #e5e1d6",
".ol c #e5e4e2",
".h5 c #e5e5e5",
".fl c #e6c550",
".d0 c #e6c867",
".Cb c #e6c969",
".bj c #e6ca6a",
".jc c #e6d8af",
".jd c #e6d9af",
".j# c #e6d9b0",
".j8 c #e6d9b1",
".vG c #e6d9b3",
".jS c #e6dab0",
".jG c #e6dab1",
".Q3 c #e6dc87",
".a8 c #e6e4df",
".dq c #e6e5e1",
".#A c #e6e5e3",
".kL c #e6e6e4",
"QtC c #e7cb6e",
".u# c #e7cc70",
".ap c #e7cc72",
".pE c #e7cd73",
"QtP c #e7d084",
".m3 c #e7d187",
".jn c #e7d9b0",
".jb c #e7d9b1",
".je c #e7dab0",
".jH c #e7dab1",
".j9 c #e7dab2",
".lB c #e7dbb2",
".mq c #e7dbb3",
".kW c #e7dcb8",
".DW c #e7e6e6",
"#aN c #e7e7e2",
".bS c #e7e7e6",
".#n c #e8cd73",
".mL c #e8ce77",
".he c #e8cf78",
".jE c #e8dbb2",
".rz c #e8dbb3",
".mE c #e8dbb4",
".rL c #e8dcb4",
".sN c #e8e5dd",
".g# c #e8e7e4",
".ha c #e9c853",
".hP c #e9c859",
".hM c #e9c958",
".hQ c #e9c959",
".eR c #e9ce6f",
".ko c #e9cf79",
".ja c #e9dbb2",
".jF c #e9dcb2",
".ki c #e9dcb3",
".mr c #e9dcb4",
".rC c #e9dcb5",
".HV c #e9e9e8",
"Qtc c #e9e9e9",
".dc c #eac953",
".eN c #eac954",
".hR c #eac95b",
".hS c #eaca5c",
".dk c #eacb61",
".dj c #eacb65",
".hj c #eacc64",
".dl c #eacc65",
".dm c #eacc66",
".cM c #eacd67",
".hY c #ead180",
".e5 c #ead384",
".ot c #eadcb3",
".sC c #eaddb4",
".rD c #eaddb5",
".p6 c #eadeb5",
".DP c #eadeb6",
".ax c #eae9e9",
".ni c #eaeae9",
".gx c #ebca56",
".dg c #ebcd5f",
".hi c #ebcd63",
".hk c #ebcd65",
".cL c #ebcd67",
".gI c #ebcd69",
".gH c #ebcd6a",
".cN c #ebce68",
".cO c #ebcf69",
".cP c #ebcf6b",
".f5 c #ebcf71",
".gE c #ebd06e",
".f6 c #ebd06f",
".f2 c #ebd16f",
".fv c #ebd276",
".cp c #ebd489",
".ny c #ebd48a",
".xC c #ebd58a",
".sJ c #ebddb5",
".pe c #ebdeb4",
".t6 c #ebdeb5",
".mY c #ebdfb5",
".qL c #ebdfb6",
".KB c #ebe08e",
".i0 c #ebeae8",
".nX c #ebeaeb",
".rn c #ebebe9",
".qE c #ebebeb",
".cc c #eccc5d",
".dW c #eccd5f",
".di c #eccd61",
".hg c #ecce61",
".gJ c #eccf6c",
".gK c #ecd06c",
".hf c #ecd171",
".fu c #ecd176",
".eW c #ecd37b",
".dT c #ecd47d",
".im c #ecd589",
".aN c #ecd58b",
"QtE c #ecd68f",
".q2 c #ecd78f",
"QtB c #ecdba4",
".l7 c #ecdeb4",
".l6 c #ecdeb5",
".nI c #ecdfb4",
".n# c #ecdfb6",
".rM c #ecdfb7",
".KC c #ece396",
".#a c #ecebea",
".ex c #ececeb",
".hO c #edcc59",
".ef c #edcc5a",
".cd c #edcd5d",
".ce c #edcd5e",
".cJ c #edce61",
".ft c #edd271",
".f7 c #edd272",
".fr c #edd370",
".f8 c #edd374",
".eV c #edd47b",
".dS c #edd47f",
".dP c #edd57a",
".eX c #edd57d",
".ip c #edd58b",
".eo c #edd682",
".gD c #edd683",
".ij c #edd688",
".io c #edd68b",
".eS c #edd77f",
".ek c #edd781",
".nQ c #edd996",
"Qt5 c #eddda7",
".lT c #eddfb6",
".ln c #ede0b6",
".ro c #ededeb",
".fa c #ededed",
".hl c #eecb53",
".fz c #eecd5c",
".cF c #eece58",
".fV c #eece5d",
".cf c #eece5e",
".dn c #eed069",
".hL c #eed376",
".ej c #eed378",
".fw c #eed479",
".fx c #eed579",
".il c #eed583",
".en c #eed584",
".f1 c #eed681",
".in c #eed68b",
".fy c #eed77d",
".cB c #eeda8a",
".lb c #eedb9b",
".i# c #eedc9c",
".rp c #eeedeb",
".l# c #eeedec",
".rq c #eeeeec",
".tn c #eeeeed",
".UH c #eeeeef",
".vu c #eeefee",
".EV c #eeefef",
".#G c #eeeff0",
".ch c #efce5a",
".hG c #efcf5b",
".dK c #efd165",
".f4 c #efd167",
".gL c #efd370",
".eT c #efd56f",
".fq c #efd780",
".dU c #efd881",
".ep c #efd986",
".ii c #efd98e",
".da c #efda88",
".cC c #efda89",
".cD c #efda8a",
".i2 c #efdb9c",
".gf c #efdca0",
".i. c #efdd9c",
".QI c #efe68b",
".wD c #efefee",
".li c #efefef",
".Ov c #efeff0",
".gF c #f0d161",
".cg c #f0d163",
".dR c #f0d36d",
".cy c #f0d676",
".eY c #f0d780",
".ic c #f0d883",
".d# c #f0da86",
".dV c #f0da87",
".eq c #f0dc8b",
".h9 c #f0dd9c",
".ib c #f0de9e",
".ia c #f0de9f",
".dt c #f0dea4",
".xf c #f0e2b8",
".pt c #f0e2ba",
".q0 c #f0f0ef",
".#u c #f0f0f0",
".aJ c #f0f0f2",
".Q8 c #f0f1f0",
".fc c #f1d268",
".db c #f1d775",
".dO c #f1d77c",
".ik c #f1d887",
".eZ c #f1d980",
".cE c #f1da7f",
".HJ c #f1dbbc",
".h8 c #f1de99",
".AP c #f1e1ad",
"Qt4 c #f1ecdd",
".Q2 c #f1ed93",
".hr c #f1f1f0",
"Qtp c #f1f1f1",
".cj c #f1f2f3",
".hT c #f2cf5a",
".gG c #f2d260",
".cQ c #f2d366",
".fk c #f2d36b",
".em c #f2d469",
".el c #f2d56a",
".dG c #f2d77f",
".dI c #f2d780",
".dH c #f2d781",
".dF c #f2d784",
".dJ c #f2d884",
".b3 c #f2dd8c",
".h7 c #f2e0a1",
".b# c #f2e2b0",
".DU c #f2e3b0",
".ac c #f2e3b2",
".DT c #f2e4b3",
".DR c #f2e4b4",
".n3 c #f2e4b8",
"QtO c #f2e7c6",
".ad c #f2f1f0",
".cw c #f2f2f2",
".xA c #f2f2f3",
".cb c #f3d15b",
".ca c #f3d25c",
".hh c #f3d25d",
".cK c #f3d25e",
".f3 c #f3d35f",
".f9 c #f3d56b",
".ea c #f3d576",
".eb c #f3d775",
".ed c #f3d77e",
".ec c #f3d87b",
".fg c #f3d884",
".df c #f3d97c",
".iq c #f3db8b",
".cA c #f3dc7f",
".b5 c #f3dd88",
".b4 c #f3dd89",
".b6 c #f3dd8c",
".DQ c #f3e4b1",
".oT c #f3e4b5",
".DS c #f3e5b5",
".oe c #f3e5b9",
".md c #f3e6b9",
".## c #f3e6bb",
".PW c #f3e98e",
".LH c #f3ee8e",
".I8 c #f3f2f2",
".pG c #f3f3f2",
"Qta c #f3f4f3",
".hN c #f4d259",
".dh c #f4d25c",
".fs c #f4d35e",
".eU c #f4d361",
".dQ c #f4d462",
".eJ c #f4d56c",
".eM c #f4d56e",
".h# c #f4d66a",
".c# c #f4d66b",
".ee c #f4d778",
".eK c #f4d872",
".eL c #f4d87d",
".fR c #f4d883",
".cI c #f4d97a",
".b7 c #f4de88",
".jZ c #f4e8be",
".Em c #f4f2f2",
".rr c #f4f3f2",
"QtF c #f4f4f3",
".j0 c #f4f4f4",
".Tg c #f4f5f4",
".e2 c #f4f5f7",
".eI c #f5d66e",
".er c #f5d978",
".g7 c #f5d979",
".gs c #f5d97f",
".g6 c #f5da79",
".fQ c #f5da83",
".ff c #f5db84",
".Px c #f5e798",
".k9 c #f5e7bc",
".C9 c #f5e9c4",
".hq c #f5eac5",
"Qtd c #f5f4f4",
".i9 c #f5f5f5",
".hV c #f5f6f8",
".e# c #f6d86b",
".hC c #f6d86f",
".hB c #f6d96a",
".hD c #f6d970",
".fh c #f6d987",
".gw c #f6da7a",
".gr c #f6da7c",
".gt c #f6da81",
".fi c #f6da88",
".gv c #f6db85",
".fT c #f6db88",
".g8 c #f6dc7d",
".g9 c #f6dc7f",
".fS c #f6dc88",
".gu c #f6dd85",
".ew c #f6ebc8",
".GT c #f6ecca",
".bR c #f6eccc",
"QtA c #f6f1e0",
".If c #f6f5f5",
".b8 c #f7d761",
".fj c #f7da89",
".fP c #f7db7a",
".fU c #f7db85",
".hE c #f7dc76",
".h. c #f7dc80",
".cz c #f7df7b",
".js c #f7e9bc",
".iY c #f7e9bf",
".vS c #f7edcd",
".aB c #f7edcf",
".Q1 c #f7ee82",
"Qtr c #f7eecf",
".QY c #f7f497",
".du c #f7f7f6",
".xD c #f7f7f7",
".kl c #f7f8fa",
".dE c #f8dc71",
".dD c #f8dd7f",
".hF c #f8de75",
".d. c #f8df73",
".c9 c #f8e088",
".Pz c #f8e690",
".jU c #f8e9bd",
".DV c #f8edd3",
".Py c #f8ee9d",
".PC c #f8f09f",
".qi c #f8f0d5",
".#z c #f8f1d7",
".#N c #f8f8f7",
".aV c #f8f8f8",
".mJ c #f8f8fb",
".WC c #f8f9f9",
".#h c #f8f9fc",
".g5 c #f9dc6e",
".jg c #f9ebc1",
".ka c #f9ebc2",
".PD c #f9f097",
".nh c #f9f1d9",
".kK c #f9f2db",
".iu c #f9f2dc",
".me c #f9f9f9",
".e. c #fadc6d",
".fe c #fadd72",
".g4 c #fade73",
".fd c #fade76",
".kj c #faecbf",
".iJ c #faedc4",
".fD c #faf5e3",
".aO c #fafaf9",
".#U c #fafafa",
".pB c #fafafc",
"Qt3 c #fafbfc",
".ak c #fafbfd",
".bg c #fafcfe",
".d9 c #fbd96b",
".eH c #fbdc66",
".g3 c #fbdd74",
".gq c #fbde6c",
".fO c #fbde6e",
".gp c #fbdf7d",
".b2 c #fbe176",
".b1 c #fbe384",
".kG c #fbecbf",
".oO c #fbecc0",
".GS c #fbeec3",
".cZ c #fbf5e5",
"Qts c #fbf6e5",
".LG c #fbf798",
".QF c #fbf79a",
".zs c #fbf7e9",
"QtN c #fbfaf6",
".gg c #fbfbfa",
"Qt# c #fbfbfb",
".ok c #fbfcfc",
".t9 c #fbfcfe",
".dY c #fbfcff",
".eG c #fcdc6f",
".hA c #fcdf68",
".QX c #fcf788",
".Mz c #fcf798",
".a0 c #fcf8ec",
".#Z c #fcf8ed",
".oj c #fcf9ef",
"QtM c #fcfcfc",
".gO c #fcfdff",
".hz c #fde07a",
"QtV c #fdf9f1",
".lI c #fdfaf1",
".QJ c #fdfb9e",
".jw c #fdfbf5",
".fN c #fee07f",
".gU c #fefcf6",
".d1 c #fefcf7",
"Qtq c #fefdf8",
".bk c #fefdf9",
".ua c #fefdfa",
".pF c #fefefc",
".Lm c #fff092",
".vO c #fff2c4",
".xy c #fff3c5",
".t7 c #fff3c7",
".sL c #fff4c7",
".pz c #fff5c7",
".MA c #fff681",
".rP c #fff6c9",
".qY c #fff8ca",
".Ll c #fff9a1",
".Lk c #fff9a3",
".qd c #fff9ca",
".QG c #fffa81",
".PV c #fffaa0",
".HI c #fffbd5",
".PR c #fffea2",
".aq c #fffefc",
".LF c #ffff82",
".QK c #ffff85",
".PU c #ffff8c",
".PQ c #ffff94",
".QE c #ffff9a",
".My c #ffff9e",
"Qt.Qt.Qt.Qt.Qt.Qt.Qt.Qt.Qt.Qt.Qt.Qt.Qt.Qt.Qt.Qt.Qt.Qt.Qt.Qt.Qt.Qt.Qt.Qt.Qt.Qt.Qt.Qt.Qt.Qt.Qt.Qt.Qt.Qt.Qt.Qt.Qt.Qt.Qt.Qt.Qt.Qt.Qt.Qt.Qt.Qt.Qt.Qt.Qt.Qt.Qt.Qt.Qt.Qt.Qt.Qt.Qt.Qt.Qt.Qt.Qt.Qt.Qt.Qt.Qt.Qt.Qt.Qt.Qt.Qt.Qt.Qt.Qt.Qt.Qt.Qt.Qt.Qt.Qt.Qt.Qt.Qt.Qt.Qt.Qt.Qt.Qt.Qt.Qt.Qt.Qt.Qt.Qt.Qt.Qt.Qt.Qt.Qt.Qt.Qt.Qt.Qt.Qt.Qt.Qt.Qt.Qt.Qt.Qt.Qt.Qt.Qt.Qt.Qt.Qt.Qt.Qt.Qt.Qt.Qt.Qt.Qt.Qt.Qt.Qt.Qt.Qt.Qt.Qt.Qt.Qt.Qt.Qt.Qt.Qt.Qt.Qt.Qt.Qt.Qt.Qt.Qt.Qt.Qt.Qt.Qt.Qt.Qt.Qt.Qt.Qt.Qt.Qt.Qt.Qt.Qt.Qt.Qt.Qt.Qt.Qt.Qt.Qt.Qt.Qt.Qt.Qt.Qt.Qt.Qt.Qt.Qt.Qt.Qt.Qt.Qt.Qt.Qt.Qt.Qt.Qt.Qt.Qt.Qt.Qt.Qt.Qt.Qt.Qt.Qt.Qt.Qt.Qt.Qt.Qt.Qt.Qt.Qt.Qt.Qt.Qt.Qt.Qt.Qt.Qt.Qt.Qt.Qt.Qt.Qt.Qt.Qt.Qt.Qt.Qt.Qt.Qt.Qt.Qt.Qt.Qt.Qt.Qt.Qt.Qt.Qt.Qt.Qt.Qt.Qt.Qt.Qt.Qt.Qt.Qt.Qt.Qt.Qt.Qt.Qt.Qt.Qt.Qt.Qt.Qt.Qt.Qt.Qt.Qt.Qt.Qt.Qt.Qt.Qt.Qt.Qt.Qt.Qt.Qt.Qt.Qt.Qt.Qt.Qt.Qt.Qt.Qt.Qt.Qt.Qt.Qt.Qt.Qt.Qt.Qt.Qt.Qt.Qt.Qt.Qt.Qt.Qt.Qt.Qt.Qt.Qt.Qt.Qt.Qt.Qt.Qt.Qt.Qt.Qt.Qt.Qt.Qt.Qt.Qt.Qt.",
"Qt.Qt.Qt.Qt.Qt.Qt.Qt.Qt.Qt.Qt.Qt.Qt.Qt.Qt.Qt.Qt.Qt.Qt.Qt.Qt.Qt.Qt.Qt.Qt.Qt.Qt.Qt.Qt.Qt.Qt.Qt.Qt.Qt.Qt.Qt.Qt.Qt.Qt.Qt.Qt.Qt.Qt.Qt.Qt.Qt.Qt.Qt.Qt.Qt.Qt.Qt.Qt.Qt.Qt.Qt.Qt.Qt.Qt.Qt.Qt.Qt.Qt.Qt.Qt.Qt.Qt.Qt.Qt.Qt.Qt.Qt.Qt.Qt.Qt.Qt.Qt.Qt.Qt.Qt.Qt.Qt.Qt.Qt.Qt.Qt.Qt.Qt.Qt.Qt.Qt.Qt.Qt.Qt.Qt.Qt.Qt.Qt.Qt.Qt.Qt.Qt.Qt.Qt.Qt.Qt.Qt.Qt.Qt.Qt.Qt.Qt.Qt.Qt.Qt.Qt.Qt.Qt.Qt.Qt.Qt.Qt.Qt.Qt.Qt.Qt.Qt.Qt.Qt.Qt.Qt.Qt.Qt.Qt.Qt.Qt.Qt.Qt.Qt.Qt.Qt.Qt.Qt.Qt.Qt.Qt.Qt.Qt.Qt.Qt.Qt.Qt.Qt.Qt.Qt.Qt.Qt.Qt.Qt.Qt.Qt.Qt.Qt.Qt.Qt.Qt.Qt.Qt.Qt.Qt.Qt.Qt.Qt.Qt.Qt.Qt.Qt.Qt.Qt.Qt.Qt.Qt.Qt.Qt.Qt.Qt.Qt.Qt.Qt.Qt.Qt.Qt.Qt.Qt.Qt.Qt.Qt.Qt.Qt.Qt.Qt.Qt.Qt.Qt.Qt.Qt.Qt.Qt.Qt.Qt.Qt.Qt.Qt.Qt.Qt.Qt.Qt.Qt.Qt.Qt.Qt.Qt.Qt.Qt.Qt.Qt.Qt.Qt.Qt.Qt.Qt.Qt.Qt.Qt.Qt.Qt.Qt.Qt.Qt.Qt.Qt.Qt.Qt.Qt.Qt.Qt.Qt.Qt.Qt.Qt.Qt.Qt.Qt.Qt.Qt.Qt.Qt.Qt.Qt.Qt.Qt.Qt.Qt.Qt.Qt.Qt.Qt.Qt.Qt.Qt.Qt.Qt.Qt.Qt.Qt.Qt.Qt.Qt.Qt.Qt.Qt.Qt.Qt.Qt.Qt.Qt.Qt.Qt.Qt.Qt.Qt.Qt.Qt.Qt.Qt.Qt.Qt.Qt.Qt.Qt.Qt.",
"Qt.Qt.Qt.Qt.Qt.Qt.Qt.Qt.Qt.Qt.Qt.Qt.Qt.Qt.Qt.Qt.Qt.Qt.Qt.Qt.Qt.Qt.Qt.Qt.Qt.Qt.Qt.Qt.Qt.Qt.Qt.Qt.Qt.Qt.Qt.Qt.Qt.Qt.Qt.Qt.Qt.Qt.Qt.Qt.Qt.Qt.Qt.Qt.Qt.Qt.Qt.Qt.Qt.Qt.Qt.Qt.Qt.Qt.Qt.Qt.Qt.Qt.Qt.Qt.Qt.Qt.Qt.Qt.Qt.Qt.Qt.Qt.Qt.Qt.Qt.Qt.Qt.Qt.Qt.Qt.Qt.Qt.Qt.Qt.Qt.Qt.Qt.Qt.Qt.Qt.Qt.Qt.Qt.Qt.Qt.Qt.Qt.Qt.Qt.Qt.Qt.Qt.Qt.Qt.Qt.Qt.Qt.Qt.Qt.Qt.Qt.Qt.Qt.Qt.Qt.Qt.Qt.Qt.Qt.Qt.Qt.Qt.Qt.Qt.Qt.Qt.Qt.Qt.Qt.Qt.Qt.Qt.Qt.Qt.Qt.Qt.Qt.Qt.Qt.Qt.Qt.Qt.Qt.Qt.Qt.Qt.Qt.Qt.Qt.Qt.Qt.Qt.Qt.Qt.Qt.Qt.Qt.Qt.Qt.Qt.Qt.Qt.Qt.Qt.Qt.Qt.Qt.Qt.Qt.Qt.Qt.Qt.Qt.Qt.Qt.Qt.Qt.Qt.Qt.Qt.Qt.Qt.Qt.Qt.Qt.Qt.Qt.Qt.Qt.Qt.Qt.Qt.Qt.Qt.Qt.Qt.Qt.Qt.Qt.Qt.Qt.Qt.Qt.Qt.Qt.Qt.Qt.Qt.Qt.Qt.Qt.Qt.Qt.Qt.Qt.Qt.Qt.Qt.Qt.Qt.Qt.Qt.Qt.Qt.Qt.Qt.Qt.Qt.Qt.Qt.Qt.Qt.Qt.Qt.Qt.Qt.Qt.Qt.Qt.Qt.Qt.Qt.Qt.Qt.Qt.Qt.Qt.Qt.Qt.Qt.Qt.Qt.Qt.Qt.Qt.Qt.Qt.Qt.Qt.Qt.Qt.Qt.Qt.Qt.Qt.Qt.Qt.Qt.Qt.Qt.Qt.Qt.Qt.Qt.Qt.Qt.Qt.Qt.Qt.Qt.Qt.Qt.Qt.Qt.Qt.Qt.Qt.Qt.Qt.Qt.Qt.Qt.Qt.Qt.Qt.Qt.Qt.Qt.Qt.Qt.",
"Qt.Qt.Qt.Qt.Qt.Qt.Qt.Qt.Qt.Qt.Qt.Qt.Qt.Qt.Qt.Qt.Qt.Qt.Qt.Qt.Qt.Qt.Qt.Qt.Qt.Qt.Qt.Qt.Qt.Qt.Qt.Qt.Qt.Qt.Qt.Qt.Qt.Qt.Qt.Qt.Qt.Qt.Qt.Qt.Qt.Qt.Qt.Qt.Qt.Qt.Qt.Qt.Qt.Qt.Qt.Qt.Qt.Qt.Qt.Qt.Qt.Qt.Qt.Qt.Qt.Qt.Qt.Qt.Qt.Qt.Qt.Qt.Qt.Qt.Qt.Qt.Qt.Qt.Qt.Qt.Qt.Qt.Qt.Qt.Qt.Qt.Qt.Qt.Qt.Qt.Qt.Qt.Qt.Qt.Qt.Qt.Qt.Qt.Qt.Qt.Qt.Qt.Qt.Qt.Qt.Qt.Qt.Qt.Qt.Qt.Qt.Qt.Qt.Qt.Qt.Qt.Qt.Qt.Qt.Qt.Qt.Qt.Qt.Qt.Qt.Qt.Qt.Qt.Qt.Qt.Qt.Qt.Qt.Qt.Qt.Qt.Qt.Qt.Qt.Qt.Qt.Qt.Qt.Qt.Qt.Qt.Qt.Qt.Qt.Qt.Qt.Qt.Qt.Qt.Qt.Qt.Qt.Qt.Qt.Qt.Qt.Qt.Qt.Qt.Qt.Qt.Qt.Qt.Qt.Qt.Qt.Qt.Qt.Qt.Qt.Qt.Qt.Qt.Qt.Qt.Qt.Qt.Qt.Qt.Qt.Qt.Qt.Qt.Qt.Qt.Qt.Qt.Qt.Qt.Qt.Qt.Qt.Qt.Qt.Qt.Qt.Qt.Qt.Qt.Qt.Qt.Qt.Qt.Qt.Qt.Qt.Qt.Qt.Qt.Qt.Qt.Qt.Qt.Qt.Qt.Qt.Qt.Qt.Qt.Qt.Qt.Qt.Qt.Qt.Qt.Qt.Qt.Qt.Qt.Qt.Qt.Qt.Qt.Qt.Qt.Qt.Qt.Qt.Qt.Qt.Qt.Qt.Qt.Qt.Qt.Qt.Qt.Qt.Qt.Qt.Qt.Qt.Qt.Qt.Qt.Qt.Qt.Qt.Qt.Qt.Qt.Qt.Qt.Qt.Qt.Qt.Qt.Qt.Qt.Qt.Qt.Qt.Qt.Qt.Qt.Qt.Qt.Qt.Qt.Qt.Qt.Qt.Qt.Qt.Qt.Qt.Qt.Qt.Qt.Qt.Qt.Qt.Qt.Qt.Qt.",
"Qt.Qt.Qt.Qt.Qt.Qt.Qt.Qt.Qt.Qt.Qt.Qt.Qt.Qt.Qt.Qt.Qt.Qt.Qt.Qt.Qt.Qt.Qt.Qt.Qt.Qt.Qt.Qt.Qt.Qt.Qt.Qt.Qt.Qt.Qt.Qt.Qt.Qt.Qt.Qt.Qt.Qt.Qt.Qt.Qt.Qt.Qt.Qt.Qt.Qt.Qt.Qt.Qt.Qt.Qt.Qt.Qt.Qt.Qt.Qt.Qt.Qt.Qt.Qt.Qt.Qt.Qt.Qt.Qt.Qt.Qt.Qt.Qt.Qt.Qt.Qt.Qt.Qt.Qt.Qt.Qt.Qt.Qt.Qt.Qt.Qt.Qt.Qt.Qt.Qt.Qt.Qt.Qt.Qt.Qt.Qt.Qt.Qt.Qt.Qt.Qt.Qt.Qt.Qt.Qt.Qt.Qt.Qt.Qt.Qt.Qt.Qt.Qt.Qt.Qt.Qt.Qt.Qt.Qt.Qt.Qt.Qt.Qt.Qt.Qt.Qt.Qt.Qt.Qt.Qt.Qt.Qt.Qt.Qt.Qt.Qt.Qt.Qt.Qt.Qt.Qt.Qt.Qt.Qt.Qt.Qt.Qt.Qt.Qt.Qt.Qt#QtaQtbQtcQt.Qt.Qt.Qt.Qt.Qt.Qt.Qt.Qt.Qt.Qt.Qt.Qt.Qt.Qt.Qt.Qt.Qt.Qt.Qt.Qt.Qt.Qt.Qt.Qt.Qt.Qt.Qt.Qt.Qt.Qt.Qt.Qt.Qt.Qt.Qt.Qt.Qt.Qt.Qt.Qt.Qt.Qt.Qt.Qt.Qt.Qt.Qt.Qt.Qt.Qt.Qt.Qt.Qt.Qt.Qt.Qt.Qt.Qt.Qt.Qt.Qt.Qt.Qt.Qt.Qt.Qt.Qt.Qt.Qt.Qt.Qt.Qt.Qt.Qt.Qt.Qt.Qt.Qt.Qt.Qt.Qt.Qt.Qt.Qt.Qt.Qt.Qt.Qt.Qt.Qt.Qt.Qt.Qt.Qt.Qt.Qt.Qt.Qt.Qt.Qt.Qt.Qt.Qt.Qt.Qt.Qt.Qt.Qt.Qt.Qt.Qt.Qt.Qt.Qt.Qt.Qt.Qt.Qt.Qt.Qt.Qt.Qt.Qt.Qt.Qt.Qt.Qt.Qt.Qt.Qt.Qt.Qt.Qt.Qt.Qt.Qt.Qt.Qt.Qt.Qt.Qt.Qt.Qt.Qt.Qt.",
"Qt.Qt.Qt.Qt.Qt.Qt.Qt.Qt.Qt.Qt.Qt.Qt.Qt.Qt.Qt.Qt.Qt.Qt.Qt.Qt.Qt.Qt.Qt.Qt.Qt.Qt.Qt.Qt.Qt.Qt.Qt.Qt.Qt.Qt.Qt.Qt.Qt.Qt.Qt.Qt.Qt.Qt.Qt.Qt.Qt.Qt.Qt.Qt.Qt.Qt.Qt.Qt.Qt.Qt.Qt.Qt.Qt.Qt.Qt.Qt.Qt.Qt.Qt.Qt.Qt.Qt.Qt.Qt.Qt.Qt.Qt.Qt.Qt.Qt.Qt.Qt.Qt.Qt.Qt.Qt.Qt.Qt.Qt.Qt.Qt.Qt.Qt.Qt.Qt.Qt.Qt.Qt.Qt.Qt.Qt.Qt.Qt.Qt.Qt.Qt.Qt.Qt.Qt.Qt.Qt.Qt.Qt.Qt.Qt.Qt.Qt.Qt.Qt.Qt.Qt.Qt.Qt.Qt.Qt.Qt.Qt.Qt.Qt.Qt.Qt.Qt.Qt.Qt.Qt.Qt.Qt.Qt.Qt.Qt.Qt.Qt.Qt.Qt.Qt.Qt.Qt.Qt.Qt.Qt.Qt.Qt.Qt.Qt.QtdQteQtfQtgQthQtiQt.Qt.Qt.Qt.Qt.Qt.Qt.Qt.Qt.Qt.Qt.Qt.Qt.Qt.Qt.Qt.Qt.Qt.Qt.Qt.Qt.Qt.Qt.Qt.Qt.Qt.Qt.Qt.Qt.Qt.Qt.Qt.Qt.Qt.Qt.Qt.Qt.Qt.Qt.Qt.Qt.Qt.Qt.Qt.Qt.Qt.Qt.Qt.Qt.Qt.Qt.Qt.Qt.Qt.Qt.Qt.Qt.Qt.Qt.Qt.Qt.Qt.Qt.Qt.Qt.Qt.Qt.Qt.Qt.Qt.Qt.Qt.Qt.Qt.Qt.Qt.Qt.Qt.Qt.Qt.Qt.Qt.Qt.Qt.Qt.Qt.Qt.Qt.Qt.Qt.Qt.Qt.Qt.Qt.Qt.Qt.Qt.Qt.Qt.Qt.Qt.Qt.Qt.Qt.Qt.Qt.Qt.Qt.Qt.Qt.Qt.Qt.Qt.Qt.Qt.Qt.Qt.Qt.Qt.Qt.Qt.Qt.Qt.Qt.Qt.Qt.Qt.Qt.Qt.Qt.Qt.Qt.Qt.Qt.Qt.Qt.Qt.Qt.Qt.Qt.Qt.Qt.Qt.Qt.Qt.Qt.",
"Qt.Qt.Qt.Qt.Qt.Qt.Qt.Qt.Qt.Qt.Qt.Qt.Qt.Qt.Qt.Qt.Qt.Qt.Qt.Qt.Qt.Qt.Qt.Qt.Qt.Qt.Qt.Qt.Qt.Qt.Qt.Qt.Qt.Qt.Qt.Qt.Qt.Qt.Qt.Qt.Qt.Qt.Qt.Qt.Qt.Qt.Qt.Qt.Qt.Qt.Qt.Qt.Qt.Qt.Qt.Qt.Qt.Qt.Qt.Qt.Qt.Qt.Qt.Qt.Qt.Qt.Qt.Qt.Qt.Qt.Qt.Qt.Qt.Qt.Qt.Qt.Qt.Qt.Qt.Qt.Qt.Qt.Qt.Qt.Qt.Qt.Qt.Qt.Qt.Qt.Qt.Qt.Qt.Qt.Qt.Qt.Qt.Qt.Qt.Qt.Qt.Qt.Qt.Qt.Qt.Qt.Qt.Qt.Qt.Qt.Qt.Qt.Qt.Qt.Qt.Qt.Qt.Qt.Qt.Qt.Qt.Qt.Qt.Qt.Qt.Qt.Qt.Qt.Qt.Qt.Qt.Qt.Qt.Qt.Qt.Qt.Qt.Qt.Qt.Qt.Qt.Qt.Qt.Qt.Qt.Qt.Qt.Qt.QtjQtkQtlQtmQtnQtoQtpQt.Qt.Qt.Qt.Qt.Qt.Qt.Qt.Qt.Qt.Qt.Qt.Qt.Qt.Qt.Qt.Qt.Qt.Qt.Qt.Qt.Qt.Qt.Qt.Qt.Qt.Qt.Qt.Qt.Qt.Qt.Qt.Qt.Qt.Qt.Qt.Qt.Qt.Qt.Qt.Qt.Qt.Qt.Qt.Qt.Qt.Qt.Qt.Qt.Qt.Qt.Qt.Qt.Qt.Qt.Qt.Qt.Qt.Qt.Qt.Qt.Qt.Qt.Qt.Qt.Qt.Qt.Qt.Qt.Qt.Qt.Qt.Qt.Qt.Qt.Qt.Qt.Qt.Qt.Qt.Qt.Qt.Qt.Qt.Qt.Qt.Qt.Qt.Qt.Qt.Qt.Qt.Qt.Qt.Qt.Qt.Qt.Qt.Qt.Qt.Qt.Qt.Qt.Qt.Qt.Qt.Qt.Qt.Qt.Qt.Qt.Qt.Qt.Qt.Qt.Qt.Qt.Qt.QtqQtrQtsQt.Qt.Qt.Qt.Qt.Qt.Qt.Qt.Qt.Qt.Qt.Qt.Qt.Qt.Qt.Qt.Qt.Qt.Qt.Qt.Qt.Qt.Qt.Qt.",
"Qt.Qt.Qt.Qt.Qt.Qt.Qt.Qt.Qt.Qt.Qt.Qt.Qt.Qt.Qt.Qt.Qt.Qt.Qt.Qt.Qt.Qt.Qt.Qt.Qt.Qt.Qt.Qt.Qt.Qt.Qt.Qt.Qt.Qt.Qt.Qt.Qt.Qt.Qt.Qt.Qt.Qt.Qt.Qt.Qt.Qt.Qt.Qt.Qt.Qt.Qt.Qt.Qt.Qt.Qt.Qt.Qt.Qt.Qt.Qt.Qt.Qt.Qt.Qt.Qt.Qt.Qt.Qt.Qt.Qt.Qt.Qt.Qt.Qt.Qt.Qt.Qt.Qt.Qt.Qt.Qt.Qt.Qt.Qt.Qt.Qt.Qt.Qt.Qt.Qt.Qt.Qt.Qt.Qt.Qt.Qt.Qt.Qt.Qt.Qt.Qt.Qt.Qt.Qt.Qt.Qt.Qt.Qt.Qt.Qt.Qt.Qt.Qt.Qt.Qt.Qt.Qt.Qt.Qt.Qt.Qt.Qt.Qt.Qt.Qt.Qt.Qt.Qt.Qt.Qt.Qt.Qt.Qt.Qt.Qt.Qt.Qt.Qt.Qt.Qt.Qt.Qt.Qt.Qt.Qt.Qt.Qt.Qt.QttQtuQtvQtwQtxQtyQtzQt.Qt.Qt.Qt.Qt.Qt.Qt.Qt.Qt.Qt.Qt.Qt.Qt.Qt.Qt.Qt.Qt.Qt.Qt.Qt.Qt.Qt.Qt.Qt.Qt.Qt.Qt.Qt.Qt.Qt.Qt.Qt.Qt.Qt.Qt.Qt.Qt.Qt.Qt.Qt.Qt.Qt.Qt.Qt.Qt.Qt.Qt.Qt.Qt.Qt.Qt.Qt.Qt.Qt.Qt.Qt.Qt.Qt.Qt.Qt.Qt.Qt.Qt.Qt.Qt.Qt.Qt.Qt.Qt.Qt.Qt.Qt.Qt.Qt.Qt.Qt.Qt.Qt.Qt.Qt.Qt.Qt.Qt.Qt.Qt.Qt.Qt.Qt.Qt.Qt.Qt.Qt.Qt.Qt.Qt.Qt.Qt.Qt.Qt.Qt.Qt.Qt.Qt.Qt.Qt.Qt.Qt.Qt.Qt.Qt.Qt.Qt.Qt.Qt.Qt.Qt.QtAQtBQtCQtDQtEQt.Qt.Qt.Qt.Qt.Qt.Qt.Qt.Qt.Qt.Qt.Qt.Qt.Qt.Qt.Qt.Qt.Qt.Qt.Qt.Qt.Qt.Qt.Qt.",
"Qt.Qt.Qt.Qt.Qt.Qt.Qt.Qt.Qt.Qt.Qt.Qt.Qt.Qt.Qt.Qt.Qt.Qt.Qt.Qt.Qt.Qt.Qt.Qt.Qt.Qt.Qt.Qt.Qt.Qt.Qt.Qt.Qt.Qt.Qt.Qt.Qt.Qt.Qt.Qt.Qt.Qt.Qt.Qt.Qt.Qt.Qt.Qt.Qt.Qt.Qt.Qt.Qt.Qt.Qt.Qt.Qt.Qt.Qt.Qt.Qt.Qt.Qt.Qt.Qt.Qt.Qt.Qt.Qt.Qt.Qt.Qt.Qt.Qt.Qt.Qt.Qt.Qt.Qt.Qt.Qt.Qt.Qt.Qt.Qt.Qt.Qt.Qt.Qt.Qt.Qt.Qt.Qt.Qt.Qt.Qt.Qt.Qt.Qt.Qt.Qt.Qt.Qt.Qt.Qt.Qt.Qt.Qt.Qt.Qt.Qt.Qt.Qt.Qt.Qt.Qt.Qt.Qt.Qt.Qt.Qt.Qt.Qt.Qt.Qt.Qt.Qt.Qt.Qt.Qt.Qt.Qt.Qt.Qt.Qt.Qt.Qt.Qt.Qt.Qt.Qt.Qt.Qt.Qt.Qt.Qt.Qt.Qt.QtFQtGQtHQtIQtJQtKQtLQtMQt.Qt.Qt.Qt.Qt.Qt.Qt.Qt.Qt.Qt.Qt.Qt.Qt.Qt.Qt.Qt.Qt.Qt.Qt.Qt.Qt.Qt.Qt.Qt.Qt.Qt.Qt.Qt.Qt.Qt.Qt.Qt.Qt.Qt.Qt.Qt.Qt.Qt.Qt.Qt.Qt.Qt.Qt.Qt.Qt.Qt.Qt.Qt.Qt.Qt.Qt.Qt.Qt.Qt.Qt.Qt.Qt.Qt.Qt.Qt.Qt.Qt.Qt.Qt.Qt.Qt.Qt.Qt.Qt.Qt.Qt.Qt.Qt.Qt.Qt.Qt.Qt.Qt.Qt.Qt.Qt.Qt.Qt.Qt.Qt.Qt.Qt.Qt.Qt.Qt.Qt.Qt.Qt.Qt.Qt.Qt.Qt.Qt.Qt.Qt.Qt.Qt.Qt.Qt.Qt.Qt.Qt.Qt.Qt.Qt.Qt.Qt.QtNQtOQtPQtQQtRQtSQtTQtUQtVQt.Qt.Qt.Qt.Qt.Qt.Qt.Qt.Qt.Qt.Qt.Qt.Qt.Qt.Qt.Qt.Qt.Qt.Qt.Qt.Qt.Qt.Qt.",
"Qt.Qt.Qt.Qt.Qt.Qt.Qt.Qt.Qt.Qt.Qt.Qt.Qt.Qt.Qt.Qt.Qt.Qt.Qt.Qt.Qt.Qt.Qt.Qt.Qt.Qt.Qt.Qt.Qt.Qt.Qt.Qt.Qt.Qt.Qt.Qt.Qt.Qt.Qt.Qt.Qt.Qt.Qt.Qt.Qt.Qt.Qt.Qt.Qt.Qt.Qt.Qt.Qt.Qt.Qt.Qt.Qt.Qt.Qt.Qt.Qt.Qt.Qt.Qt.Qt.Qt.Qt.Qt.Qt.Qt.Qt.Qt.Qt.Qt.Qt.Qt.Qt.Qt.Qt.Qt.Qt.Qt.Qt.Qt.Qt.Qt.Qt.Qt.Qt.Qt.Qt.Qt.Qt.Qt.Qt.Qt.Qt.Qt.Qt.Qt.Qt.Qt.Qt.Qt.Qt.Qt.Qt.Qt.Qt.Qt.Qt.Qt.Qt.Qt.Qt.Qt.Qt.Qt.Qt.Qt.Qt.Qt.Qt.Qt.Qt.Qt.Qt.Qt.Qt.Qt.Qt.Qt.Qt.Qt.Qt.Qt.Qt.Qt.Qt.Qt.Qt.Qt.Qt.Qt.Qt.Qt.Qt.Qt.Qt.QtWQtXQtYQtZQt0Qt1Qt2Qt.Qt.Qt.Qt.Qt.Qt.Qt.Qt.Qt.Qt.Qt.Qt.Qt.Qt.Qt.Qt.Qt.Qt.Qt.Qt.Qt.Qt.Qt.Qt.Qt.Qt.Qt.Qt.Qt.Qt.Qt.Qt.Qt.Qt.Qt.Qt.Qt.Qt.Qt.Qt.Qt.Qt.Qt.Qt.Qt.Qt.Qt.Qt.Qt.Qt.Qt.Qt.Qt.Qt.Qt.Qt.Qt.Qt.Qt.Qt.Qt.Qt.Qt.Qt.Qt.Qt.Qt.Qt.Qt.Qt.Qt.Qt.Qt.Qt.Qt.Qt.Qt.Qt.Qt.Qt.Qt.Qt.Qt.Qt.Qt.Qt.Qt.Qt.Qt.Qt.Qt.Qt.Qt.Qt.Qt.Qt.Qt.Qt.Qt.Qt.Qt.Qt.Qt.Qt.Qt.Qt.Qt.Qt.Qt.Qt3Qt4Qt5Qt6Qt7QtDQt8Qt9Qt9Qt9.#..##Qt.Qt.Qt.Qt.Qt.Qt.Qt.Qt.Qt.Qt.Qt.Qt.Qt.Qt.Qt.Qt.Qt.Qt.Qt.Qt.Qt.Qt.Qt.",
"Qt.Qt.Qt.Qt.Qt.Qt.Qt.Qt.Qt.Qt.Qt.Qt.Qt.Qt.Qt.Qt.Qt.Qt.Qt.Qt.Qt.Qt.Qt.Qt.Qt.Qt.Qt.Qt.Qt.Qt.Qt.Qt.Qt.Qt.Qt.Qt.Qt.Qt.Qt.Qt.Qt.Qt.Qt.Qt.Qt.Qt.Qt.Qt.Qt.Qt.Qt.Qt.Qt.Qt.Qt.Qt.Qt.Qt.Qt.Qt.Qt.Qt.Qt.Qt.Qt.Qt.Qt.Qt.Qt.Qt.Qt.Qt.Qt.Qt.Qt.Qt.Qt.Qt.Qt.Qt.Qt.Qt.Qt.Qt.Qt.Qt.Qt.Qt.Qt.Qt.Qt.Qt.Qt.Qt.Qt.Qt.Qt.Qt.Qt.Qt.Qt.Qt.Qt.Qt.Qt.Qt.Qt.Qt.Qt.Qt.Qt.Qt.Qt.Qt.Qt.Qt.Qt.Qt.Qt.Qt.Qt.Qt.Qt.Qt.Qt.Qt.Qt.Qt.Qt.Qt.Qt.Qt.Qt.Qt.Qt.Qt.Qt.Qt.Qt.Qt.Qt.Qt.Qt.Qt.Qt.Qt.Qt.Qt.Qt..#a.#b.#c.#d.#e.#f.#gQt.Qt.Qt.Qt.Qt.Qt.Qt.Qt.Qt.Qt.Qt.Qt.Qt.Qt.Qt.Qt.Qt.Qt.Qt.Qt.Qt.Qt.Qt.Qt.Qt.Qt.Qt.Qt.Qt.Qt.Qt.Qt.Qt.Qt.Qt.Qt.Qt.Qt.Qt.Qt.Qt.Qt.Qt.Qt.Qt.Qt.Qt.Qt.Qt.Qt.Qt.Qt.Qt.Qt.Qt.Qt.Qt.Qt.Qt.Qt.Qt.Qt.Qt.Qt.Qt.Qt.Qt.Qt.Qt.Qt.Qt.Qt.Qt.Qt.Qt.Qt.Qt.Qt.Qt.Qt.Qt.Qt.Qt.Qt.Qt.Qt.Qt.Qt.Qt.Qt.Qt.Qt.Qt.Qt.Qt.Qt.Qt.Qt.Qt.Qt.Qt.Qt.Qt.Qt.Qt.Qt.Qt.Qt.Qt..#h.#i.#j.#k.#lQt9Qt9Qt9Qt9Qt9.#m.#nQt.Qt.Qt.Qt.Qt.Qt.Qt.Qt.Qt.Qt.Qt.Qt.Qt.Qt.Qt.Qt.Qt.Qt.Qt.Qt.Qt.Qt.Qt.",
"Qt.Qt.Qt.Qt.Qt.Qt.Qt.Qt.Qt.Qt.Qt.Qt.Qt.Qt.Qt.Qt.Qt.Qt.Qt.Qt.Qt.Qt.Qt.Qt.Qt.Qt.Qt.Qt.Qt.Qt.Qt.Qt.Qt.Qt.Qt.Qt.Qt.Qt.Qt.Qt.Qt.Qt.Qt.Qt.Qt.Qt.Qt.Qt.Qt.Qt.Qt.Qt.Qt.Qt.Qt.Qt.Qt.Qt.Qt.Qt.Qt.Qt.Qt.Qt.Qt.Qt.Qt.Qt.Qt.Qt.Qt.Qt.Qt.Qt.Qt.Qt.Qt.Qt.Qt.Qt.Qt.Qt.Qt.Qt.Qt.Qt.Qt.Qt.Qt.Qt.Qt.Qt.Qt.Qt.Qt.Qt.Qt.Qt.Qt.Qt.Qt.Qt.Qt.Qt.Qt.Qt.Qt.Qt.Qt.Qt.Qt.Qt.Qt.Qt.Qt.Qt.Qt.Qt.Qt.Qt.Qt.Qt.Qt.Qt.Qt.Qt.Qt.Qt.Qt.Qt.Qt.Qt.Qt.Qt.Qt.Qt.Qt.Qt.Qt.Qt.Qt.Qt.Qt.Qt.Qt.Qt.Qt.Qt.Qt.Qt..#o.#p.#q.#r.#s.#t.#uQt.Qt.Qt.Qt.Qt.Qt.Qt.Qt.Qt.Qt.Qt.Qt.Qt.Qt.Qt.Qt.Qt.Qt.Qt.Qt.Qt.Qt.Qt.Qt.Qt.Qt.Qt.Qt.Qt.Qt.Qt.Qt.Qt.Qt.Qt.Qt.Qt.Qt.Qt.Qt.Qt.Qt.Qt.Qt.Qt.Qt.Qt.Qt.Qt.Qt.Qt.Qt.Qt.Qt.Qt.Qt.Qt.Qt.Qt.Qt.Qt.Qt.Qt.Qt.Qt.Qt.Qt.Qt.Qt.Qt.Qt.Qt.Qt.Qt.Qt.Qt.Qt.Qt.Qt.Qt.Qt.Qt.Qt.Qt.Qt.Qt.Qt.Qt.Qt.Qt.Qt.Qt.Qt.Qt.Qt.Qt.Qt.Qt.Qt.Qt.Qt.Qt.Qt.Qt.Qt.Qt.Qt.Qt.Qt..#v.#w.#xQt9Qt9Qt9Qt9Qt9Qt9.#y.#..#zQt.Qt.Qt.Qt.Qt.Qt.Qt.Qt.Qt.Qt.Qt.Qt.Qt.Qt.Qt.Qt.Qt.Qt.Qt.Qt.Qt.Qt.",
"Qt.Qt.Qt.Qt.Qt.Qt.Qt.Qt.Qt.Qt.Qt.Qt.Qt.Qt.Qt.Qt.Qt.Qt.Qt.Qt.Qt.Qt.Qt.Qt.Qt.Qt.Qt.Qt.Qt.Qt.Qt.Qt.Qt.Qt.Qt.Qt.Qt.Qt.Qt.Qt.Qt.Qt.Qt.Qt.Qt.Qt.Qt.Qt.Qt.Qt.Qt.Qt.Qt.Qt.Qt.Qt.Qt.Qt.Qt.Qt.Qt.Qt.Qt.Qt.Qt.Qt.Qt.Qt.Qt.Qt.Qt.Qt.Qt.Qt.Qt.Qt.Qt.Qt.Qt.Qt.Qt.Qt.Qt.Qt.Qt.Qt.Qt.Qt.Qt.Qt.Qt.Qt.Qt.Qt.Qt.Qt.Qt.Qt.Qt.Qt.Qt.Qt.Qt.Qt.Qt.Qt.Qt.Qt.Qt.Qt.Qt.Qt.Qt.Qt.Qt.Qt.Qt.Qt.Qt.Qt.Qt.Qt.Qt.Qt.Qt.Qt.Qt.Qt.Qt.Qt.Qt.Qt.Qt.Qt.Qt.Qt.Qt.Qt.Qt.Qt.Qt.Qt.Qt.Qt.Qt.Qt.Qt.Qt.Qt.Qt..#A.#B.#C.#s.#D.#E.#FQt.Qt.Qt.Qt.Qt.Qt.Qt.Qt.Qt.Qt.Qt.Qt.Qt.Qt.Qt.Qt.Qt.Qt.Qt.Qt.Qt.Qt.Qt.Qt.Qt.Qt.Qt.Qt.Qt.Qt.Qt.Qt.Qt.Qt.Qt.Qt.Qt.Qt.Qt.Qt.Qt.Qt.Qt.Qt.Qt.Qt.Qt.Qt.Qt.Qt.Qt.Qt.Qt.Qt.Qt.Qt.Qt.Qt.Qt.Qt.Qt.Qt.Qt.Qt.Qt.Qt.Qt.Qt.Qt.Qt.Qt.Qt.Qt.Qt.Qt.Qt.Qt.Qt.Qt.Qt.Qt.Qt.Qt.Qt.Qt.Qt.Qt.Qt.Qt.Qt.Qt.Qt.Qt.Qt.Qt.Qt.Qt.Qt.Qt.Qt.Qt.Qt.Qt.Qt.Qt.Qt.Qt.Qt.Qt..#G.#H.#IQt9Qt9Qt9.#J.#m.#K.#L.#MQtEQt.Qt.Qt.Qt.Qt.Qt.Qt.Qt.Qt.Qt.Qt.Qt.Qt.Qt.Qt.Qt.Qt.Qt.Qt.Qt.Qt.Qt.",
"Qt.Qt.Qt.Qt.Qt.Qt.Qt.Qt.Qt.Qt.Qt.Qt.Qt.Qt.Qt.Qt.Qt.Qt.Qt.Qt.Qt.Qt.Qt.Qt.Qt.Qt.Qt.Qt.Qt.Qt.Qt.Qt.Qt.Qt.Qt.Qt.Qt.Qt.Qt.Qt.Qt.Qt.Qt.Qt.Qt.Qt.Qt.Qt.Qt.Qt.Qt.Qt.Qt.Qt.Qt.Qt.Qt.Qt.Qt.Qt.Qt.Qt.Qt.Qt.Qt.Qt.Qt.Qt.Qt.Qt.Qt.Qt.Qt.Qt.Qt.Qt.Qt.Qt.Qt.Qt.Qt.Qt.Qt.Qt.Qt.Qt.Qt.Qt.Qt.Qt.Qt.Qt.Qt.Qt.Qt.Qt.Qt.Qt.Qt.Qt.Qt.Qt.Qt.Qt.Qt.Qt.Qt.Qt.Qt.Qt.Qt.Qt.Qt.Qt.Qt.Qt.Qt.Qt.Qt.Qt.Qt.Qt.Qt.Qt.Qt.Qt.Qt.Qt.Qt.Qt.Qt.Qt.Qt.Qt.Qt.Qt.Qt.Qt.Qt.Qt.Qt.Qt.Qt.Qt.Qt.Qt.Qt.Qt.Qt.Qt..#N.#O.#P.#Q.#R.#S.#T.#UQt.Qt.Qt.Qt.Qt.Qt.Qt.Qt.Qt.Qt.Qt.Qt.Qt.Qt.Qt.Qt.Qt.Qt.Qt.Qt.Qt.Qt.Qt.Qt.Qt.Qt.Qt.Qt.Qt.Qt.Qt.Qt.Qt.Qt.Qt.Qt.Qt.Qt.Qt.Qt.Qt.Qt.Qt.Qt.Qt.Qt.Qt.Qt.Qt.Qt.Qt.Qt.Qt.Qt.Qt.Qt.Qt.Qt.Qt.Qt.Qt.Qt.Qt.Qt.Qt.Qt.Qt.Qt.Qt.Qt.Qt.Qt.Qt.Qt.Qt.Qt.Qt.Qt.Qt.Qt.Qt.Qt.Qt.Qt.Qt.Qt.Qt.Qt.Qt.Qt.Qt.Qt.Qt.Qt.Qt.Qt.Qt.Qt.Qt.Qt.Qt.Qt.Qt.Qt.Qt.Qt.Qt.Qt.Qt..#V.#WQt9.#y.#K.#K.#yQt9.#XQt9.#Y.#ZQt.Qt.Qt.Qt.Qt.Qt.Qt.Qt.Qt.Qt.Qt.Qt.Qt.Qt.Qt.Qt.Qt.Qt.Qt.Qt.Qt.",
"Qt.Qt.Qt.Qt.Qt.Qt.Qt.Qt.Qt.Qt.Qt.Qt.Qt.Qt.Qt.Qt.Qt.Qt.Qt.Qt.Qt.Qt.Qt.Qt.Qt.Qt.Qt.Qt.Qt.Qt.Qt.Qt.Qt.Qt.Qt.Qt.Qt.Qt.Qt.Qt.Qt.Qt.Qt.Qt.Qt.Qt.Qt.Qt.Qt.Qt.Qt.Qt.Qt.Qt.Qt.Qt.Qt.Qt.Qt.Qt.Qt.Qt.Qt.Qt.Qt.Qt.Qt.Qt.Qt.Qt.Qt.Qt.Qt.Qt.Qt.Qt.Qt.Qt.Qt.Qt.Qt.Qt.Qt.Qt.Qt.Qt.Qt.Qt.Qt.Qt.Qt.Qt.Qt.Qt.Qt.Qt.Qt.Qt.Qt.Qt.Qt.Qt.Qt.Qt.Qt.Qt.Qt.Qt.Qt.Qt.Qt.Qt.Qt.Qt.Qt.Qt.Qt.Qt.Qt.Qt.Qt.Qt.Qt.Qt.Qt.Qt.Qt.Qt.Qt.Qt.Qt.Qt.Qt.Qt.Qt.Qt.Qt.Qt.Qt.Qt.Qt.Qt.Qt.Qt.Qt.Qt.Qt.Qt.Qt.Qt.Qt..#0.#1.#2.#3.#4.#5.#6Qt.Qt.Qt.Qt.Qt.Qt.Qt.Qt.Qt.Qt.Qt.Qt.Qt.Qt.Qt.Qt.Qt.Qt.Qt.Qt.Qt.Qt.Qt.Qt.Qt.Qt.Qt.Qt.Qt.Qt.Qt.Qt.Qt.Qt.Qt.Qt.Qt.Qt.Qt.Qt.Qt.Qt.Qt.Qt.Qt.Qt.Qt.Qt.Qt.Qt.Qt.Qt.Qt.Qt.Qt.Qt.Qt.Qt.Qt.Qt.Qt.Qt.Qt.Qt.Qt.Qt.Qt.Qt.Qt.Qt.Qt.Qt.Qt.Qt.Qt.Qt.Qt.Qt.Qt.Qt.Qt.Qt.Qt.Qt.Qt.Qt.Qt.Qt.Qt.Qt.Qt.Qt.Qt.Qt.Qt.Qt.Qt.Qt.Qt.Qt.Qt.Qt.Qt.Qt.Qt.Qt.Qt.Qt.Qt..#7.#8.#9.#m.#J.a..a#.aa.aaQt9.ab.acQt.Qt.Qt.Qt.Qt.Qt.Qt.Qt.Qt.Qt.Qt.Qt.Qt.Qt.Qt.Qt.Qt.Qt.Qt.Qt.Qt.",
"Qt.Qt.Qt.Qt.Qt.Qt.Qt.Qt.Qt.Qt.Qt.Qt.Qt.Qt.Qt.Qt.Qt.Qt.Qt.Qt.Qt.Qt.Qt.Qt.Qt.Qt.Qt.Qt.Qt.Qt.Qt.Qt.Qt.Qt.Qt.Qt.Qt.Qt.Qt.Qt.Qt.Qt.Qt.Qt.Qt.Qt.Qt.Qt.Qt.Qt.Qt.Qt.Qt.Qt.Qt.Qt.Qt.Qt.Qt.Qt.Qt.Qt.Qt.Qt.Qt.Qt.Qt.Qt.Qt.Qt.Qt.Qt.Qt.Qt.Qt.Qt.Qt.Qt.Qt.Qt.Qt.Qt.Qt.Qt.Qt.Qt.Qt.Qt.Qt.Qt.Qt.Qt.Qt.Qt.Qt.Qt.Qt.Qt.Qt.Qt.Qt.Qt.Qt.Qt.Qt.Qt.Qt.Qt.Qt.Qt.Qt.Qt.Qt.Qt.Qt.Qt.Qt.Qt.Qt.Qt.Qt.Qt.Qt.Qt.Qt.Qt.Qt.Qt.Qt.Qt.Qt.Qt.Qt.Qt.Qt.Qt.Qt.Qt.Qt.Qt.Qt.Qt.Qt.Qt.Qt.Qt.Qt.Qt.Qt.Qt.Qt..ad.ae.af.ag.ah.ai.ajQt.Qt.Qt.Qt.Qt.Qt.Qt.Qt.Qt.Qt.Qt.Qt.Qt.Qt.Qt.Qt.Qt.Qt.Qt.Qt.Qt.Qt.Qt.Qt.Qt.Qt.Qt.Qt.Qt.Qt.Qt.Qt.Qt.Qt.Qt.Qt.Qt.Qt.Qt.Qt.Qt.Qt.Qt.Qt.Qt.Qt.Qt.Qt.Qt.Qt.Qt.Qt.Qt.Qt.Qt.Qt.Qt.Qt.Qt.Qt.Qt.Qt.Qt.Qt.Qt.Qt.Qt.Qt.Qt.Qt.Qt.Qt.Qt.Qt.Qt.Qt.Qt.Qt.Qt.Qt.Qt.Qt.Qt.Qt.Qt.Qt.Qt.Qt.Qt.Qt.Qt.Qt.Qt.Qt.Qt.Qt.Qt.Qt.Qt.Qt.Qt.Qt.Qt.Qt.Qt.Qt.Qt.Qt.Qt..ak.al.am.a..aa.an.a#.#l.ao.ao.#m.ap.aqQt.Qt.Qt.Qt.Qt.Qt.Qt.Qt.Qt.Qt.Qt.Qt.Qt.Qt.Qt.Qt.Qt.Qt.Qt.Qt.",
"Qt.Qt.Qt.Qt.Qt.Qt.Qt.Qt.Qt.Qt.Qt.Qt.Qt.Qt.Qt.Qt.Qt.Qt.Qt.Qt.Qt.Qt.Qt.Qt.Qt.Qt.Qt.Qt.Qt.Qt.Qt.Qt.Qt.Qt.Qt.Qt.Qt.Qt.Qt.Qt.Qt.Qt.Qt.Qt.Qt.Qt.Qt.Qt.Qt.Qt.Qt.Qt.Qt.Qt.Qt.Qt.Qt.Qt.Qt.Qt.Qt.Qt.Qt.Qt.Qt.Qt.Qt.Qt.Qt.Qt.Qt.Qt.Qt.Qt.Qt.Qt.Qt.Qt.Qt.Qt.Qt.Qt.Qt.Qt.Qt.Qt.Qt.Qt.Qt.Qt.Qt.Qt.Qt.Qt.Qt.Qt.Qt.Qt.Qt.Qt.Qt.Qt.Qt.Qt.Qt.Qt.Qt.Qt.Qt.Qt.Qt.Qt.Qt.Qt.Qt.Qt.Qt.Qt.Qt.Qt.Qt.Qt.Qt.Qt.Qt.Qt.Qt.Qt.Qt.Qt.Qt.Qt.Qt.Qt.Qt.Qt.Qt.Qt.Qt.Qt.Qt.Qt.Qt.Qt.Qt.Qt.Qt.Qt.Qt.Qt.Qt.Qt..ar.as.at.au.av.aw.axQt.Qt.Qt.Qt.Qt.Qt.Qt.Qt.Qt.Qt.Qt.Qt.Qt.Qt.Qt.Qt.Qt.Qt.Qt.Qt.Qt.Qt.Qt.Qt.Qt.Qt.Qt.Qt.Qt.Qt.Qt.Qt.Qt.Qt.Qt.Qt.Qt.Qt.Qt.Qt.Qt.Qt.Qt.Qt.Qt.Qt.Qt.Qt.Qt.Qt.Qt.Qt.Qt.Qt.Qt.Qt.Qt.Qt.Qt.Qt.Qt.Qt.Qt.Qt.Qt.Qt.Qt.Qt.Qt.Qt.Qt.Qt.Qt.Qt.Qt.Qt.Qt.Qt.Qt.Qt.Qt.Qt.Qt.Qt.Qt.Qt.Qt.Qt.Qt.Qt.Qt.Qt.Qt.Qt.Qt.Qt.Qt.Qt.Qt.Qt.Qt.Qt.Qt.Qt.Qt.Qt.Qt.Qt.Qt..ay.az.aAQt9.ao.ao.#l.a..a#.a..#L.aBQt.Qt.Qt.Qt.Qt.Qt.Qt.Qt.Qt.Qt.Qt.Qt.Qt.Qt.Qt.Qt.Qt.Qt.Qt.Qt.",
"Qt.Qt.Qt.Qt.Qt.Qt.Qt.Qt.Qt.Qt.Qt.Qt.Qt.Qt.Qt.Qt.Qt.Qt.Qt.Qt.Qt.Qt.Qt.Qt.Qt.Qt.Qt.Qt.Qt.Qt.Qt.Qt.Qt.Qt.Qt.Qt.Qt.Qt.Qt.Qt.Qt.Qt.Qt.Qt.Qt.Qt.Qt.Qt.Qt.Qt.Qt.Qt.Qt.Qt.Qt.Qt.Qt.Qt.Qt.Qt.Qt.Qt.Qt.Qt.Qt.Qt.Qt.Qt.Qt.Qt.Qt.Qt.Qt.Qt.Qt.Qt.Qt.Qt.Qt.Qt.Qt.Qt.Qt.Qt.Qt.Qt.Qt.Qt.Qt.Qt.Qt.Qt.Qt.Qt.Qt.Qt.Qt.Qt.Qt.Qt.Qt.Qt.Qt.Qt.Qt.Qt.Qt.Qt.Qt.Qt.Qt.Qt.Qt.Qt.Qt.Qt.Qt.Qt.Qt.Qt.Qt.Qt.Qt.Qt.Qt.Qt.Qt.Qt.Qt.Qt.Qt.Qt.Qt.Qt.Qt.Qt.Qt.Qt.Qt.Qt.Qt.Qt.Qt.Qt.Qt.Qt.Qt.Qt.Qt.Qt.Qt.Qt..aC.aD.aE.aF.aG.aH.aIQt.Qt.Qt.Qt.Qt.Qt.Qt.Qt.Qt.Qt.Qt.Qt.Qt.Qt.Qt.Qt.Qt.Qt.Qt.Qt.Qt.Qt.Qt.Qt.Qt.Qt.Qt.Qt.Qt.Qt.Qt.Qt.Qt.Qt.Qt.Qt.Qt.Qt.Qt.Qt.Qt.Qt.Qt.Qt.Qt.Qt.Qt.Qt.Qt.Qt.Qt.Qt.Qt.Qt.Qt.Qt.Qt.Qt.Qt.Qt.Qt.Qt.Qt.Qt.Qt.Qt.Qt.Qt.Qt.Qt.Qt.Qt.Qt.Qt.Qt.Qt.Qt.Qt.Qt.Qt.Qt.Qt.Qt.Qt.Qt.Qt.Qt.Qt.Qt.Qt.Qt.Qt.Qt.Qt.Qt.Qt.Qt.Qt.Qt.Qt.Qt.Qt.Qt.Qt.Qt.Qt.Qt.Qt.Qt..aJ.aK.aL.aoQt9.a#.a#.a.QtT.#m.aM.aNQt.Qt.Qt.Qt.Qt.Qt.Qt.Qt.Qt.Qt.Qt.Qt.Qt.Qt.Qt.Qt.Qt.Qt.Qt.Qt.",
"Qt.Qt.Qt.Qt.Qt.Qt.Qt.Qt.Qt.Qt.Qt.Qt.Qt.Qt.Qt.Qt.Qt.Qt.Qt.Qt.Qt.Qt.Qt.Qt.Qt.Qt.Qt.Qt.Qt.Qt.Qt.Qt.Qt.Qt.Qt.Qt.Qt.Qt.Qt.Qt.Qt.Qt.Qt.Qt.Qt.Qt.Qt.Qt.Qt.Qt.Qt.Qt.Qt.Qt.Qt.Qt.Qt.Qt.Qt.Qt.Qt.Qt.Qt.Qt.Qt.Qt.Qt.Qt.Qt.Qt.Qt.Qt.Qt.Qt.Qt.Qt.Qt.Qt.Qt.Qt.Qt.Qt.Qt.Qt.Qt.Qt.Qt.Qt.Qt.Qt.Qt.Qt.Qt.Qt.Qt.Qt.Qt.Qt.Qt.Qt.Qt.Qt.Qt.Qt.Qt.Qt.Qt.Qt.Qt.Qt.Qt.Qt.Qt.Qt.Qt.Qt.Qt.Qt.Qt.Qt.Qt.Qt.Qt.Qt.Qt.Qt.Qt.Qt.Qt.Qt.Qt.Qt.Qt.Qt.Qt.Qt.Qt.Qt.Qt.Qt.Qt.Qt.Qt.Qt.Qt.Qt.Qt.Qt.Qt.Qt.Qt.Qt..aO.aP.aQ.aR.aS.aT.aU.aVQt.Qt.Qt.Qt.Qt.Qt.Qt.Qt.Qt.Qt.Qt.Qt.Qt.Qt.Qt.Qt.Qt.Qt.Qt.Qt.Qt.Qt.Qt.Qt.Qt.Qt.Qt.Qt.Qt.Qt.Qt.Qt.Qt.Qt.Qt.Qt.Qt.Qt.Qt.Qt.Qt.Qt.Qt.Qt.Qt.Qt.Qt.Qt.Qt.Qt.Qt.Qt.Qt.Qt.Qt.Qt.Qt.Qt.Qt.Qt.Qt.Qt.Qt.Qt.Qt.Qt.Qt.Qt.Qt.Qt.Qt.Qt.Qt.Qt.Qt.Qt.Qt.Qt.Qt.Qt.Qt.Qt.Qt.Qt.Qt.Qt.Qt.Qt.Qt.Qt.Qt.Qt.Qt.Qt.Qt.Qt.Qt.Qt.Qt.Qt.Qt.Qt.Qt.Qt.Qt.Qt.Qt.Qt.Qt..aW.aX.aY.a#.#l.#LQtDQtTQt9Qt9.aZ.a0Qt.Qt.Qt.Qt.Qt.Qt.Qt.Qt.Qt.Qt.Qt.Qt.Qt.Qt.Qt.Qt.Qt.Qt.Qt.",
"Qt.Qt.Qt.Qt.Qt.Qt.Qt.Qt.Qt.Qt.Qt.Qt.Qt.Qt.Qt.Qt.Qt.Qt.Qt.Qt.Qt.Qt.Qt.Qt.Qt.Qt.Qt.Qt.Qt.Qt.Qt.Qt.Qt.Qt.Qt.Qt.Qt.Qt.Qt.Qt.Qt.Qt.Qt.Qt.Qt.Qt.Qt.Qt.Qt.Qt.Qt.Qt.Qt.Qt.Qt.Qt.Qt.Qt.Qt.Qt.Qt.Qt.Qt.Qt.Qt.Qt.Qt.Qt.Qt.Qt.Qt.Qt.Qt.Qt.Qt.Qt.Qt.Qt.Qt.Qt.Qt.Qt.Qt.Qt.Qt.Qt.Qt.Qt.Qt.Qt.Qt.Qt.Qt.Qt.Qt.Qt.Qt.Qt.Qt.Qt.Qt.Qt.Qt.Qt.Qt.Qt.Qt.Qt.Qt.Qt.Qt.Qt.Qt.Qt.Qt.Qt.Qt.Qt.Qt.Qt.Qt.Qt.Qt.Qt.Qt.Qt.Qt.Qt.Qt.Qt.Qt.Qt.Qt.Qt.Qt.Qt.Qt.Qt.Qt.Qt.Qt.Qt.Qt.Qt.Qt.Qt.Qt.Qt.Qt.Qt.Qt.Qt.Qt..a1.a2.a3.a4.a5.a6.a7Qt.Qt.Qt.Qt.Qt.Qt.Qt.Qt.Qt.Qt.Qt.Qt.Qt.Qt.Qt.Qt.Qt.Qt.Qt.Qt.Qt.Qt.Qt.Qt.Qt.Qt.Qt.Qt.Qt.Qt.Qt.Qt.Qt.Qt.Qt.Qt.Qt.Qt.Qt.Qt.Qt.Qt.Qt.Qt.Qt.Qt.Qt.Qt.Qt.Qt.Qt.Qt.Qt.Qt.Qt.Qt.Qt.Qt.Qt.Qt.Qt.Qt.Qt.Qt.Qt.Qt.Qt.Qt.Qt.Qt.Qt.Qt.Qt.Qt.Qt.Qt.Qt.Qt.Qt.Qt.Qt.Qt.Qt.Qt.Qt.Qt.Qt.Qt.Qt.Qt.Qt.Qt.Qt.Qt.Qt.Qt.Qt.Qt.Qt.Qt.Qt.Qt.Qt.Qt.Qt.Qt.Qt.Qt.Qt..a8.a9.b..#m.#m.ao.a..a#.a#Qt9.#M.b#Qt.Qt.Qt.Qt.Qt.Qt.Qt.Qt.Qt.Qt.Qt.Qt.Qt.Qt.Qt.Qt.Qt.Qt.Qt.",
"Qt.Qt.Qt.Qt.Qt.Qt.Qt.Qt.Qt.Qt.Qt.Qt.Qt.Qt.Qt.Qt.Qt.Qt.Qt.Qt.Qt.Qt.Qt.Qt.Qt.Qt.Qt.Qt.Qt.Qt.Qt.Qt.Qt.Qt.Qt.Qt.Qt.Qt.Qt.Qt.Qt.Qt.Qt.Qt.Qt.Qt.Qt.Qt.Qt.Qt.Qt.Qt.Qt.Qt.Qt.Qt.Qt.Qt.Qt.Qt.Qt.Qt.Qt.Qt.Qt.Qt.Qt.Qt.Qt.Qt.Qt.Qt.Qt.Qt.Qt.Qt.Qt.Qt.Qt.Qt.Qt.Qt.Qt.Qt.Qt.Qt.Qt.Qt.Qt.Qt.Qt.Qt.Qt.Qt.Qt.Qt.Qt.Qt.Qt.Qt.Qt.Qt.Qt.Qt.Qt.Qt.Qt.Qt.Qt.Qt.Qt.Qt.Qt.Qt.Qt.Qt.Qt.Qt.Qt.Qt.Qt.Qt.Qt.Qt.Qt.Qt.Qt.Qt.Qt.Qt.Qt.Qt.Qt.Qt.Qt.Qt.Qt.Qt.Qt.Qt.Qt.Qt.Qt.Qt.Qt.Qt.Qt.Qt.Qt.Qt.Qt.Qt.Qt.QtF.ba.bb.bc.bd.be.bfQt.Qt.Qt.Qt.Qt.Qt.Qt.Qt.Qt.Qt.Qt.Qt.Qt.Qt.Qt.Qt.Qt.Qt.Qt.Qt.Qt.Qt.Qt.Qt.Qt.Qt.Qt.Qt.Qt.Qt.Qt.Qt.Qt.Qt.Qt.Qt.Qt.Qt.Qt.Qt.Qt.Qt.Qt.Qt.Qt.Qt.Qt.Qt.Qt.Qt.Qt.Qt.Qt.Qt.Qt.Qt.Qt.Qt.Qt.Qt.Qt.Qt.Qt.Qt.Qt.Qt.Qt.Qt.Qt.Qt.Qt.Qt.Qt.Qt.Qt.Qt.Qt.Qt.Qt.Qt.Qt.Qt.Qt.Qt.Qt.Qt.Qt.Qt.Qt.Qt.Qt.Qt.Qt.Qt.Qt.Qt.Qt.Qt.Qt.Qt.Qt.Qt.Qt.Qt.Qt.Qt.Qt.Qt.Qt..bg.bh.biQt9.a#.a#.a.Qt9.#l.#J.#m.bj.bkQt.Qt.Qt.Qt.Qt.Qt.Qt.Qt.Qt.Qt.Qt.Qt.Qt.Qt.Qt.Qt.Qt.Qt.",
"Qt.Qt.Qt.Qt.Qt.Qt.Qt.Qt.Qt.Qt.Qt.Qt.Qt.Qt.Qt.Qt.Qt.Qt.Qt.Qt.Qt.Qt.Qt.Qt.Qt.Qt.Qt.Qt.Qt.Qt.Qt.Qt.Qt.Qt.Qt.Qt.Qt.Qt.Qt.Qt.Qt.Qt.Qt.Qt.Qt.Qt.Qt.Qt.Qt.Qt.Qt.Qt.Qt.Qt.Qt.Qt.Qt.Qt.Qt.Qt.Qt.Qt.Qt.Qt.Qt.Qt.Qt.Qt.Qt.Qt.Qt.Qt.Qt.Qt.Qt.Qt.Qt.Qt.Qt.Qt.Qt.Qt.Qt.Qt.Qt.Qt.Qt.Qt.Qt.Qt.Qt.Qt.Qt.Qt.Qt.Qt.Qt.Qt.Qt.Qt.Qt.Qt.Qt.Qt.Qt.Qt.Qt.Qt.Qt.Qt.Qt.Qt.Qt.Qt.Qt.Qt.Qt.Qt.Qt.Qt.Qt.Qt.Qt.Qt.Qt.Qt.Qt.Qt.Qt.Qt.Qt.Qt.Qt.Qt.Qt.Qt.Qt.Qt.Qt.Qt.Qt.Qt.Qt.Qt.Qt.Qt.Qt.Qt.Qt.Qt.Qt.Qt.Qt.Qt..bl.bm.bn.bo.bp.bq.brQt.Qt.Qt.Qt.Qt.Qt.Qt.Qt.Qt.Qt.Qt.Qt.Qt.Qt.Qt.Qt.Qt.Qt.Qt.Qt.Qt.Qt.Qt.Qt.Qt.Qt.Qt.Qt.Qt.Qt.Qt.Qt.Qt.Qt.Qt.Qt.Qt.Qt.Qt.Qt.Qt.Qt.Qt.Qt.Qt.Qt.Qt.Qt.Qt.Qt.Qt.Qt.Qt.Qt.Qt.Qt.Qt.Qt.Qt.Qt.Qt.Qt.Qt.Qt.Qt.Qt.Qt.Qt.Qt.Qt..bs.bt.bu.bv.bw.bx.by.bz.bA.bBQt.Qt..bC.bD.bE.bF.bG.bH.bI.bJ.bK.bL.bMQt.Qt.Qt.Qt.Qt.Qt.Qt.Qt.Qt.Qt.Qt.Qt.Qt.Qt.Qt.Qt..bN.bO.aYQt9.#l.ao.bP.bQ.ao.ao.#L.bRQt.Qt.Qt.Qt.Qt.Qt.Qt.Qt.Qt.Qt.Qt.Qt.Qt.Qt.Qt.Qt.Qt.Qt.",
"Qt.Qt.Qt.Qt.Qt.Qt.Qt.Qt.Qt.Qt.Qt.Qt.Qt.Qt.Qt.Qt.Qt.Qt.Qt.Qt.Qt.Qt.Qt.Qt.Qt.Qt.Qt.Qt.Qt.Qt.Qt.Qt.Qt.Qt.Qt.Qt.Qt.Qt.Qt.Qt.Qt.Qt.Qt.Qt.Qt.Qt.Qt.Qt.Qt.Qt.Qt.Qt.Qt.Qt.Qt.Qt.Qt.Qt.Qt.Qt.Qt.Qt.Qt.Qt.Qt.Qt.Qt.Qt.Qt.Qt.Qt.Qt.Qt.Qt.Qt.Qt.Qt.Qt.Qt.Qt.Qt.Qt.Qt.Qt.Qt.Qt.Qt.Qt.Qt.Qt.Qt.Qt.Qt.Qt.Qt.Qt.Qt.Qt.Qt.Qt.Qt.Qt.Qt.Qt.Qt.Qt.Qt.Qt.Qt.Qt.Qt.Qt.Qt.Qt.Qt.Qt.Qt.Qt.Qt.Qt.Qt.Qt.Qt.Qt.Qt.Qt.Qt.Qt.Qt.Qt.Qt.Qt.Qt.Qt.Qt.Qt.Qt.Qt.Qt.Qt.Qt.Qt.Qt.Qt.Qt.Qt.Qt.Qt.Qt.Qt.Qt.Qt.Qt.Qt..bS.bT.bU.bV.bW.bX.bYQt.Qt.Qt.Qt.Qt.Qt.Qt.Qt.Qt.Qt.Qt.Qt.Qt.Qt.Qt.Qt.Qt.Qt.Qt.Qt.Qt.Qt.Qt.Qt.Qt.Qt.Qt.Qt.Qt.Qt.Qt.Qt.Qt.Qt.Qt.Qt.Qt.Qt.Qt.Qt.Qt.Qt.Qt.Qt.Qt.Qt.Qt.Qt.Qt.Qt.Qt.Qt.Qt.Qt.Qt.Qt.Qt.Qt.Qt.Qt.Qt.Qt.Qt.Qt.Qt.Qt.Qt.Qt.Qt..bZ.b0.b1.b2.b3.b4.b5.b6.b7.b8.b9Qt.Qt..c..c#.ca.cb.cc.cd.ce.cf.cg.ch.ciQt.Qt.Qt.Qt.Qt.Qt.Qt.Qt.Qt.Qt.Qt.Qt.Qt.Qt.Qt.Qt..cj.ck.cl.ao.#l.bP.cm.cn.co.aaQtS.cpQt.Qt.Qt.Qt.Qt.Qt.Qt.Qt.Qt.Qt.Qt.Qt.Qt.Qt.Qt.Qt.Qt.Qt.",
"Qt.Qt.Qt.Qt.Qt.Qt.Qt.Qt.Qt.Qt.Qt.Qt.Qt.Qt.Qt.Qt.Qt.Qt.Qt.Qt.Qt.Qt.Qt.Qt.Qt.Qt.Qt.Qt.Qt.Qt.Qt.Qt.Qt.Qt.Qt.Qt.Qt.Qt.Qt.Qt.Qt.Qt.Qt.Qt.Qt.Qt.Qt.Qt.Qt.Qt.Qt.Qt.Qt.Qt.Qt.Qt.Qt.Qt.Qt.Qt.Qt.Qt.Qt.Qt.Qt.Qt.Qt.Qt.Qt.Qt.Qt.Qt.Qt.Qt.Qt.Qt.Qt.Qt.Qt.Qt.Qt.Qt.Qt.Qt.Qt.Qt.Qt.Qt.Qt.Qt.Qt.Qt.Qt.Qt.Qt.Qt.Qt.Qt.Qt.Qt.Qt.Qt.Qt.Qt.Qt.Qt.Qt.Qt.Qt.Qt.Qt.Qt.Qt.Qt.Qt.Qt.Qt.Qt.Qt.Qt.Qt.Qt.Qt.Qt.Qt.Qt.Qt.Qt.Qt.Qt.Qt.Qt.Qt.Qt.Qt.Qt.Qt.Qt.Qt.Qt.Qt.Qt.Qt.Qt.Qt.Qt.Qt.Qt.Qt.Qt.Qt.Qt.Qt.Qt.Qt..cq.cr.cs.ct.cu.cv.cwQt.Qt.Qt.Qt.Qt.Qt.Qt.Qt.Qt.Qt.Qt.Qt.Qt.Qt.Qt.Qt.Qt.Qt.Qt.Qt.Qt.Qt.Qt.Qt.Qt.Qt.Qt.Qt.Qt.Qt.Qt.Qt.Qt.Qt.Qt.Qt.Qt.Qt.Qt.Qt.Qt.Qt.Qt.Qt.Qt.Qt.Qt.Qt.Qt.Qt.Qt.Qt.Qt.Qt.Qt.Qt.Qt.Qt.Qt.Qt.Qt.Qt.Qt.Qt.Qt.Qt.Qt.Qt..cx.cy.cz.cA.cB.cC.cC.cD.cE.cF.cGQt.Qt..cH.cI.cJ.cK.cL.cM.cN.cO.cP.cQ.cR.cSQt.Qt.Qt.Qt.Qt.Qt.Qt.Qt.Qt.Qt.Qt.Qt.Qt.Qt.Qt.Qt..cT.cUQt8.ao.bP.cV.cW.cX.#X.ao.cY.cZQt.Qt.Qt.Qt.Qt.Qt.Qt.Qt.Qt.Qt.Qt.Qt.Qt.Qt.Qt.Qt.Qt.",
"Qt.Qt.Qt.Qt.Qt.Qt.Qt.Qt.Qt.Qt.Qt.Qt.Qt.Qt.Qt.Qt.Qt.Qt.Qt.Qt.Qt.Qt.Qt.Qt.Qt.Qt.Qt.Qt.Qt.Qt.Qt.Qt.Qt.Qt.Qt.Qt.Qt.Qt.Qt.Qt.Qt.Qt.Qt.Qt.Qt.Qt.Qt.Qt.Qt.Qt.Qt.Qt.Qt.Qt.Qt.Qt.Qt.Qt.Qt.Qt.Qt.Qt.Qt.Qt.Qt.Qt.Qt.Qt.Qt.Qt.Qt.Qt.Qt.Qt.Qt.Qt.Qt.Qt.Qt.Qt.Qt.Qt.Qt.Qt.Qt.Qt.Qt.Qt.Qt.Qt.Qt.Qt.Qt.Qt.Qt.Qt.Qt.Qt.Qt.Qt.Qt.Qt.Qt.Qt.Qt.Qt.Qt.Qt.Qt.Qt.Qt.Qt.Qt.Qt.Qt.Qt.Qt.Qt.Qt.Qt.Qt.Qt.Qt.Qt.Qt.Qt.Qt.Qt.Qt.Qt.Qt.Qt.Qt.Qt.Qt.Qt.Qt.Qt.Qt.Qt.Qt.Qt.Qt.Qt.Qt.Qt.Qt.Qt.Qt.Qt.Qt.Qt.Qt.Qt.Qt..c0.c1.c2.c3.c4.c5.c6Qt.Qt.Qt.Qt.Qt.Qt.Qt.Qt.Qt.Qt.Qt.Qt.Qt.Qt.Qt.Qt.Qt.Qt.Qt.Qt.Qt.Qt.Qt.Qt.Qt.Qt.Qt.Qt.Qt.Qt.Qt.Qt.Qt.Qt.Qt.Qt.Qt.Qt.Qt.Qt.Qt.Qt.Qt.Qt.Qt.Qt.Qt.Qt.Qt.Qt.Qt.Qt.Qt.Qt.Qt.Qt.Qt.Qt.Qt.Qt.Qt.Qt.Qt.Qt.Qt.Qt.Qt..c7.c8.c9.d..d#.da.da.da.cD.db.dc.ddQt.Qt..de.df.dg.dh.di.dj.dk.dl.dm.dn.do.dpQt.Qt.Qt.Qt.Qt.Qt.Qt.Qt.Qt.Qt.Qt.Qt.Qt.Qt.Qt.Qt..dq.dr.bQ.aa.an.aA.ds.ao.#m.#K.aM.dtQt.Qt.Qt.Qt.Qt.Qt.Qt.Qt.Qt.Qt.Qt.Qt.Qt.Qt.Qt.Qt.Qt.",
"Qt.Qt.Qt.Qt.Qt.Qt.Qt.Qt.Qt.Qt.Qt.Qt.Qt.Qt.Qt.Qt.Qt.Qt.Qt.Qt.Qt.Qt.Qt.Qt.Qt.Qt.Qt.Qt.Qt.Qt.Qt.Qt.Qt.Qt.Qt.Qt.Qt.Qt.Qt.Qt.Qt.Qt.Qt.Qt.Qt.Qt.Qt.Qt.Qt.Qt.Qt.Qt.Qt.Qt.Qt.Qt.Qt.Qt.Qt.Qt.Qt.Qt.Qt.Qt.Qt.Qt.Qt.Qt.Qt.Qt.Qt.Qt.Qt.Qt.Qt.Qt.Qt.Qt.Qt.Qt.Qt.Qt.Qt.Qt.Qt.Qt.Qt.Qt.Qt.Qt.Qt.Qt.Qt.Qt.Qt.Qt.Qt.Qt.Qt.Qt.Qt.Qt.Qt.Qt.Qt.Qt.Qt.Qt.Qt.Qt.Qt.Qt.Qt.Qt.Qt.Qt.Qt.Qt.Qt.Qt.Qt.Qt.Qt.Qt.Qt.Qt.Qt.Qt.Qt.Qt.Qt.Qt.Qt.Qt.Qt.Qt.Qt.Qt.Qt.Qt.Qt.Qt.Qt.Qt.Qt.Qt.Qt.Qt.Qt.Qt.Qt.Qt.Qt.Qt.Qt..du.dv.dw.dx.dy.dz.dAQt.Qt.Qt.Qt.Qt.Qt.Qt.Qt.Qt.Qt.Qt.Qt.Qt.Qt.Qt.Qt.Qt.Qt.Qt.Qt.Qt.Qt.Qt.Qt.Qt.Qt.Qt.Qt.Qt.Qt.Qt.Qt.Qt.Qt.Qt.Qt.Qt.Qt.Qt.Qt.Qt.Qt.Qt.Qt.Qt.Qt.Qt.Qt.Qt.Qt.Qt.Qt.Qt.Qt.Qt.Qt.Qt.Qt.Qt.Qt.Qt.Qt.Qt.Qt.Qt.Qt.Qt..dB.dC.dD.dE.dF.dG.dH.dI.dJ.dK.dL.dMQt.Qt..dN.dO.dP.dQ.dR.dS.dT.dU.dU.dV.dW.dXQt.Qt.Qt.Qt.Qt.Qt.Qt.Qt.Qt.Qt.Qt.Qt.Qt.Qt.Qt.Qt..dY.dZ.#k.#XQt9.#y.#KQtD.#yQt9QtT.d0.d1Qt.Qt.Qt.Qt.Qt.Qt.Qt.Qt.Qt.Qt.Qt.Qt.Qt.Qt.Qt.Qt.",
"Qt.Qt.Qt.Qt.Qt.Qt.Qt.Qt.Qt.Qt.Qt.Qt.Qt.Qt.Qt.Qt.Qt.Qt.Qt.Qt.Qt.Qt.Qt.Qt.Qt.Qt.Qt.Qt.Qt.Qt.Qt.Qt.Qt.Qt.Qt.Qt.Qt.Qt.Qt.Qt.Qt.Qt.Qt.Qt.Qt.Qt.Qt.Qt.Qt.Qt.Qt.Qt.Qt.Qt.Qt.Qt.Qt.Qt.Qt.Qt.Qt.Qt.Qt.Qt.Qt.Qt.Qt.Qt.Qt.Qt.Qt.Qt.Qt.Qt.Qt.Qt.Qt.Qt.Qt.Qt.Qt.Qt.Qt.Qt.Qt.Qt.Qt.Qt.Qt.Qt.Qt.Qt.Qt.Qt.Qt.Qt.Qt.Qt.Qt.Qt.Qt.Qt.Qt.Qt.Qt.Qt.Qt.Qt.Qt.Qt.Qt.Qt.Qt.Qt.Qt.Qt.Qt.Qt.Qt.Qt.Qt.Qt.Qt.Qt.Qt.Qt.Qt.Qt.Qt.Qt.Qt.Qt.Qt.Qt.Qt.Qt.Qt.Qt.Qt.Qt.Qt.Qt.Qt.Qt.Qt.Qt.Qt.Qt.Qt.Qt.Qt.Qt.Qt.Qt.Qt.Qt..d2.d3.d4.bU.d5.d6.d7Qt.Qt.Qt.Qt.Qt.Qt.Qt.Qt.Qt.Qt.Qt.Qt.Qt.Qt.Qt.Qt.Qt.Qt.Qt.Qt.Qt.Qt.Qt.Qt.Qt.Qt.Qt.Qt.Qt.Qt.Qt.Qt.Qt.Qt.Qt.Qt.Qt.Qt.Qt.Qt.Qt.Qt.Qt.Qt.Qt.Qt.Qt.Qt.Qt.Qt.Qt.Qt.Qt.Qt.Qt.Qt.Qt.Qt.Qt.Qt.Qt.Qt.Qt.Qt.Qt.Qt..d8.d9.e..e#.ea.eb.ec.ed.ee.ef.eg.ehQt.Qt..ei.ej.ek.el.em.en.eo.ep.dV.eq.er.esQt.Qt.Qt.Qt.Qt.Qt.Qt.Qt.Qt.Qt.Qt.Qt.Qt.Qt.Qt.Qt.Qt..et.eu.ev.#K.#L.#JQt9.a..aY.aaQtT.ewQt.Qt.Qt.Qt.Qt.Qt.Qt.Qt.Qt.Qt.Qt.Qt.Qt.Qt.Qt.Qt.",
"Qt.Qt.Qt.Qt.Qt.Qt.Qt.Qt.Qt.Qt.Qt.Qt.Qt.Qt.Qt.Qt.Qt.Qt.Qt.Qt.Qt.Qt.Qt.Qt.Qt.Qt.Qt.Qt.Qt.Qt.Qt.Qt.Qt.Qt.Qt.Qt.Qt.Qt.Qt.Qt.Qt.Qt.Qt.Qt.Qt.Qt.Qt.Qt.Qt.Qt.Qt.Qt.Qt.Qt.Qt.Qt.Qt.Qt.Qt.Qt.Qt.Qt.Qt.Qt.Qt.Qt.Qt.Qt.Qt.Qt.Qt.Qt.Qt.Qt.Qt.Qt.Qt.Qt.Qt.Qt.Qt.Qt.Qt.Qt.Qt.Qt.Qt.Qt.Qt.Qt.Qt.Qt.Qt.Qt.Qt.Qt.Qt.Qt.Qt.Qt.Qt.Qt.Qt.Qt.Qt.Qt.Qt.Qt.Qt.Qt.Qt.Qt.Qt.Qt.Qt.Qt.Qt.Qt.Qt.Qt.Qt.Qt.Qt.Qt.Qt.Qt.Qt.Qt.Qt.Qt.Qt.Qt.Qt.Qt.Qt.Qt.Qt.Qt.Qt.Qt.Qt.Qt.Qt.Qt.Qt.Qt.Qt.Qt.Qt.Qt.Qt.Qt.Qt.Qt.Qt.Qt..ex.ey.ez.eA.eB.eC.eDQt.Qt.Qt.Qt.Qt.Qt.Qt.Qt.Qt.Qt.Qt.Qt.Qt.Qt.Qt.Qt.Qt.Qt.Qt.Qt.Qt.Qt.Qt.Qt.Qt.Qt.Qt.Qt.Qt.Qt.Qt.Qt.Qt.Qt.Qt.Qt.Qt.Qt.Qt.Qt.Qt.Qt.Qt.Qt.Qt.Qt.Qt.Qt.Qt.Qt.Qt.Qt.Qt.Qt.Qt.Qt.Qt.Qt.Qt.Qt.Qt.Qt.Qt.Qt.Qt..eE.eF.eG.eH.eI.eJ.eK.cI.eL.eM.eN.eO.ePQt.Qt..eQ.eR.eS.eT.eU.eV.eW.eX.eY.dU.eZ.e0.e1Qt.Qt.Qt.Qt.Qt.Qt.Qt.Qt.Qt.Qt.Qt.Qt.Qt.Qt.Qt.Qt..e2.e3.e4Qt9.a..a#.aa.an.a.Qt9QtD.e5Qt.Qt.Qt.Qt.Qt.Qt.Qt.Qt.Qt.Qt.Qt.Qt.Qt.Qt.Qt.Qt.",
"Qt.Qt.Qt.Qt.Qt.Qt.Qt.Qt.Qt.Qt.Qt.Qt.Qt.Qt.Qt.Qt.Qt.Qt.Qt.Qt.Qt.Qt.Qt.Qt.Qt.Qt.Qt.Qt.Qt.Qt.Qt.Qt.Qt.Qt.Qt.Qt.Qt.Qt.Qt.Qt.Qt.Qt.Qt.Qt.Qt.Qt.Qt.Qt.Qt.Qt.Qt.Qt.Qt.Qt.Qt.Qt.Qt.Qt.Qt.Qt.Qt.Qt.Qt.Qt.Qt.Qt.Qt.Qt.Qt.Qt.Qt.Qt.Qt.Qt.Qt.Qt.Qt.Qt.Qt.Qt.Qt.Qt.Qt.Qt.Qt.Qt.Qt.Qt.Qt.Qt.Qt.Qt.Qt.Qt.Qt.Qt.Qt.Qt.Qt.Qt.Qt.Qt.Qt.Qt.Qt.Qt.Qt.Qt.Qt.Qt.Qt.Qt.Qt.Qt.Qt.Qt.Qt.Qt.Qt.Qt.Qt.Qt.Qt.Qt.Qt.Qt.Qt.Qt.Qt.Qt.Qt.Qt.Qt.Qt.Qt.Qt.Qt.Qt.Qt.Qt.Qt.Qt.Qt.Qt.Qt.Qt.Qt.Qt.Qt.Qt.Qt.Qt.Qt.Qt.Qt.Qt.Qt..e6.e7.e8.e9.f..f#.faQt.Qt.Qt.Qt.Qt.Qt.Qt.Qt.Qt.Qt.Qt.Qt.Qt.Qt.Qt.Qt.Qt.Qt.Qt.Qt.Qt.Qt.Qt.Qt.Qt.Qt.Qt.Qt.Qt.Qt.Qt.Qt.Qt.Qt.Qt.Qt.Qt.Qt.Qt.Qt.Qt.Qt.Qt.Qt.Qt.Qt.Qt.Qt.Qt.Qt.Qt.Qt.Qt.Qt.Qt.Qt.Qt.Qt.Qt.Qt.Qt.Qt.Qt.Qt..fb.fc.fd.fe.ff.fg.fh.fi.fj.fk.fl.fm.fnQt.Qt..fo.fp.fq.fr.fs.ft.fu.fv.fw.fx.fy.fz.fAQt.Qt.Qt.Qt.Qt.Qt.Qt.Qt.Qt.Qt.Qt.Qt.Qt.Qt.Qt.Qt.Qt..fB.fC.aY.an.a#.a.Qt9Qt9.#lQtD.a..fDQt.Qt.Qt.Qt.Qt.Qt.Qt.Qt.Qt.Qt.Qt.Qt.Qt.Qt.Qt.",
"Qt.Qt.Qt.Qt.Qt.Qt.Qt.Qt.Qt.Qt.Qt.Qt.Qt.Qt.Qt.Qt.Qt.Qt.Qt.Qt.Qt.Qt.Qt.Qt.Qt.Qt.Qt.Qt.Qt.Qt.Qt.Qt.Qt.Qt.Qt.Qt.Qt.Qt.Qt.Qt.Qt.Qt.Qt.Qt.Qt.Qt.Qt.Qt.Qt.Qt.Qt.Qt.Qt.Qt.Qt.Qt.Qt.Qt.Qt.Qt.Qt.Qt.Qt.Qt.Qt.Qt.Qt.Qt.Qt.Qt.Qt.Qt.Qt.Qt.Qt.Qt.Qt.Qt.Qt.Qt.Qt.Qt.Qt.Qt.Qt.Qt.Qt.Qt.Qt.Qt.Qt.Qt.Qt.Qt.Qt.Qt.Qt.Qt.Qt.Qt.Qt.Qt.Qt.Qt.Qt.Qt.Qt.Qt.Qt.Qt.Qt.Qt.Qt.Qt.Qt.Qt.Qt.Qt.Qt.Qt.Qt.Qt.Qt.Qt.Qt.Qt.Qt.Qt.Qt.Qt.Qt.Qt.Qt.Qt.Qt.Qt.Qt.Qt.Qt.Qt.Qt.Qt.Qt.Qt.Qt.Qt.Qt.Qt.Qt.Qt.Qt.Qt.Qt.Qt.Qt.Qt.Qt..fE.fF.fG.fH.fI.fJ.fKQt.Qt.Qt.Qt.Qt.Qt.Qt.Qt.Qt.Qt.Qt.Qt.Qt.Qt.Qt.Qt.Qt.Qt.Qt.Qt.Qt.Qt.Qt.Qt.Qt.Qt.Qt.Qt.Qt.Qt.Qt.Qt.Qt.Qt.Qt.Qt.Qt.Qt.Qt.Qt.Qt.Qt.Qt.Qt.Qt.Qt.Qt.Qt.Qt.Qt.Qt.Qt.Qt.Qt.Qt.Qt.Qt.Qt.Qt.Qt.Qt.Qt.Qt..fL.fM.fN.fO.fP.fQ.fR.fS.fT.fU.fV.fW.fX.fYQt.Qt..fZ.f0.f1.f2.f3.f4.f5.f6.f7.f7.f8.f9.g.Qt.Qt.Qt.Qt.Qt.Qt.Qt.Qt.Qt.Qt.Qt.Qt.Qt.Qt.Qt.Qt.Qt..g#.ga.gbQt9Qt9Qt9.aoQtD.gc.gd.ge.gfQt.Qt.Qt.Qt.Qt.Qt.Qt.Qt.Qt.Qt.Qt.Qt.Qt.Qt.Qt.",
"Qt.Qt.Qt.Qt.Qt.Qt.Qt.Qt.Qt.Qt.Qt.Qt.Qt.Qt.Qt.Qt.Qt.Qt.Qt.Qt.Qt.Qt.Qt.Qt.Qt.Qt.Qt.Qt.Qt.Qt.Qt.Qt.Qt.Qt.Qt.Qt.Qt.Qt.Qt.Qt.Qt.Qt.Qt.Qt.Qt.Qt.Qt.Qt.Qt.Qt.Qt.Qt.Qt.Qt.Qt.Qt.Qt.Qt.Qt.Qt.Qt.Qt.Qt.Qt.Qt.Qt.Qt.Qt.Qt.Qt.Qt.Qt.Qt.Qt.Qt.Qt.Qt.Qt.Qt.Qt.Qt.Qt.Qt.Qt.Qt.Qt.Qt.Qt.Qt.Qt.Qt.Qt.Qt.Qt.Qt.Qt.Qt.Qt.Qt.Qt.Qt.Qt.Qt.Qt.Qt.Qt.Qt.Qt.Qt.Qt.Qt.Qt.Qt.Qt.Qt.Qt.Qt.Qt.Qt.Qt.Qt.Qt.Qt.Qt.Qt.Qt.Qt.Qt.Qt.Qt.Qt.Qt.Qt.Qt.Qt.Qt.Qt.Qt.Qt.Qt.Qt.Qt.Qt.Qt.Qt.Qt.Qt.Qt.Qt.Qt.Qt.Qt.Qt.Qt.Qt.Qt.Qt..gg.gh.gi.gj.gk.gl.gm.#UQt.Qt.Qt.Qt.Qt.Qt.Qt.Qt.Qt.Qt.Qt.Qt.Qt.Qt.Qt.Qt.Qt.Qt.Qt.Qt.Qt.Qt.Qt.Qt.Qt.Qt.Qt.Qt.Qt.Qt.Qt.Qt.Qt.Qt.Qt.Qt.Qt.Qt.Qt.Qt.Qt.Qt.Qt.Qt.Qt.Qt.Qt.Qt.Qt.Qt.Qt.Qt.Qt.Qt.Qt.Qt.Qt.Qt.Qt.Qt.Qt.Qt..gn.go.gp.gq.gr.gs.gt.gu.gv.gw.gx.gy.gz.gAQt.Qt..gB.gC.gD.gE.gF.gG.gH.gI.cP.gJ.gK.gL.gM.gNQt.Qt.Qt.Qt.Qt.Qt.Qt.Qt.Qt.Qt.Qt.Qt.Qt.Qt.Qt.Qt..gO.gP.gQQt9.#L.gR.gS.gS.gRQtT.ao.gT.gUQt.Qt.Qt.Qt.Qt.Qt.Qt.Qt.Qt.Qt.Qt.Qt.Qt.Qt.",
"Qt.Qt.Qt.Qt.Qt.Qt.Qt.Qt.Qt.Qt.Qt.Qt.Qt.Qt.Qt.Qt.Qt.Qt.Qt.Qt.Qt.Qt.Qt.Qt.Qt.Qt.Qt.Qt.Qt.Qt.Qt.Qt.Qt.Qt.Qt.Qt.Qt.Qt.Qt.Qt.Qt.Qt.Qt.Qt.Qt.Qt.Qt.Qt.Qt.Qt.Qt.Qt.Qt.Qt.Qt.Qt.Qt.Qt.Qt.Qt.Qt.Qt.Qt.Qt.Qt.Qt.Qt.Qt.Qt.Qt.Qt.Qt.Qt.Qt.Qt.Qt.Qt.Qt.Qt.Qt.Qt.Qt.Qt.Qt.Qt.Qt.Qt.Qt.Qt.Qt.Qt.Qt.Qt.Qt.Qt.Qt.Qt.Qt.Qt.Qt.Qt.Qt.Qt.Qt.Qt.Qt.Qt.Qt.Qt.Qt.Qt.Qt.Qt.Qt.Qt.Qt.Qt.Qt.Qt.Qt.Qt.Qt.Qt.Qt.Qt.Qt.Qt.Qt.Qt.Qt.Qt.Qt.Qt.Qt.Qt.Qt.Qt.Qt.Qt.Qt.Qt.Qt.Qt.Qt.Qt.Qt.Qt.Qt.Qt.Qt.Qt.Qt.Qt.Qt.Qt.Qt.Qt.Qt..gV.gW.gX.gY.gZ.g0.g1Qt.Qt.Qt.Qt.Qt.Qt.Qt.Qt.Qt.Qt.Qt.Qt.Qt.Qt.Qt.Qt.Qt.Qt.Qt.Qt.Qt.Qt.Qt.Qt.Qt.Qt.Qt.Qt.Qt.Qt.Qt.Qt.Qt.Qt.Qt.Qt.Qt.Qt.Qt.Qt.Qt.Qt.Qt.Qt.Qt.Qt.Qt.Qt.Qt.Qt.Qt.Qt.Qt.Qt.Qt.Qt.Qt.Qt.Qt.Qt.Qt.Qt..g2.g3.g4.g5.g6.g7.g8.g9.h..h#.ha.hb.gz.gAQt.Qt..hc.hd.he.hf.hg.hh.hi.hj.hj.hk.hk.cO.hl.hmQt.Qt.Qt.Qt.Qt.Qt.Qt.Qt.Qt.Qt.Qt.Qt.Qt.Qt.Qt.Qt.Qt..hn.ho.ab.gd.hpQtDQt9.#X.a..#l.#..hqQt.Qt.Qt.Qt.Qt.Qt.Qt.Qt.Qt.Qt.Qt.Qt.Qt.Qt.",
"Qt.Qt.Qt.Qt.Qt.Qt.Qt.Qt.Qt.Qt.Qt.Qt.Qt.Qt.Qt.Qt.Qt.Qt.Qt.Qt.Qt.Qt.Qt.Qt.Qt.Qt.Qt.Qt.Qt.Qt.Qt.Qt.Qt.Qt.Qt.Qt.Qt.Qt.Qt.Qt.Qt.Qt.Qt.Qt.Qt.Qt.Qt.Qt.Qt.Qt.Qt.Qt.Qt.Qt.Qt.Qt.Qt.Qt.Qt.Qt.Qt.Qt.Qt.Qt.Qt.Qt.Qt.Qt.Qt.Qt.Qt.Qt.Qt.Qt.Qt.Qt.Qt.Qt.Qt.Qt.Qt.Qt.Qt.Qt.Qt.Qt.Qt.Qt.Qt.Qt.Qt.Qt.Qt.Qt.Qt.Qt.Qt.Qt.Qt.Qt.Qt.Qt.Qt.Qt.Qt.Qt.Qt.Qt.Qt.Qt.Qt.Qt.Qt.Qt.Qt.Qt.Qt.Qt.Qt.Qt.Qt.Qt.Qt.Qt.Qt.Qt.Qt.Qt.Qt.Qt.Qt.Qt.Qt.Qt.Qt.Qt.Qt.Qt.Qt.Qt.Qt.Qt.Qt.Qt.Qt.Qt.Qt.Qt.Qt.Qt.Qt.Qt.Qt.Qt.Qt.Qt.Qt.Qt..hr.hs.ht.hu.hv.hw.hxQt.Qt.Qt.Qt.Qt.Qt.Qt.Qt.Qt.Qt.Qt.Qt.Qt.Qt.Qt.Qt.Qt.Qt.Qt.Qt.Qt.Qt.Qt.Qt.Qt.Qt.Qt.Qt.Qt.Qt.Qt.Qt.Qt.Qt.Qt.Qt.Qt.Qt.Qt.Qt.Qt.Qt.Qt.Qt.Qt.Qt.Qt.Qt.Qt.Qt.Qt.Qt.Qt.Qt.Qt.Qt.Qt.Qt.Qt.Qt.Qt.Qt..hy.hz.hA.hB.hC.hD.hE.hE.hF.hG.fl.hH.gz.hIQt.Qt..hJ.hd.hK.hL.hM.hN.hO.hP.hQ.hR.hR.hS.hT.hUQt.Qt.Qt.Qt.Qt.Qt.Qt.Qt.Qt.Qt.Qt.Qt.Qt.Qt.Qt.Qt.Qt..hV.hW.hX.#y.#X.#XQt9.#lQtT.ao.#..hYQt.Qt.Qt.Qt.Qt.Qt.Qt.Qt.Qt.Qt.Qt.Qt.Qt.Qt.",
"Qt.Qt.Qt.Qt.Qt.Qt.Qt.Qt.Qt.Qt.Qt.Qt.Qt.Qt.Qt.Qt.Qt.Qt.Qt.Qt.Qt.Qt.Qt.Qt.Qt.Qt.Qt.Qt.Qt.Qt.Qt.Qt.Qt.Qt.Qt.Qt.Qt.Qt.Qt.Qt.Qt.Qt.Qt.Qt.Qt.Qt.Qt.Qt.Qt.Qt.Qt.Qt.Qt.Qt.Qt.Qt.Qt.Qt.Qt.Qt.Qt.Qt.Qt.Qt.Qt.Qt.Qt.Qt.Qt.Qt.Qt.Qt.Qt.Qt.Qt.Qt.Qt.Qt.Qt.Qt.Qt.Qt.Qt.Qt.Qt.Qt.Qt.Qt.Qt.Qt.Qt.Qt.Qt.Qt.Qt.Qt.Qt.Qt.Qt.Qt.Qt.Qt.Qt.Qt.Qt.Qt.Qt.Qt.Qt.Qt.Qt.Qt.Qt.Qt.Qt.Qt.Qt.Qt.Qt.Qt.Qt.Qt.Qt.Qt.Qt.Qt.Qt.Qt.Qt.Qt.Qt.Qt.Qt.Qt.Qt.Qt.Qt.Qt.Qt.Qt.Qt.Qt.Qt.Qt.Qt.Qt.Qt.Qt.Qt.Qt.Qt.Qt.Qt.Qt.Qt.Qt.Qt.Qt.Qt..hZ.h0.h1.h2.h3.h4.h5Qt.Qt.Qt.Qt.Qt.Qt.Qt.Qt.Qt.Qt.Qt.Qt.Qt.Qt.Qt.Qt.Qt.Qt.Qt.Qt.Qt.Qt.Qt.Qt.Qt.Qt.Qt.Qt.Qt.Qt.Qt.Qt.Qt.Qt.Qt.Qt.Qt.Qt.Qt.Qt.Qt.Qt.Qt.Qt.Qt.Qt.Qt.Qt.Qt.Qt.Qt.Qt.Qt.Qt.Qt.Qt.Qt.Qt.Qt.Qt.Qt..h6.h7.h8.h9.i..i#.ia.ia.ib.ic.id.ie.hI.hIQt.Qt..if.ig.ih.ii.ij.ik.il.im.im.in.io.ip.iq.irQt.Qt.Qt.Qt.Qt.Qt.Qt.Qt.Qt.Qt.Qt.Qt.Qt.Qt.Qt.Qt.Qt.Qt..is.it.co.#l.aoQtT.ao.#lQt9Qt9.aa.iuQt.Qt.Qt.Qt.Qt.Qt.Qt.Qt.Qt.Qt.Qt.Qt.Qt.",
"Qt.Qt.Qt.Qt.Qt.Qt.Qt.Qt.Qt.Qt.Qt.Qt.Qt.Qt.Qt.Qt.Qt.Qt.Qt.Qt.Qt.Qt.Qt.Qt.Qt.Qt.Qt.Qt.Qt.Qt.Qt.Qt.Qt.Qt.Qt.Qt.Qt.Qt.Qt.Qt.Qt.Qt.Qt.Qt.Qt.Qt.Qt.Qt.Qt.Qt.Qt.Qt.Qt.Qt.Qt.Qt.Qt.Qt.Qt.Qt.Qt.Qt.Qt.Qt.Qt.Qt.Qt.Qt.Qt.Qt.Qt.Qt.Qt.Qt.Qt.Qt.Qt.Qt.Qt.Qt.Qt.Qt.Qt.Qt.Qt.Qt.Qt.Qt.Qt.Qt.Qt.Qt.Qt.Qt.Qt.Qt.Qt.Qt.Qt.Qt.Qt.Qt.Qt.Qt.Qt.Qt.Qt.Qt.Qt.Qt.Qt.Qt.Qt.Qt.Qt.Qt.Qt.Qt.Qt.Qt.Qt.Qt.Qt.Qt.Qt.Qt.Qt.Qt.Qt.Qt.Qt.Qt.Qt.Qt.Qt.Qt.Qt.Qt.Qt.Qt.Qt.Qt.Qt.Qt.Qt.Qt.Qt.Qt.Qt.Qt.Qt.Qt.Qt.Qt.Qt.Qt.Qt.Qt.Qt..iv.iw.ix.iy.iz.iA.iBQt.Qt.Qt.Qt.Qt.Qt.Qt.Qt.Qt.Qt.Qt.Qt.Qt.Qt.Qt.Qt.Qt.Qt.Qt.Qt.Qt.Qt.Qt.Qt.Qt.Qt.Qt.Qt.Qt.Qt.Qt.Qt.Qt.Qt.Qt.Qt.Qt.Qt.Qt.Qt.Qt.Qt.Qt.Qt.Qt.Qt.Qt.Qt.Qt.Qt.Qt.Qt.Qt.Qt.Qt.Qt.Qt.Qt.Qt.Qt.Qt..iC.iD.iE.iD.iE.iF.iG.iH.iI.iJ.iK.iL.iM.iNQt.Qt..iO.iP.iQ.iR.iS.iT.iU.iV.iD.iW.iT.iX.iY.iZQt.Qt.Qt.Qt.Qt.Qt.Qt.Qt.Qt.Qt.Qt.Qt.Qt.Qt.Qt.Qt.Qt.Qt..i0.i1.b.QtT.#lQt9Qt9.a..a#.aaQtD.i2Qt.Qt.Qt.Qt.Qt.Qt.Qt.Qt.Qt.Qt.Qt.Qt.Qt.",
"Qt.Qt.Qt.Qt.Qt.Qt.Qt.Qt.Qt.Qt.Qt.Qt.Qt.Qt.Qt.Qt.Qt.Qt.Qt.Qt.Qt.Qt.Qt.Qt.Qt.Qt.Qt.Qt.Qt.Qt.Qt.Qt.Qt.Qt.Qt.Qt.Qt.Qt.Qt.Qt.Qt.Qt.Qt.Qt.Qt.Qt.Qt.Qt.Qt.Qt.Qt.Qt.Qt.Qt.Qt.Qt.Qt.Qt.Qt.Qt.Qt.Qt.Qt.Qt.Qt.Qt.Qt.Qt.Qt.Qt.Qt.Qt.Qt.Qt.Qt.Qt.Qt.Qt.Qt.Qt.Qt.Qt.Qt.Qt.Qt.Qt.Qt.Qt.Qt.Qt.Qt.Qt.Qt.Qt.Qt.Qt.Qt.Qt.Qt.Qt.Qt.Qt.Qt.Qt.Qt.Qt.Qt.Qt.Qt.Qt.Qt.Qt.Qt.Qt.Qt.Qt.Qt.Qt.Qt.Qt.Qt.Qt.Qt.Qt.Qt.Qt.Qt.Qt.Qt.Qt.Qt.Qt.Qt.Qt.Qt.Qt.Qt.Qt.Qt.Qt.Qt.Qt.Qt.Qt.Qt.Qt.Qt.Qt.Qt.Qt.Qt.Qt.Qt.Qt.Qt.Qt.Qt.Qt.Qt.Qt..i3.i4.i5.i6.i7.i8.i9Qt.Qt.Qt.Qt.Qt.Qt.Qt.Qt.Qt.Qt.Qt.Qt.Qt.Qt.Qt.Qt.Qt.Qt.Qt.Qt.Qt.Qt.Qt.Qt.Qt.Qt.Qt.Qt.Qt.Qt.Qt.Qt.Qt.Qt.Qt.Qt.Qt.Qt.Qt.Qt.Qt.Qt.Qt.Qt.Qt.Qt.Qt.Qt.Qt.Qt.Qt.Qt.Qt.Qt.Qt.Qt.Qt.Qt.Qt.Qt..j..j#.ja.jb.jc.jd.je.jd.jf.jg.jh.iL.ji.jjQt.Qt..jk.ig.jl.jm.iD.je.jn.jn.jo.jp.jq.jr.js.jtQt.Qt.Qt.Qt.Qt.Qt.Qt.Qt.Qt.Qt.Qt.Qt.Qt.Qt.Qt.Qt.Qt.Qt.Qt..ju.#.Qt9Qt9.a#.aa.aa.#X.a.QtS.jv.jwQt.Qt.Qt.Qt.Qt.Qt.Qt.Qt.Qt.Qt.Qt.Qt.",
"Qt.Qt.Qt.Qt.Qt.Qt.Qt.Qt.Qt.Qt.Qt.Qt.Qt.Qt.Qt.Qt.Qt.Qt.Qt.Qt.Qt.Qt.Qt.Qt.Qt.Qt.Qt.Qt.Qt.Qt.Qt.Qt.Qt.Qt.Qt.Qt.Qt.Qt.Qt.Qt.Qt.Qt.Qt.Qt.Qt.Qt.Qt.Qt.Qt.Qt.Qt.Qt.Qt.Qt.Qt.Qt.Qt.Qt.Qt.Qt.Qt.Qt.Qt.Qt.Qt.Qt.Qt.Qt.Qt.Qt.Qt.Qt.Qt.Qt.Qt.Qt.Qt.Qt.Qt.Qt.Qt.Qt.Qt.Qt.Qt.Qt.Qt.Qt.Qt.Qt.Qt.Qt.Qt.Qt.Qt.Qt.Qt.Qt.Qt.Qt.Qt.Qt.Qt.Qt.Qt.Qt.Qt.Qt.Qt.Qt.Qt.Qt.Qt.Qt.Qt.Qt.Qt.Qt.Qt.Qt.Qt.Qt.Qt.Qt.Qt.Qt.Qt.Qt.Qt.Qt.Qt.Qt.Qt.Qt.Qt.Qt.Qt.Qt.Qt.Qt.Qt.Qt.Qt.Qt.Qt.Qt.Qt.Qt.Qt.Qt.Qt.Qt.Qt.Qt.Qt.Qt.Qt.Qt.Qt.Qt..jx.jy.jz.jA.jB.jC.#FQt.Qt.Qt.Qt.Qt.Qt.Qt.Qt.Qt.Qt.Qt.Qt.Qt.Qt.Qt.Qt.Qt.Qt.Qt.Qt.Qt.Qt.Qt.Qt.Qt.Qt.Qt.Qt.Qt.Qt.Qt.Qt.Qt.Qt.Qt.Qt.Qt.Qt.Qt.Qt.Qt.Qt.Qt.Qt.Qt.Qt.Qt.Qt.Qt.Qt.Qt.Qt.Qt.Qt.Qt.Qt.Qt.Qt.Qt.Qt..jD.jE.jF.j#.jG.jH.jH.jI.jJ.jg.jK.iL.jL.jMQt.Qt..jN.iQ.jO.jP.jQ.jH.jH.jG.jR.jS.jo.jT.jU.jVQt.Qt.Qt.Qt.Qt.Qt.Qt.Qt.Qt.Qt.Qt.Qt.Qt.Qt.Qt.Qt.Qt.Qt.Qt..jW.jX.jY.aa.a#.a.Qt9.#J.#m.#..hp.jZQt.Qt.Qt.Qt.Qt.Qt.Qt.Qt.Qt.Qt.Qt.Qt.",
"Qt.Qt.Qt.Qt.Qt.Qt.Qt.Qt.Qt.Qt.Qt.Qt.Qt.Qt.Qt.Qt.Qt.Qt.Qt.Qt.Qt.Qt.Qt.Qt.Qt.Qt.Qt.Qt.Qt.Qt.Qt.Qt.Qt.Qt.Qt.Qt.Qt.Qt.Qt.Qt.Qt.Qt.Qt.Qt.Qt.Qt.Qt.Qt.Qt.Qt.Qt.Qt.Qt.Qt.Qt.Qt.Qt.Qt.Qt.Qt.Qt.Qt.Qt.Qt.Qt.Qt.Qt.Qt.Qt.Qt.Qt.Qt.Qt.Qt.Qt.Qt.Qt.Qt.Qt.Qt.Qt.Qt.Qt.Qt.Qt.Qt.Qt.Qt.Qt.Qt.Qt.Qt.Qt.Qt.Qt.Qt.Qt.Qt.Qt.Qt.Qt.Qt.Qt.Qt.Qt.Qt.Qt.Qt.Qt.Qt.Qt.Qt.Qt.Qt.Qt.Qt.Qt.Qt.Qt.Qt.Qt.Qt.Qt.Qt.Qt.Qt.Qt.Qt.Qt.Qt.Qt.Qt.Qt.Qt.Qt.Qt.Qt.Qt.Qt.Qt.Qt.Qt.Qt.Qt.Qt.Qt.Qt.Qt.Qt.Qt.Qt.Qt.Qt.Qt.Qt.Qt.Qt.Qt.Qt.Qt..j0.j1.j2.ht.j3.j4.j5Qt.Qt.Qt.Qt.Qt.Qt.Qt.Qt.Qt.Qt.Qt.Qt.Qt.Qt.Qt.Qt.Qt.Qt.Qt.Qt.Qt.Qt.Qt.Qt.Qt.Qt.Qt.Qt.Qt.Qt.Qt.Qt.Qt.Qt.Qt.Qt.Qt.Qt.Qt.Qt.Qt.Qt.Qt.Qt.Qt.Qt.Qt.Qt.Qt.Qt.Qt.Qt.Qt.Qt.Qt.Qt.Qt.Qt.Qt.Qt..j6.jn.j7.j8.j9.j#.j8.k..k#.ka.jK.iL.kb.kcQt.Qt..kd.ke.kf.kg.iT.jE.j7.kh.ki.jE.jR.jq.kj.kkQt.Qt.Qt.Qt.Qt.Qt.Qt.Qt.Qt.Qt.Qt.Qt.Qt.Qt.Qt.Qt.Qt.Qt.Qt..kl.km.kn.a.Qt9QtT.#KQtD.#yQt9.#m.koQt.Qt.Qt.Qt.Qt.Qt.Qt.Qt.Qt.Qt.Qt.Qt.",
"Qt.Qt.Qt.Qt.Qt.Qt.Qt.Qt.Qt.Qt.Qt.Qt.Qt.Qt.Qt.Qt.Qt.Qt.Qt.Qt.Qt.Qt.Qt.Qt.Qt.Qt.Qt.Qt.Qt.Qt.Qt.Qt.Qt.Qt.Qt.Qt.Qt.Qt.Qt.Qt.Qt.Qt.Qt.Qt.Qt.Qt.Qt.Qt.Qt.Qt.Qt.Qt.Qt.Qt.Qt.Qt.Qt.Qt.Qt.Qt.Qt.Qt.Qt.Qt.Qt.Qt.Qt.Qt.Qt.Qt.Qt.Qt.Qt.Qt.Qt.Qt.Qt.Qt.Qt.Qt.Qt.Qt.Qt.Qt.Qt.Qt.Qt.Qt.Qt.Qt.Qt.Qt.Qt.Qt.Qt.Qt.Qt.Qt.Qt.Qt.Qt.Qt.Qt.Qt.Qt.Qt.Qt.Qt.Qt.Qt.Qt.Qt.Qt.Qt.Qt.Qt.Qt.Qt.Qt.Qt.Qt.Qt.Qt.Qt.Qt.Qt.Qt.Qt.Qt.Qt.Qt.Qt.Qt.Qt.Qt.Qt.Qt.Qt.Qt.Qt.Qt.Qt.Qt.Qt.Qt.Qt.Qt.Qt.Qt.Qt.Qt.Qt.Qt.Qt.Qt.Qt.Qt.Qt.Qt.Qt.Qt..kp.kq.kr.ks.ks.ktQt2Qt.Qt.Qt.Qt.Qt.Qt.Qt.Qt.Qt.Qt.Qt.Qt.Qt.Qt.Qt.Qt.Qt.Qt.Qt.Qt.Qt.Qt.Qt.Qt.Qt.Qt.Qt.Qt.Qt.Qt.Qt.Qt.Qt.Qt.Qt.Qt.Qt.Qt.Qt.Qt.Qt.Qt.Qt.Qt.Qt.Qt.Qt.Qt.Qt.Qt.Qt.Qt.Qt.Qt.Qt.Qt.Qt.Qt.Qt..ku.jc.ja.jR.jR.j9.j7.jI.kv.ka.kw.kx.ky.kzQt.Qt..kA.kB.kC.kD.iV.jc.iW.j#.jo.jR.kE.kF.kG.kHQt.Qt.Qt.Qt.Qt.Qt.Qt.Qt.Qt.Qt.Qt.Qt.Qt.Qt.Qt.Qt.Qt.Qt.Qt.Qt..kI.kJ.ev.#K.#m.aoQt9.a#.an.#X.a#.kKQt.Qt.Qt.Qt.Qt.Qt.Qt.Qt.Qt.Qt.Qt.",
"Qt.Qt.Qt.Qt.Qt.Qt.Qt.Qt.Qt.Qt.Qt.Qt.Qt.Qt.Qt.Qt.Qt.Qt.Qt.Qt.Qt.Qt.Qt.Qt.Qt.Qt.Qt.Qt.Qt.Qt.Qt.Qt.Qt.Qt.Qt.Qt.Qt.Qt.Qt.Qt.Qt.Qt.Qt.Qt.Qt.Qt.Qt.Qt.Qt.Qt.Qt.Qt.Qt.Qt.Qt.Qt.Qt.Qt.Qt.Qt.Qt.Qt.Qt.Qt.Qt.Qt.Qt.Qt.Qt.Qt.Qt.Qt.Qt.Qt.Qt.Qt.Qt.Qt.Qt.Qt.Qt.Qt.Qt.Qt.Qt.Qt.Qt.Qt.Qt.Qt.Qt.Qt.Qt.Qt.Qt.Qt.Qt.Qt.Qt.Qt.Qt.Qt.Qt.Qt.Qt.Qt.Qt.Qt.Qt.Qt.Qt.Qt.Qt.Qt.Qt.Qt.Qt.Qt.Qt.Qt.Qt.Qt.Qt.Qt.Qt.Qt.Qt.Qt.Qt.Qt.Qt.Qt.Qt.Qt.Qt.Qt.Qt.Qt.Qt.Qt.Qt.Qt.Qt.Qt.Qt.Qt.Qt.Qt.Qt.Qt.Qt.Qt.Qt.Qt.Qt.Qt.Qt.Qt.Qt.Qt.Qt..kL.e8.kM.kN.kO.kP.kQQt.Qt.Qt.Qt.Qt.Qt.Qt.Qt.Qt.Qt.Qt.Qt.Qt.Qt.Qt.Qt.Qt.Qt.Qt.Qt.Qt.Qt.Qt.Qt.Qt.Qt.Qt.Qt.Qt.Qt.Qt.Qt.Qt.Qt.Qt.Qt.Qt.Qt.Qt.Qt.Qt.Qt.Qt.Qt.Qt.Qt.Qt.Qt.Qt.Qt.Qt.Qt.Qt.Qt.Qt.Qt.Qt.Qt.Qt..kR.kS.kT.kU.j7.iW.kU.jR.kV.kW.kX.kY.kZ.k0Qt.Qt..k1.k2.k3.k4.k5.k6.jo.j8.k7.kh.k7.k8.k9.l.Qt.Qt.Qt.Qt.Qt.Qt.Qt.Qt.Qt.Qt.Qt.Qt.Qt.Qt.Qt.Qt.Qt.Qt.Qt.Qt..l#.la.amQt9.#X.a#.aa.a#.#l.ao.gc.lbQt.Qt.Qt.Qt.Qt.Qt.Qt.Qt.Qt.Qt.Qt.",
"Qt.Qt.Qt.Qt.Qt.Qt.Qt.Qt.Qt.Qt.Qt.Qt.Qt.Qt.Qt.Qt.Qt.Qt.Qt.Qt.Qt.Qt.Qt.Qt.Qt.Qt.Qt.Qt.Qt.Qt.Qt.Qt.Qt.Qt.Qt.Qt.Qt.Qt.Qt.Qt.Qt.Qt.Qt.Qt.Qt.Qt.Qt.Qt.Qt.Qt.Qt.Qt.Qt.Qt.Qt.Qt.Qt.Qt.Qt.Qt.Qt.Qt.Qt.Qt.Qt.Qt.Qt.Qt.Qt.Qt.Qt.Qt.Qt.Qt.Qt.Qt.Qt.Qt.Qt.Qt.Qt.Qt.Qt.Qt.Qt.Qt.Qt.Qt.Qt.Qt.Qt.Qt.Qt.Qt.Qt.Qt.Qt.Qt.Qt.Qt.Qt.Qt.Qt.Qt.Qt.Qt.Qt.Qt.Qt.Qt.Qt.Qt.Qt.Qt.Qt.Qt.Qt.Qt.Qt.Qt.Qt.Qt.Qt.Qt.Qt.Qt.Qt.Qt.Qt.Qt.Qt.Qt.Qt.Qt.Qt.Qt.Qt.Qt.Qt.Qt.Qt.Qt.Qt.Qt.Qt.Qt.Qt.Qt.Qt.Qt.Qt.Qt.Qt.Qt.Qt.Qt.Qt.Qt.Qt.Qt.Qt.Qt..lc.ld.le.lf.lg.lh.liQt.Qt.Qt.Qt.Qt.Qt.Qt.Qt.Qt.Qt.Qt.Qt.Qt.Qt.Qt.Qt.Qt.Qt.Qt.Qt.Qt.Qt.Qt.Qt.Qt.Qt.Qt.Qt.Qt.Qt.Qt.Qt.Qt.Qt.Qt.Qt.Qt.Qt.Qt.Qt.Qt.Qt.Qt.Qt.Qt.Qt.Qt.Qt.Qt.Qt.Qt.Qt.Qt.Qt.Qt.Qt.Qt.Qt..lj.lk.ll.lm.ln.j8.jF.lo.lp.lq.lr.ls.ltQt.Qt.Qt..lu.lv.lw.lx.ly.lz.lA.ja.lB.ja.lC.lD.lE.lFQt.Qt.Qt.Qt.Qt.Qt.Qt.Qt.Qt.Qt.Qt.Qt.Qt.Qt.Qt.Qt.Qt.Qt.Qt.Qt.Qt..lGQtD.aa.aaQt9.ao.ao.#l.a..#l.lH.lIQt.Qt.Qt.Qt.Qt.Qt.Qt.Qt.Qt.Qt.",
"Qt.Qt.Qt.Qt.Qt.Qt.Qt.Qt.Qt.Qt.Qt.Qt.Qt.Qt.Qt.Qt.Qt.Qt.Qt.Qt.Qt.Qt.Qt.Qt.Qt.Qt.Qt.Qt.Qt.Qt.Qt.Qt.Qt.Qt.Qt.Qt.Qt.Qt.Qt.Qt.Qt.Qt.Qt.Qt.Qt.Qt.Qt.Qt.Qt.Qt.Qt.Qt.Qt.Qt.Qt.Qt.Qt.Qt.Qt.Qt.Qt.Qt.Qt.Qt.Qt.Qt.Qt.Qt.Qt.Qt.Qt.Qt.Qt.Qt.Qt.Qt.Qt.Qt.Qt.Qt.Qt.Qt.Qt.Qt.Qt.Qt.Qt.Qt.Qt.Qt.Qt.Qt.Qt.Qt.Qt.Qt.Qt.Qt.Qt.Qt.Qt.Qt.Qt.Qt.Qt.Qt.Qt.Qt.Qt.Qt.Qt.Qt.Qt.Qt.Qt.Qt.Qt.Qt.Qt.Qt.Qt.Qt.Qt.Qt.Qt.Qt.Qt.Qt.Qt.Qt.Qt.Qt.Qt.Qt.Qt.Qt.Qt.Qt.Qt.Qt.Qt.Qt.Qt.Qt.Qt.Qt.Qt.Qt.Qt.Qt.Qt.Qt.Qt.Qt.Qt.Qt.Qt.Qt.Qt.Qt.Qt.Qt..lJ.ix.lK.lL.lM.lN.lOQt.Qt.Qt.Qt.Qt.Qt.Qt.Qt.Qt.Qt.Qt.Qt.Qt.Qt.Qt.Qt.Qt.Qt.Qt.Qt.Qt.Qt.Qt.Qt.Qt.Qt.Qt.Qt.Qt.Qt.Qt.Qt.Qt.Qt.Qt.Qt.Qt.Qt.Qt.Qt.Qt.Qt.Qt.Qt.Qt.Qt.Qt.Qt.Qt.Qt.Qt.Qt.Qt.Qt.Qt.Qt.Qt.Qt..lP.lQ.lR.lS.ki.lB.lT.lU.lV.lW.lX.lY.lZQt.Qt.Qt.Qt..l0.l1.l2.l3.l4.l5.l6.jQ.l7.l8.l9.m..m#Qt.Qt.Qt.Qt.Qt.Qt.Qt.Qt.Qt.Qt.Qt.Qt.Qt.Qt.Qt.Qt.Qt.Qt.Qt.Qt.Qt..ma.mb.mc.ao.aoQt9.a#.a#.a.QtT.aM.mdQt.Qt.Qt.Qt.Qt.Qt.Qt.Qt.Qt.Qt.",
"Qt.Qt.Qt.Qt.Qt.Qt.Qt.Qt.Qt.Qt.Qt.Qt.Qt.Qt.Qt.Qt.Qt.Qt.Qt.Qt.Qt.Qt.Qt.Qt.Qt.Qt.Qt.Qt.Qt.Qt.Qt.Qt.Qt.Qt.Qt.Qt.Qt.Qt.Qt.Qt.Qt.Qt.Qt.Qt.Qt.Qt.Qt.Qt.Qt.Qt.Qt.Qt.Qt.Qt.Qt.Qt.Qt.Qt.Qt.Qt.Qt.Qt.Qt.Qt.Qt.Qt.Qt.Qt.Qt.Qt.Qt.Qt.Qt.Qt.Qt.Qt.Qt.Qt.Qt.Qt.Qt.Qt.Qt.Qt.Qt.Qt.Qt.Qt.Qt.Qt.Qt.Qt.Qt.Qt.Qt.Qt.Qt.Qt.Qt.Qt.Qt.Qt.Qt.Qt.Qt.Qt.Qt.Qt.Qt.Qt.Qt.Qt.Qt.Qt.Qt.Qt.Qt.Qt.Qt.Qt.Qt.Qt.Qt.Qt.Qt.Qt.Qt.Qt.Qt.Qt.Qt.Qt.Qt.Qt.Qt.Qt.Qt.Qt.Qt.Qt.Qt.Qt.Qt.Qt.Qt.Qt.Qt.Qt.Qt.Qt.Qt.Qt.Qt.Qt.Qt.Qt.Qt.Qt.Qt.Qt.Qt.Qt..me.mf.mg.mh.mi.mj.mkQtMQt.Qt.Qt.Qt.Qt.Qt.Qt.Qt.Qt.Qt.Qt.Qt.Qt.Qt.Qt.Qt.Qt.Qt.Qt.Qt.Qt.Qt.Qt.Qt.Qt.Qt.Qt.Qt.Qt.Qt.Qt.Qt.Qt.Qt.Qt.Qt.Qt.Qt.Qt.Qt.Qt.Qt.Qt.Qt.Qt.Qt.Qt.Qt.Qt.Qt.Qt.Qt.Qt.Qt.Qt.Qt.Qt..ml.mm.mn.mo.mp.mq.mr.ms.mt.mu.mv.mw.mxQt.Qt.Qt.Qt..my.mz.mA.mB.mC.mD.j8.mE.mr.mF.mG.mH.mIQt.Qt.Qt.Qt.Qt.Qt.Qt.Qt.Qt.Qt.Qt.Qt.Qt.Qt.Qt.Qt.Qt.Qt.Qt.Qt.Qt..mJ.mK.am.a..a#.a#.#l.#LQtDQtSQtD.mLQt.Qt.Qt.Qt.Qt.Qt.Qt.Qt.Qt.Qt.",
"Qt.Qt.Qt.Qt.Qt.Qt.Qt.Qt.Qt.Qt.Qt.Qt.Qt.Qt.Qt.Qt.Qt.Qt.Qt.Qt.Qt.Qt.Qt.Qt.Qt.Qt.Qt.Qt.Qt.Qt.Qt.Qt.Qt.Qt.Qt.Qt.Qt.Qt.Qt.Qt.Qt.Qt.Qt.Qt.Qt.Qt.Qt.Qt.Qt.Qt.Qt.Qt.Qt.Qt.Qt.Qt.Qt.Qt.Qt.Qt.Qt.Qt.Qt.Qt.Qt.Qt.Qt.Qt.Qt.Qt.Qt.Qt.Qt.Qt.Qt.Qt.Qt.Qt.Qt.Qt.Qt.Qt.Qt.Qt.Qt.Qt.Qt.Qt.Qt.Qt.Qt.Qt.Qt.Qt.Qt.Qt.Qt.Qt.Qt.Qt.Qt.Qt.Qt.Qt.Qt.Qt.Qt.Qt.Qt.Qt.Qt.Qt.Qt.Qt.Qt.Qt.Qt.Qt.Qt.Qt.Qt.Qt.Qt.Qt.Qt.Qt.Qt.Qt.Qt.Qt.Qt.Qt.Qt.Qt.Qt.Qt.Qt.Qt.Qt.Qt.Qt.Qt.Qt.Qt.Qt.Qt.Qt.Qt.Qt.Qt.Qt.Qt.Qt.Qt.Qt.Qt.Qt.Qt.Qt.Qt.Qt.Qt.Qt..mM.mN.mO.mP.mQ.mR.mSQt.Qt.Qt.Qt.Qt.Qt.Qt.Qt.Qt.Qt.Qt.Qt.Qt.Qt.Qt.Qt.Qt.Qt.Qt.Qt.Qt.Qt.Qt.Qt.Qt.Qt.Qt.Qt.Qt.Qt.Qt.Qt.Qt.Qt.Qt.Qt.Qt.Qt.Qt.Qt.Qt.Qt.Qt.Qt.Qt.Qt.Qt.Qt.Qt.Qt.Qt.Qt.Qt.Qt.Qt.Qt.Qt..mT.mU.mV.mW.mX.mY.mZ.m0.m1.m2.m3.m4.m5Qt.Qt.Qt.Qt..m6.m7.j#.m8.mU.m9.n..n#.na.nb.nc.nd.neQt.Qt.Qt.Qt.Qt.Qt.Qt.Qt.Qt.Qt.Qt.Qt.Qt.Qt.Qt.Qt.Qt.Qt.Qt.Qt.Qt.Qt..nf.ng.co.ao.#m.#m.ao.a..aYQt9.a..nhQt.Qt.Qt.Qt.Qt.Qt.Qt.Qt.Qt.",
"Qt.Qt.Qt.Qt.Qt.Qt.Qt.Qt.Qt.Qt.Qt.Qt.Qt.Qt.Qt.Qt.Qt.Qt.Qt.Qt.Qt.Qt.Qt.Qt.Qt.Qt.Qt.Qt.Qt.Qt.Qt.Qt.Qt.Qt.Qt.Qt.Qt.Qt.Qt.Qt.Qt.Qt.Qt.Qt.Qt.Qt.Qt.Qt.Qt.Qt.Qt.Qt.Qt.Qt.Qt.Qt.Qt.Qt.Qt.Qt.Qt.Qt.Qt.Qt.Qt.Qt.Qt.Qt.Qt.Qt.Qt.Qt.Qt.Qt.Qt.Qt.Qt.Qt.Qt.Qt.Qt.Qt.Qt.Qt.Qt.Qt.Qt.Qt.Qt.Qt.Qt.Qt.Qt.Qt.Qt.Qt.Qt.Qt.Qt.Qt.Qt.Qt.Qt.Qt.Qt.Qt.Qt.Qt.Qt.Qt.Qt.Qt.Qt.Qt.Qt.Qt.Qt.Qt.Qt.Qt.Qt.Qt.Qt.Qt.Qt.Qt.Qt.Qt.Qt.Qt.Qt.Qt.Qt.Qt.Qt.Qt.Qt.Qt.Qt.Qt.Qt.Qt.Qt.Qt.Qt.Qt.Qt.Qt.Qt.Qt.Qt.Qt.Qt.Qt.Qt.Qt.Qt.Qt.Qt.Qt.Qt.Qt.Qt..ni.nj.nk.nl.nm.nn.noQt.Qt.Qt.Qt.Qt.Qt.Qt.Qt.Qt.Qt.Qt.Qt.Qt.Qt.Qt.Qt.Qt.Qt.Qt.Qt.Qt.Qt.Qt.Qt.Qt.Qt.Qt.Qt.Qt.Qt.Qt.Qt.Qt.Qt.Qt.Qt.Qt.Qt.Qt.Qt.Qt.Qt.Qt.Qt.Qt.Qt.Qt.Qt.Qt.Qt.Qt.Qt.Qt.Qt.Qt.Qt.Qt..np.nq.nr.ns.nt.l7.nu.nv.nw.nx.ny.nz.nAQt.Qt.Qt.Qt..nB.nC.nD.nE.nF.nG.nH.nI.nJ.nK.nL.nM.nNQt.Qt.Qt.Qt.Qt.Qt.Qt.Qt.Qt.Qt.Qt.Qt.Qt.Qt.Qt.Qt.Qt.Qt.Qt.Qt.Qt.Qt..li.nO.nP.#LQt9.a#.a#.#XQt9.#l.#M.nQQt.Qt.Qt.Qt.Qt.Qt.Qt.Qt.Qt.",
"Qt.Qt.Qt.Qt.Qt.Qt.Qt.Qt.Qt.Qt.Qt.Qt.Qt.Qt.Qt.Qt.Qt.Qt.Qt.Qt.Qt.Qt.Qt.Qt.Qt.Qt.Qt.Qt.Qt.Qt.Qt.Qt.Qt.Qt.Qt.Qt.Qt.Qt.Qt.Qt.Qt.Qt.Qt.Qt.Qt.Qt.Qt.Qt.Qt.Qt.Qt.Qt.Qt.Qt.Qt.Qt.Qt.Qt.Qt.Qt.Qt.Qt.Qt.Qt.Qt.Qt.Qt.Qt.Qt.Qt.Qt.Qt.Qt.Qt.Qt.Qt.Qt.Qt.Qt.Qt.Qt.Qt.Qt.Qt.Qt.Qt.Qt.Qt.Qt.Qt.Qt.Qt.Qt.Qt.Qt.Qt.Qt.Qt.Qt.Qt.Qt.Qt.Qt.Qt.Qt.Qt.Qt.Qt.Qt.Qt.Qt.Qt.Qt.Qt.Qt.Qt.Qt.Qt.Qt.Qt.Qt.Qt.Qt.Qt.Qt.Qt.Qt.Qt.Qt.Qt.Qt.Qt.Qt.Qt.Qt.Qt.Qt.Qt.Qt.Qt.Qt.Qt.Qt.Qt.Qt.Qt.Qt.Qt.Qt.Qt.Qt.Qt.Qt.Qt.Qt.Qt.Qt.Qt.Qt.Qt.Qt.Qt.Qt.Qt..nR.nS.nT.nU.nV.nW.nXQt.Qt.Qt.Qt.Qt.Qt.Qt.Qt.Qt.Qt.Qt.Qt.Qt.Qt.Qt.Qt.Qt.Qt.Qt.Qt.Qt.Qt.Qt.Qt.Qt.Qt.Qt.Qt.Qt.Qt.Qt.Qt.Qt.Qt.Qt.Qt.Qt.Qt.Qt.Qt.Qt.Qt.Qt.Qt.Qt.Qt.Qt.Qt.Qt.Qt.Qt.Qt.Qt.Qt.Qt.Qt..nY.nZ.n0.n1.n2.n3.n4.n5.n6.n7.aN.n8Qt.Qt.Qt.Qt.Qt..n9.o..o#.oa.ob.oc.od.oe.of.og.oh.ja.oiQt.Qt.Qt.Qt.Qt.Qt.Qt.Qt.Qt.Qt.Qt.Qt.Qt.Qt.Qt.Qt.Qt.Qt.Qt.Qt.Qt.Qt.Qt..lG.#K.a#.a#Qt9.#lQt8.#J.#lQtTQtU.ojQt.Qt.Qt.Qt.Qt.Qt.Qt.Qt.",
"Qt.Qt.Qt.Qt.Qt.Qt.Qt.Qt.Qt.Qt.Qt.Qt.Qt.Qt.Qt.Qt.Qt.Qt.Qt.Qt.Qt.Qt.Qt.Qt.Qt.Qt.Qt.Qt.Qt.Qt.Qt.Qt.Qt.Qt.Qt.Qt.Qt.Qt.Qt.Qt.Qt.Qt.Qt.Qt.Qt.Qt..ok.ol.adQt.Qt.Qt.Qt.Qt.Qt.Qt.Qt.Qt.Qt.Qt.Qt.Qt.Qt.Qt.Qt.Qt.Qt.Qt.Qt.Qt.Qt.Qt.Qt.Qt.Qt.Qt.Qt.Qt.Qt.Qt.Qt.Qt.Qt.Qt.Qt.Qt.Qt.Qt.Qt.Qt.Qt.Qt.Qt.Qt.Qt.Qt.Qt.Qt.Qt.Qt.Qt.Qt.Qt.Qt.Qt.Qt.Qt.Qt.Qt.Qt.Qt.Qt.Qt.Qt.Qt.Qt.Qt.Qt.Qt.Qt.Qt.Qt.Qt.Qt.Qt.Qt.Qt.Qt.Qt.Qt.Qt.Qt.Qt.Qt.Qt.Qt.Qt.Qt.Qt.Qt.Qt.Qt.Qt.Qt.Qt.Qt.Qt.Qt.Qt.Qt.Qt.Qt.Qt.Qt.Qt.Qt.Qt.Qt.Qt.Qt.Qt.Qt.Qt.Qt..om.on.lK.oo.op.oq.orQt.Qt.Qt.Qt.Qt.Qt.Qt.Qt.Qt.Qt.Qt.Qt.Qt.Qt.Qt.Qt.Qt.Qt.Qt.Qt.Qt.Qt.Qt.Qt.Qt.Qt.Qt.Qt.Qt.Qt.Qt.Qt.Qt.Qt.Qt.Qt.Qt.Qt.Qt.Qt.Qt.Qt.Qt.Qt.Qt.Qt.Qt.Qt.Qt.Qt.Qt.Qt.Qt.Qt.Qt.Qt..os.ot.ou.ov.ow.ox.oy.oz.oA.lV.oB.oCQt.Qt.Qt.Qt.Qt..oD.oE.oF.oG.oH.oI.oJ.oK.oL.oM.oN.oO.oPQt.Qt.Qt.Qt.Qt.Qt.Qt.Qt.Qt.Qt.Qt.Qt.Qt.Qt.Qt.Qt.Qt.Qt.Qt.Qt.Qt.Qt.Qt..oQ.oR.bP.#lQt8.#lQt9Qt9.aoQtT.oS.oTQt.Qt.Qt.Qt.Qt.Qt.Qt.Qt.",
"Qt.Qt.Qt.Qt.Qt.Qt.Qt.Qt.Qt.Qt.Qt.Qt.Qt.Qt.Qt.Qt.Qt.Qt.Qt.Qt.Qt.Qt.Qt.Qt.Qt.Qt.Qt.Qt.Qt.Qt.Qt.Qt.Qt..oU.oV.oW.oX.oY.oZ.o0.o1.oX.o2.o3.o4.o5.o6.o7.o8Qt.Qt.Qt.Qt.Qt.Qt.Qt.Qt.Qt.Qt.Qt.Qt.Qt.Qt.Qt.Qt.Qt.Qt.Qt.Qt.Qt.Qt.Qt.Qt.Qt.Qt.Qt.Qt.Qt.Qt.Qt.Qt.Qt.Qt.Qt.Qt.Qt.Qt.Qt.Qt.Qt.Qt.Qt.Qt.Qt.Qt.Qt.Qt.Qt.Qt.Qt.Qt.Qt.Qt.Qt.Qt.Qt.Qt.Qt.Qt.Qt.Qt.Qt.Qt.Qt.Qt.Qt.Qt.Qt.Qt.Qt.Qt.Qt.Qt.Qt.Qt.Qt.Qt.Qt.Qt.Qt.Qt.Qt.Qt.Qt.Qt.Qt.Qt.Qt.Qt.Qt.Qt.Qt.Qt.Qt.Qt.Qt.Qt.Qt.Qt.Qt.Qt.Qt.Qt.Qt.Qt.Qt.Qt.Qt.Qt.Qt.Qt.Qt.Qt.Qt..me.o9.p..p#.pa.pb.pc.meQt.Qt.Qt.Qt.Qt.Qt.Qt.Qt.Qt.Qt.Qt.Qt.Qt.Qt.Qt.Qt.Qt.Qt.Qt.Qt.Qt.Qt.Qt.Qt.Qt.Qt.Qt.Qt.Qt.Qt.Qt.Qt.Qt.Qt.Qt.Qt.Qt.Qt.Qt.Qt.Qt.Qt.Qt.Qt.Qt.Qt.Qt.Qt.Qt.Qt.Qt.Qt.Qt.Qt.Qt..pd.pe.pf.pg.ph.pi.pj.ln.pk.pl.pm.pnQt.Qt.Qt.Qt.Qt..po.pp.pq.pr.ps.pt.pu.pv.pw.px.py.pz.pAQt.Qt.Qt.Qt.Qt.Qt.Qt.Qt.Qt.Qt.Qt.Qt.Qt.Qt.Qt.Qt.Qt.Qt.Qt.Qt.Qt.Qt.Qt..pB.pC.pD.#lQt9.#l.aoQtT.#JQt9.#m.pE.pFQt.Qt.Qt.Qt.Qt.Qt.Qt.",
"Qt.Qt.Qt.Qt.Qt.Qt.Qt.Qt.Qt.Qt.Qt.Qt.Qt.Qt.Qt.Qt.Qt.Qt.Qt.Qt.Qt.Qt.Qt.Qt.Qt.Qt.Qt.Qt.Qt.Qt.Qt.Qt..pG.pH.pI.pJ.pK.pL.pM.pN.pO.pP.pQ.pR.pS.pT.pU.pV.pWQt.Qt.Qt.Qt.Qt.Qt.Qt.Qt.Qt.Qt.Qt.Qt.Qt.Qt.Qt.Qt.Qt.Qt.Qt.Qt.Qt.Qt.Qt.Qt.Qt.Qt.Qt.Qt.Qt.Qt.Qt.Qt.Qt.Qt.Qt.Qt.Qt.Qt.Qt.Qt.Qt.Qt.Qt.Qt.Qt.Qt.Qt.Qt.Qt.Qt.Qt.Qt.Qt.Qt.Qt.Qt.Qt.Qt.Qt.Qt.Qt.Qt.Qt.Qt.Qt.Qt.Qt.Qt.Qt.Qt.Qt.Qt.Qt.Qt.Qt.Qt.Qt.Qt.Qt.Qt.Qt.Qt.Qt.Qt.Qt.Qt.Qt.Qt.Qt.Qt.Qt.Qt.Qt.Qt.Qt.Qt.Qt.Qt.Qt.Qt.Qt.Qt.Qt.Qt.Qt.Qt.Qt.Qt.Qt.Qt.Qt.Qt.Qt.Qt.Qt.Qt..pX.pY.pZ.p0.nl.p1.p2Qt.Qt.Qt.Qt.Qt.Qt.Qt.Qt.Qt.Qt.Qt.Qt.Qt.Qt.Qt.Qt.Qt.Qt.Qt.Qt.Qt.Qt.Qt.Qt.Qt.Qt.Qt.Qt.Qt.Qt.Qt.Qt.Qt.Qt.Qt.Qt.Qt.Qt.Qt.Qt.Qt.Qt.Qt.Qt.Qt.Qt.Qt.Qt.Qt.Qt.Qt.Qt.Qt.Qt.Qt..p3.mY.p4.p5.p6.jE.jE.ki.p7.p8.p9.q.Qt.Qt.Qt.Qt.Qt.Qt..q#.qa.qb.mB.mr.jE.ja.pe.qc.nr.qd.qeQt.Qt.Qt.Qt.Qt.Qt.Qt.Qt.Qt.Qt.Qt.Qt.Qt.Qt.Qt.Qt.Qt.Qt.Qt.Qt.Qt.Qt.Qt.Qt..qf.qg.qhQtT.ao.#lQt9Qt9.#X.a#.aa.qiQt.Qt.Qt.Qt.Qt.Qt.Qt.",
"Qt.Qt.Qt.Qt.Qt.Qt.Qt.Qt.Qt.Qt.Qt.Qt.Qt.Qt.Qt.Qt.Qt.Qt.Qt.Qt.Qt.Qt.Qt.Qt.Qt.Qt.Qt.QtM.qj.qk.ql.qm.qn.qo.qp.qq.qr.qs.qt.qu.qv.qw.qx.qy.qz.qA.qB.qC.qDQt.Qt.Qt.Qt.Qt.Qt.Qt.Qt.Qt.Qt.Qt.Qt.Qt.Qt.Qt.Qt.Qt.Qt.Qt.Qt.Qt.Qt.Qt.Qt.Qt.Qt.Qt.Qt.Qt.Qt.Qt.Qt.Qt.Qt.Qt.Qt.Qt.Qt.Qt.Qt.Qt.Qt.Qt.Qt.Qt.Qt.Qt.Qt.Qt.Qt.Qt.Qt.Qt.Qt.Qt.Qt.Qt.Qt.Qt.Qt.Qt.Qt.Qt.Qt.Qt.Qt.Qt.Qt.Qt.Qt.Qt.Qt.Qt.Qt.Qt.Qt.Qt.Qt.Qt.Qt.Qt.Qt.Qt.Qt.Qt.Qt.Qt.Qt.Qt.Qt.Qt.Qt.Qt.Qt.Qt.Qt.Qt.Qt.Qt.Qt.Qt.Qt.Qt.Qt.Qt.Qt.Qt.Qt.Qt.Qt.Qt.Qt.Qt.Qt.Qt.Qt..qE.p..qF.qG.qH.qI.qJQt.Qt.Qt.Qt.Qt.Qt.Qt.Qt.Qt.Qt.Qt.Qt.Qt.Qt.Qt.Qt.Qt.Qt.Qt.Qt.Qt.Qt.Qt.Qt.Qt.Qt.Qt.Qt.Qt.Qt.Qt.Qt.Qt.Qt.Qt.Qt.Qt.Qt.Qt.Qt.Qt.Qt.Qt.Qt.Qt.Qt.Qt.Qt.Qt.Qt.Qt.Qt.Qt.Qt.Qt..qK.qL.qM.qN.p6.jQ.qO.p6.qP.qQ.qR.qSQt.Qt.Qt.Qt.Qt.Qt..qT.qa.qU.qV.p6.qO.qW.lB.m..qX.qY.qZQt.Qt.Qt.Qt.Qt.Qt.Qt.Qt.Qt.Qt.Qt.Qt.Qt.Qt.Qt.Qt.Qt.Qt.Qt.Qt.Qt.Qt.Qt.Qt..q0.q1.clQt9Qt9Qt9.a#.aa.a#.#XQtD.q2Qt.Qt.Qt.Qt.Qt.Qt.Qt.",
"Qt.Qt.Qt.Qt.Qt.Qt.Qt.Qt.Qt.Qt.Qt.Qt.Qt.Qt.Qt.Qt.Qt.Qt.Qt.Qt.Qt.Qt.Qt.Qt.Qt.Qt.Qt..q3.q4.q5.q6.q7.q8.q9.q4.r..r#.ra.rb.qs.qp.rc.rd.re.rf.rg.rh.ri.rj.rk.rl.rmQttQtt.ol.ol.ol.rn.ro.ro.ro.rp.ro.ro.l#.l#.l#.l#.rq.rq.rq.rp.rrQt.Qt.Qt.Qt.Qt.Qt.Qt.Qt.Qt.Qt.Qt.Qt.Qt.Qt.Qt.Qt.Qt.Qt.Qt.Qt.Qt.Qt.Qt.Qt.Qt.Qt.Qt.Qt.Qt.Qt.Qt.Qt.Qt.Qt.Qt.Qt.Qt.Qt.Qt.Qt.Qt.Qt.Qt.Qt.Qt.Qt.Qt.Qt.Qt.Qt.Qt.Qt.Qt.Qt.Qt.Qt.Qt.Qt.Qt.Qt.Qt.Qt.Qt.Qt.Qt.Qt.Qt.Qt.Qt.Qt.Qt.Qt.Qt.Qt.Qt.Qt.Qt.Qt.Qt.Qt.Qt.Qt.Qt.Qt.Qt.Qt.Qt.Qt.Qt.Qt.Qt.Qt.Qt..rs.rt.ru.nk.rv.rw.rxQt.Qt.Qt.Qt.Qt.Qt.Qt.Qt.Qt.Qt.Qt.Qt.Qt.Qt.Qt.Qt.Qt.Qt.Qt.Qt.Qt.Qt.Qt.Qt.Qt.Qt.Qt.Qt.Qt.Qt.Qt.Qt.Qt.Qt.Qt.Qt.Qt.Qt.Qt.Qt.Qt.Qt.Qt.Qt.Qt.Qt.Qt.Qt.Qt.Qt.Qt.Qt.Qt.Qt..ry.rz.rA.rB.rC.rC.j8.rD.rE.rF.rGQt.Qt.Qt.Qt.Qt.Qt.Qt..rH.rI.rJ.rK.rL.mr.jQ.rM.rN.rO.rP.rQQt.Qt.Qt.Qt.Qt.Qt.Qt.Qt.Qt.Qt.Qt.Qt.Qt.Qt.Qt.Qt.Qt.Qt.Qt.Qt.Qt.Qt.Qt.Qt.Qt..rR.rS.#X.an.an.a#.a.Qt9.ao.rT.rU.a0Qt.Qt.Qt.Qt.Qt.Qt.",
"Qt.Qt.Qt.Qt.Qt.Qt.Qt.Qt.Qt.Qt.Qt.Qt.Qt.Qt.Qt.Qt.Qt.Qt.Qt.Qt.Qt.Qt.Qt.Qt.Qt.Qt.Qt..rV.rW.qt.rX.rd.rY.rZ.r0.r1.r2.r3.r4.r5.rd.r6.r7.r8.r9.s..s#.sa.sb.sc.sd.se.sf.sg.sg.sh.si.sj.sk.sk.sl.sm.sm.sn.so.sp.sq.sp.sp.sq.sr.ss.stQt.Qt.Qt.Qt.Qt.Qt.Qt.Qt.Qt.Qt.Qt.Qt.Qt.Qt.Qt.Qt.Qt.Qt.Qt.Qt.Qt.Qt.Qt.Qt.Qt.Qt.Qt.Qt.Qt.Qt.Qt.Qt.Qt.Qt.Qt.Qt.Qt.Qt.Qt.Qt.Qt.Qt.Qt.Qt.Qt.Qt.Qt.Qt.Qt.Qt.Qt.Qt.Qt.Qt.Qt.Qt.Qt.Qt.Qt.Qt.Qt.Qt.Qt.Qt.Qt.Qt.Qt.Qt.Qt.Qt.Qt.Qt.Qt.Qt.Qt.Qt.Qt.Qt.Qt.Qt.Qt.Qt.Qt.Qt.Qt.Qt.Qt.Qt.Qt.Qt.Qt.Qt.Qt..su.sv.sw.sx.sy.pa.szQt.Qt.Qt.Qt.Qt.Qt.Qt.Qt.Qt.Qt.Qt.Qt.Qt.Qt.Qt.Qt.Qt.Qt.Qt.Qt.Qt.Qt.Qt.Qt.Qt.Qt.Qt.Qt.Qt.Qt.Qt.Qt.Qt.Qt.Qt.Qt.Qt.Qt.Qt.Qt.Qt.Qt.Qt.Qt.Qt.Qt.Qt.Qt.Qt.Qt.Qt.Qt.Qt.Qt..sA.kh.k7.rB.sB.ki.qL.sC.sD.oI.sEQt.Qt.Qt.Qt.Qt.Qt.Qt..sF.sG.sH.sI.rz.sJ.n#.rz.sK.iT.sL.sMQt.Qt.Qt.Qt.Qt.Qt.Qt.Qt.Qt.Qt.Qt.Qt.Qt.Qt.Qt.Qt.Qt.Qt.Qt.Qt.Qt.Qt.Qt.Qt.Qt..sN.sO.sP.#XQt9.#l.#L.#KQtD.aoQtD.acQt.Qt.Qt.Qt.Qt.Qt.",
"Qt.Qt.Qt.Qt.Qt.Qt.Qt.Qt.Qt.Qt.Qt.Qt.Qt.Qt.Qt.Qt.Qt.Qt.Qt.Qt.Qt.Qt.Qt.Qt.Qt.Qt..j0.pI.sQ.sR.sS.sT.sU.r0.sT.sT.sV.sW.sX.sY.sZ.s0.s1.s2.s3.s4.s5.s6.s7.s8.s9.s9.s9.t..t#.ta.tb.tc.tc.tc.tc.td.td.td.te.tf.tf.tg.tg.tg.th.ti.tj.tk.a1.om.tl.tl.tm.tnQt.Qt.Qt.Qt.Qt.Qt.Qt.Qt.Qt.Qt.Qt.Qt.Qt.Qt.Qt.Qt.Qt.Qt.Qt.Qt.Qt.Qt.Qt.Qt.Qt.Qt.Qt.Qt.Qt.Qt.Qt.Qt.Qt.Qt.Qt.Qt.Qt.Qt.Qt.Qt.Qt.Qt.Qt.Qt.Qt.Qt.Qt.Qt.Qt.Qt.Qt.Qt.QtM.to.tp.tq.tr.tp.ts.ts.ts.#0.ts.ts.tl.tt.tr.tm.tu.tv.tw.tr.tt.tx.ty.tr.tp.ty.tr.tp.tp.tl.tt.tz.tA.tB.tC.p..tD.tE.tF.tG.tH.tI.tJ.tK.tL.tL.tL.tM.tN.tOQt.Qt.Qt.Qt.Qt.Qt.Qt.Qt.Qt.Qt.Qt.Qt.Qt.Qt.Qt.Qt.Qt.Qt.Qt.Qt.Qt.Qt.Qt.Qt.Qt.Qt.Qt.Qt.Qt.Qt.Qt.Qt.Qt.Qt.Qt.Qt.Qt.Qt.Qt.Qt.Qt.Qt.Qt.Qt.Qt..tP.j8.jE.tQ.pS.tR.tS.tT.tU.tV.tWQt.Qt.Qt.Qt.Qt.Qt.Qt..tX.tY.tZ.t0.t1.t2.t3.t4.t5.t6.t7.t8Qt.Qt.Qt.Qt.Qt.Qt.Qt.Qt.Qt.Qt.Qt.Qt.Qt.Qt.Qt.Qt.Qt.Qt.Qt.Qt.Qt.Qt.Qt.Qt.Qt..t9.u..am.ao.#m.#K.#L.#l.a..an.#l.u#.uaQt.Qt.Qt.Qt.Qt.",
"Qt.Qt.Qt.Qt.Qt.Qt.Qt.Qt.Qt.Qt.Qt.Qt.Qt.Qt.Qt.Qt.Qt.Qt.Qt.Qt.Qt.Qt.Qt.Qt.Qt.Qt..ub.uc.ud.ue.sV.sV.uf.ug.uh.ui.uj.uk.ul.um.un.uo.up.uq.ur.us.ut.uu.uv.uw.ux.uy.uz.uA.uB.uC.uD.uE.uC.uC.uC.uF.uC.uC.uG.uD.uD.uD.uH.uI.uJ.uK.uL.uM.uN.uO.uP.uQ.uR.uSQt.Qt.Qt.Qt.Qt.Qt.Qt.Qt.Qt.Qt.Qt.Qt.Qt.Qt.Qt.Qt.Qt.Qt.Qt.Qt.Qt.Qt.Qt.Qt.Qt.Qt.Qt.Qt.Qt.Qt.Qt.Qt.Qt.Qt.Qt.Qt.Qt.Qt.Qt.Qt.Qt.Qt.Qt.Qt.Qt.Qt.Qt.Qt.Qt.Qt.Qt.Qt..q0.uT.uQ.uU.uQ.uQ.uV.uW.uX.uY.uZ.u0.u1.u2.u3.u4.u5.u2.u1.u3.u6.u3.u7.u7.u8.u9.v..v#.va.vb.uM.vc.vd.ve.vf.vg.vh.vi.vj.vk.vl.vm.vn.vo.vp.vq.vq.vr.vp.vs.vt.vuQt.Qt.Qt.Qt.Qt.Qt.Qt.Qt.Qt.Qt.Qt.Qt.Qt.Qt.Qt.Qt.Qt.Qt.Qt.Qt.Qt.Qt.Qt.Qt.Qt.Qt.Qt.Qt.Qt.Qt.Qt.Qt.Qt.Qt.Qt.Qt.Qt.Qt.Qt.Qt.Qt.Qt.Qt..vv.mr.vw.vx.vy.vz.vy.vA.vB.vC.vDQt.Qt.Qt.Qt.Qt.Qt.Qt..vE.vF.vG.vH.vI.vJ.vK.vL.vM.vN.vO.vPQt.Qt.Qt.Qt.Qt.Qt.Qt.Qt.Qt.Qt.Qt.Qt.Qt.Qt.Qt.Qt.Qt.Qt.Qt.Qt.Qt.Qt.Qt.Qt.Qt.Qt..vQ.vR.gQ.aoQt9.a#.an.aa.a..ao.#m.vSQt.Qt.Qt.Qt.Qt.",
"Qt.Qt.Qt.Qt.Qt.Qt.Qt.Qt.Qt.Qt.Qt.Qt.Qt.Qt.Qt.Qt.Qt.Qt.Qt.Qt.Qt.Qt.Qt.Qt.Qt.Qt..vT.vU.vV.r..vW.vX.vY.vZ.v0.qt.v1.v2.v3.v4.v5.v6.v7.v8.v9.w..w#.wa.wb.wc.wd.we.wf.wg.wh.wi.wj.wk.wl.wm.wn.wo.wp.wp.wm.wq.wr.ws.wt.wc.wu.uL.wv.ww.wx.wy.wz.wA.wB.wCQt.Qt.Qt.Qt.Qt.Qt.Qt.Qt.Qt.Qt.Qt.Qt.Qt.Qt.Qt.Qt.Qt.Qt.Qt.Qt.Qt.Qt.Qt.Qt.Qt.Qt.Qt.Qt.Qt.Qt.Qt.Qt.Qt.Qt.Qt.Qt.Qt.Qt.Qt.Qt.Qt.Qt.Qt.Qt.Qt.Qt.Qt.Qt.Qt.Qt.Qt.Qt..wD.uT.wE.wF.wx.wx.wF.wF.wG.wF.wH.wI.wJ.wK.wK.wL.wM.wN.wO.wJ.wK.wK.wL.wL.wL.wP.wQ.wR.wS.wT.wU.wV.wW.wX.wY.wZ.w0.w1.w2.w3.w4.w5.w6.w7.w8.w9.x..x#.xa.xb.xc.xdQt.Qt.Qt.Qt.Qt.Qt.Qt.Qt.Qt.Qt.Qt.Qt.Qt.Qt.Qt.Qt.Qt.Qt.Qt.Qt.Qt.Qt.Qt.Qt.Qt.Qt.Qt.Qt.Qt.Qt.Qt.Qt.Qt.Qt.Qt.Qt.Qt.Qt.Qt.Qt.Qt.Qt.Qt..xe.xf.xg.xh.xi.xj.xk.xl.xm.xn.xoQt.Qt.Qt.Qt.Qt.Qt.Qt..xp.xq.xr.xs.xt.xu.xv.xt.xw.xx.xy.xzQt.Qt.Qt.Qt.Qt.Qt.Qt.Qt.Qt.Qt.Qt.Qt.Qt.Qt.Qt.Qt.Qt.Qt.Qt.Qt.Qt.Qt.Qt.Qt.Qt.Qt..xA.xB.#I.a#.an.aY.#l.ao.aoQt9QtD.xCQt.Qt.Qt.Qt.Qt.",
"Qt.Qt.Qt.Qt.Qt.Qt.Qt.Qt.Qt.Qt.Qt.Qt.Qt.Qt.Qt.Qt.Qt.Qt.Qt.Qt.Qt.Qt.Qt..xD.xE.xF.xG.xH.xI.xJ.xJ.xK.xL.xM.xN.xO.xP.xQ.xR.xS.xT.xU.xV.xW.xX.xY.xZ.x0.x1.x2.x3.x4.x2.x5.x6.x7.x8.x9.y..y#.ya.yb.yb.yb.yc.yd.ye.yf.yg.yh.vd.yi.yj.yk.yl.ym.wE.wE.yn.yoQt.Qt.Qt.Qt.Qt.Qt.Qt.Qt.Qt.Qt.Qt.Qt.Qt.Qt.Qt.Qt.Qt.Qt.Qt.Qt.Qt.Qt.Qt.Qt.Qt.Qt.Qt.Qt.Qt.Qt.Qt.Qt.Qt.Qt.Qt.Qt.Qt.Qt.Qt.Qt.Qt.Qt.Qt.Qt.Qt.Qt.Qt.Qt.Qt.Qt.Qt.Qt..q0.yp.yq.yr.ys.wz.wy.wz.ys.yt.yu.yv.yw.yx.yy.yz.yA.yB.yA.yA.yB.yC.yD.yE.yF.yG.yH.yF.yI.wH.yJ.yG.yK.yL.yM.yN.yO.yP.yQ.yR.yS.yT.yU.yV.yW.yX.yY.yZ.vo.y0.y1.y2.y3.y4.y5.y6Qt.Qt.Qt.Qt.Qt.Qt.Qt.Qt.Qt.Qt.Qt.Qt.Qt.Qt.Qt.Qt.Qt.Qt.Qt.Qt.Qt.Qt.Qt.Qt.Qt.Qt.Qt.Qt.Qt.Qt.Qt.Qt.Qt.Qt.Qt.Qt.Qt.Qt.Qt..y7.y8.y9.z..z#.za.zb.zc.zd.ze.zfQt.Qt.Qt.Qt.Qt.Qt.Qt.Qt..zg.zh.zi.zj.zk.zl.zm.zn.zo.zp.zqQt.Qt.Qt.Qt.Qt.Qt.Qt.Qt.Qt.Qt.Qt.Qt.Qt.Qt.Qt.Qt.Qt.Qt.Qt.Qt.Qt.Qt.Qt.Qt.Qt.Qt.Qt..ov.zr.#X.#lQtT.#JQt9.a#.a#.ao.rU.zsQt.Qt.Qt.Qt.",
"Qt.Qt.Qt.Qt.Qt.Qt.Qt.Qt.Qt.Qt.Qt.Qt.Qt.Qt.Qt.Qt.Qt.Qt.Qt.Qt.Qt.Qt..zt.zu.uU.zv.zw.zx.zy.zz.zA.zB.zB.zB.zC.zB.zB.zB.zz.zD.zE.zF.zG.zH.zI.zJ.zK.zI.zL.zI.zM.zN.zO.zO.zO.zO.zO.zL.zL.zP.zL.zQ.zR.zJ.zL.zJ.zJ.zK.zS.zT.zU.wA.zV.zW.zW.zX.zR.wB.zY.zZQt.Qt.Qt.Qt.Qt.Qt.Qt.Qt.Qt.Qt.Qt.Qt.Qt.Qt.Qt.Qt.Qt.Qt.Qt.Qt.Qt.Qt.Qt.Qt.Qt.Qt.Qt.Qt.Qt.Qt.Qt.Qt.Qt.Qt.Qt.Qt.Qt.Qt.Qt.Qt.Qt.Qt.Qt.Qt.Qt.Qt.Qt.Qt.Qt.Qt.Qt.Qt..q0.z0.zL.z1.zV.z2.z2.z3.z4.z3.z2.z5.z6.z5.z7.z5.wz.wz.wF.z8.z9.uV.uY.A..A#.A#.A..Aa.A..Ab.u6.Ac.Ad.Ae.Af.Af.Ag.uZ.Ah.z9.Aa.Ai.Aa.Aj.A..Ak.Al.Am.A#.Ab.An.u2.Ao.Ap.Aq.Ar.As.q0Qt.Qt.Qt.Qt.Qt.Qt.Qt.Qt.Qt.Qt.Qt.Qt.Qt.Qt.Qt.Qt.Qt.Qt.Qt.Qt.Qt.Qt.Qt.Qt.Qt.Qt.Qt.Qt.Qt.Qt.Qt.Qt.Qt.Qt.Qt.Qt.Qt.Qt.Qt..At.Au.Av.Aw.Ax.Ay.Az.AA.ABQt.Qt.Qt.Qt.Qt.Qt.Qt.Qt..AC.AD.AE.AF.AG.AH.AI.AJ.AK.AL.AMQt.Qt.Qt.Qt.Qt.Qt.Qt.Qt.Qt.Qt.Qt.Qt.Qt.Qt.Qt.Qt.Qt.Qt.Qt.Qt.Qt.Qt.Qt.Qt.Qt.Qt.Qt..a8.AN.knQt9.a..a#.#X.ao.#m.#m.AO.APQt.Qt.Qt.Qt.",
"Qt.Qt.Qt.Qt.Qt.Qt.Qt.Qt.Qt.Qt.Qt.Qt.Qt.Qt.Qt.Qt.Qt.Qt.Qt.Qt.Qt..aV.AQ.AR.AS.AT.AU.AT.AV.AW.AX.AY.AX.AX.AZ.AZ.AX.A0.A1.AV.A2.A3.A4.A5.A6.A6.A7.A8.A9.B..B#.A6.B#.Ba.Bb.Bb.Bc.Bd.Be.Bf.Be.Bg.Bh.Bi.Bj.Bi.Bk.Bk.Bk.Bl.Bm.Bn.Bo.Bp.Bq.Br.Bs.yn.Bt.BuQt.Qt.Qt.Qt.Qt.Qt.Qt.Qt.Qt.Qt.Qt.Qt.Qt.Qt.Qt.Qt.Qt.Qt.Qt.Qt.Qt.Qt.Qt.Qt.Qt.Qt.Qt.Qt.Qt.Qt.Qt.Qt.Qt.Qt.Qt.Qt.Qt.Qt.Qt.Qt.Qt.Qt.Qt.Qt.Qt.Qt.Qt.Qt.Qt.Qt.Qt.Qt..q0.Bv.Bw.Bw.Bx.By.Bz.BA.Bz.BB.Bz.BA.BC.BD.BE.BF.BG.BH.BI.BG.BG.BJ.BK.BL.BM.BM.BN.BO.BP.BP.BQ.BR.BQ.BS.BT.BU.BV.BW.BX.BY.BZ.B0.B1.BZ.B2.B3.B3.B4.B5.B6.B7.B4.B6.B4.B8.B9.C..C#Qt.Qt.Qt.Qt.Qt.Qt.Qt.Qt.Qt.Qt.Qt.Qt.Qt.Qt.Qt.Qt.Qt.Qt.Qt.Qt.Qt.Qt.Qt.Qt.Qt.Qt.Qt.Qt.Qt.Qt.Qt.Qt.Qt.Qt.Qt.Qt.Qt.Qt.Qt.Qt.Qt.Qt.Qt.Qt.Qt.Qt.Qt.Qt.Qt.Qt.Qt.Qt.Qt.Qt.Qt.Qt.Qt.Qt.Qt.Qt.Qt.Qt.Qt.Qt.Qt.Qt.Qt.Qt.Qt.Qt.Qt.Qt.Qt.Qt.Qt.Qt.Qt.Qt.Qt.Qt.Qt.Qt.Qt.Qt.Qt.Qt.Qt.Qt.Qt.Qt.Qt.Qt.Qt.Qt..t9.Ca.#k.a#Qt9.#kQtD.#L.#l.a#.ao.Cb.d1Qt.Qt.Qt.",
"Qt.Qt.Qt.Qt.Qt.Qt.Qt.Qt.Qt.Qt.Qt.Qt.Qt.Qt.Qt.Qt.Qt.Qt.Qt.Qt.Qt..Cc.Cd.Ce.Cf.Cg.Cg.Ch.Ci.Cj.Ck.Ch.Cl.Cm.Cm.Ck.Cm.Cn.Ci.Cl.Cn.Co.Cm.Cp.Cq.Cq.Ci.Ci.Cr.Cs.Ct.Cm.Cm.Cu.Cv.Cw.Cx.Cy.Cz.Cn.CA.CB.CC.Cv.CD.Cu.Cz.CE.CF.Cv.CG.Cw.CH.CI.CE.CJ.CK.CL.CM.CNQt.Qt.Qt.Qt.Qt.Qt.Qt.Qt.Qt.Qt.Qt.Qt.Qt.Qt.Qt.Qt.Qt.Qt.Qt.Qt.Qt.Qt.Qt.Qt.Qt.Qt.Qt.Qt.Qt.Qt.Qt.Qt.Qt.Qt.Qt.Qt.Qt.Qt.Qt.Qt.Qt.Qt.Qt.Qt.Qt.Qt.Qt.Qt.Qt.Qt.Qt.Qt..q0.CO.CP.CQ.CR.CS.CT.Cj.CU.Ce.CV.CW.CV.CX.CT.CT.CT.CT.CT.CY.CT.CV.Cl.Cl.CZ.C0.CW.CV.CU.C0.CT.C0.CV.C0.Ck.Cl.Cj.Cj.Cg.CZ.Cq.Cs.Cs.Ck.Co.Cl.Cj.Ck.Cs.C1.C2.C3.C3.Ci.Ci.Ch.Cj.C4.C5Qt.Qt.Qt.Qt.Qt.Qt.Qt.Qt.Qt.Qt.Qt.Qt.Qt.Qt.Qt.Qt.Qt.Qt.Qt.Qt.Qt.Qt.Qt.Qt.Qt.Qt.Qt.Qt.Qt.Qt.Qt.Qt.Qt.Qt.Qt.Qt.Qt.Qt.Qt.Qt.Qt.Qt.Qt.Qt.Qt.Qt.Qt.Qt.Qt.Qt.Qt.Qt.Qt.Qt.Qt.Qt.Qt.Qt.Qt.Qt.Qt.Qt.Qt.Qt.Qt.Qt.Qt.Qt.Qt.Qt.Qt.Qt.Qt.Qt.Qt.Qt.Qt.Qt.Qt.Qt.Qt.Qt.Qt.Qt.Qt.Qt.Qt.Qt.Qt.Qt.Qt.Qt.Qt.Qt..C6.C7.C8.aM.#MQtDQtS.#mQtD.#..hp.C9Qt.Qt.Qt.",
"Qt.Qt.Qt.Qt.Qt.Qt.Qt.Qt.Qt.Qt.Qt.Qt.Qt.Qt.Qt.Qt.Qt.Qt.Qt.Qt.Qt..D..D#.Ch.Cz.Da.Cl.Cx.Cu.Db.Ch.Cy.C2.C3.Dc.C2.CF.CF.Ch.Cm.C2.Cw.Dd.De.Df.C3.CI.Dg.CC.C3.Dh.Di.Dj.Di.Dk.Dk.Dl.C3.Dl.CF.Dm.Dn.Do.Dp.Dq.Do.Do.Dr.Ds.Dt.Du.Dv.Dg.Dl.C2.Dw.Dx.Dy.v7.DzQt.Qt.Qt.Qt.Qt.Qt.Qt.Qt.Qt.Qt.Qt.Qt.Qt.Qt.Qt.Qt.Qt.Qt.Qt.Qt.Qt.Qt.Qt.Qt.Qt.Qt.Qt.Qt.Qt.Qt.Qt.Qt.Qt.Qt.Qt.Qt.Qt.Qt.Qt.Qt.Qt.Qt.Qt.Qt.Qt.Qt.Qt.Qt.Qt.Qt.Qt.Qt..q0.Bv.DA.zN.DB.DC.Cl.Ch.DD.DE.DF.DD.DG.CT.C0.Cg.Cl.C0.DH.DI.CZ.Ch.Ch.Ch.Ch.Da.Cm.DJ.DK.CE.Cm.Cy.Cl.Ci.CC.C3.CF.Dr.Dr.Cy.C3.CC.Dg.CC.CF.Dr.DL.Cx.C3.DM.Cw.Dd.Di.CF.DJ.CI.Cw.DN.DOQt.Qt.Qt.Qt.Qt.Qt.Qt.Qt.Qt.Qt.Qt.Qt.Qt.Qt.Qt.Qt.Qt.Qt.Qt.Qt.Qt.Qt.Qt.Qt.Qt.Qt.Qt.Qt.Qt.Qt.Qt.Qt.Qt.Qt.Qt.Qt.Qt.Qt.Qt.Qt.Qt.Qt.Qt.Qt.Qt.Qt.Qt.Qt.Qt.Qt.Qt.Qt.Qt.Qt.Qt.Qt.Qt.Qt.Qt.Qt.Qt.Qt.Qt.Qt.Qt.Qt.Qt.Qt.Qt.Qt.Qt.Qt.Qt.Qt.Qt.Qt.Qt.Qt.Qt.Qt.Qt.Qt.Qt.Qt.Qt.Qt.Qt.Qt.Qt.Qt.Qt.Qt.Qt.Qt..xD.DP.DQ.DR.oT.DS.DR.DR.DT.DT.DU.DVQt.Qt.Qt.",
"Qt.Qt.Qt.Qt.Qt.Qt.Qt.Qt.Qt.Qt.Qt.Qt.Qt.Qt.Qt.Qt.Qt.Qt.Qt.Qt..DW.DX.CV.Ch.DY.CI.Ci.DJ.DJ.Cy.Cm.Cn.Ch.Ch.Df.CC.Cx.Dr.DJ.C2.Cx.Cv.Dg.Di.Di.CF.DJ.Cv.CF.Cx.Dg.Cx.Df.Dk.Di.DZ.C3.C2.Cm.D0.D1.D2.D3.D4.D5.D6.D7.D8.D9.E..E#.Ea.Df.Eb.C2.CJ.Ec.wv.Ed.EeQt.Qt.Qt.Qt.Qt.Qt.Qt.Qt.Qt.Qt.Qt.Qt.Qt.Qt.Qt.Qt.Qt.Qt.Qt.Qt.Qt.Qt.Qt.Qt.Qt.Qt.Qt.Qt.Qt.Qt.Qt.Qt.Qt.Qt.Qt.Qt.Qt.Qt.Qt.Qt.Qt.Qt.Qt.Qt.Qt.Qt.Qt.Qt.Qt.Qt.Qt.Qt..wD.Ef.Eg.Eh.Ei.Ej.Da.Ch.Ch.Ch.Ch.Ch.Ch.Ch.Ch.Ch.Ch.Ch.Ch.Ch.Ch.Ch.Ch.Ch.Ch.Ch.Db.Cz.CE.Ch.CC.Cx.Cl.Ci.Ct.Di.DY.Dr.Di.DJ.Cx.CI.Dg.DY.Dr.DY.Dr.C2.C3.C3.Dg.Ek.DZ.CE.CC.Cm.CE.Cs.El.EmQt.Qt.Qt.Qt.Qt.Qt.Qt.Qt.Qt.Qt.Qt.Qt.Qt.Qt.Qt.Qt.Qt.Qt.Qt.Qt.Qt.Qt.Qt.Qt.Qt.Qt.Qt.Qt.Qt.Qt.Qt.Qt.Qt.Qt.Qt.Qt.Qt.Qt.Qt.Qt.Qt.Qt.Qt.Qt.Qt.Qt.Qt.Qt.Qt.Qt.Qt.Qt.Qt.Qt.Qt.Qt.Qt.Qt.Qt.Qt.Qt.Qt.Qt.Qt.Qt.Qt.Qt.Qt.Qt.Qt.Qt.Qt.Qt.Qt.Qt.Qt.Qt.Qt.Qt.Qt.Qt.Qt.Qt.Qt.Qt.Qt.Qt.Qt.Qt.Qt.Qt.Qt.Qt.Qt.Qt.Qt.Qt.Qt.Qt.Qt.Qt.Qt.Qt.Qt.Qt.Qt.Qt.Qt.",
"Qt.Qt.Qt.Qt.Qt.Qt.Qt.Qt.Qt.Qt.Qt.Qt.Qt.Qt.Qt.Qt.Qt.Qt.Qt.Qt..En.Eo.Ch.Da.Cw.CF.Ci.Cm.CE.CE.DL.DJ.Ch.Ci.DJ.DY.Ep.Dr.Dg.C2.C3.Eq.Dg.Ek.Er.Dg.CE.DJ.C3.CI.Dg.Cw.Dr.DY.Di.Di.CF.DJ.Es.Et.Eu.Ev.Ew.Ex.Ey.Ez.EA.EB.EC.ED.EE.EF.EG.Dl.DJ.EH.EI.EJ.EK.EeQt.Qt.Qt.Qt.Qt.Qt.Qt.Qt.Qt.Qt.Qt.Qt.Qt.Qt.Qt.Qt.Qt.Qt.Qt.Qt.Qt.Qt.Qt.Qt.Qt.Qt.Qt.Qt.Qt.Qt.Qt.Qt.Qt.Qt.Qt.Qt.Qt.Qt.Qt.Qt.Qt.Qt.Qt.Qt.Qt.Qt.Qt.Qt.Qt.Qt.Qt.Qt..wD.EL.zR.EM.EN.EO.CE.Ch.Ch.Ch.Ch.Ch.Ch.Ch.Ch.Ch.Ch.Ch.Ch.Ch.Ch.Ch.Ch.Ch.Ch.Ch.EP.CE.CI.Ch.Cm.Di.CE.Ci.CE.EQ.DY.Cw.Dk.Dr.C2.ER.Eb.EQ.DY.Cw.DY.Eq.ES.Cx.Df.Dr.Cw.DJ.DJ.CC.Da.Dr.ET.EUQt.Qt.Qt.Qt.Qt.Qt.Qt.Qt.Qt.Qt.Qt.Qt.Qt.Qt.Qt.Qt.Qt.Qt.Qt.Qt.Qt.Qt.Qt.Qt.Qt.Qt.Qt.Qt.Qt.Qt.Qt..EV.#F.EW.#F.#F.EW.EX.EY.#F.EZ.EY.EY.E0.EY.EY.E1.E2Qt.Qt.Qt.Qt..E3.E4.E5.E6.E7.oV.E8.E9.oV.F..F#.Fa.F#.oY.Fb.Fc.Fd.Fe.#FQt.Qt.Qt.Qt.Qt.Qt.Qt.Qt.Qt.Qt.Qt.Qt.Qt.Qt.Qt.Qt.Qt.Qt.Qt.Qt.Qt.Qt.Qt.Qt.Qt.Qt.Qt.Qt.Qt.Qt.Qt.Qt.Qt.Qt.Qt.Qt.Qt.",
"Qt.Qt.Qt.Qt.Qt.Qt.Qt.Qt.Qt.Qt.Qt.Qt.Qt.Qt.Qt.Qt.Qt.Qt.Qt.Qt#.Ff.Fg.Ch.Dg.CE.Cl.Cy.CE.CE.DJ.Ch.Dg.DJ.Ci.DJ.EQ.DY.Cw.Di.CF.C2.Cx.CF.CF.Cw.Dg.CE.CC.DJ.CE.Di.Fh.Cw.Dg.DY.Fi.CD.DJ.Fj.Fk.Fl.Fm.Fn.Fo.Fp.Fq.Fr.Fs.Ft.Fu.Fv.Fw.Fx.Dj.C2.Fy.EI.Fz.FA.FBQt.Qt.Qt.Qt.Qt.Qt.Qt.Qt.Qt.Qt.Qt.Qt.Qt.Qt.Qt.Qt.Qt.Qt.Qt.Qt.Qt.Qt.Qt.Qt.Qt.Qt.Qt.Qt.Qt.Qt.Qt.Qt.Qt.Qt.Qt.Qt.Qt.Qt.Qt.Qt.Qt.Qt.Qt.Qt.Qt.Qt.Qt.Qt.Qt.Qt.Qt.Qt..wD.FC.FD.FE.FF.EO.CE.Ch.Ch.Ch.Ch.Ch.Ch.Ch.Ch.Ch.Ch.Ch.Ch.Ch.Ch.Ch.Ch.Ch.Ch.Ch.DJ.DJ.C1.Cl.Ch.FG.DJ.Cl.Cm.CF.Dr.CF.CF.CF.DK.CE.C3.DY.Dr.CF.Dr.CI.Cz.DJ.C2.DJ.CF.CC.DJ.DL.Ch.CF.FH.FIQt.Qt.Qt.Qt.Qt.Qt.Qt.Qt.Qt.Qt.Qt.Qt.Qt.Qt.Qt.Qt.Qt.Qt.Qt.Qt.Qt.Qt.Qt.Qt.Qt.Qt.Qt.Qt.Qt.Qt.Qt..FJ.DG.Cl.Ci.Cg.Ci.Ct.Cs.EO.Ck.C2.FK.FL.DF.FM.FN.FOQt.Qt.Qt.Qt..FP.FQ.FR.FS.FT.FU.FV.FW.FX.FY.FZ.F0.F1.F2.F3.F4.F5.F6.F7.aVQt.Qt.Qt.Qt.Qt.Qt.Qt.Qt.Qt.Qt.Qt.Qt.Qt.Qt.Qt.Qt.Qt.Qt.Qt.Qt.Qt.Qt.Qt.Qt.Qt.Qt.Qt.Qt.Qt.Qt.Qt.Qt.Qt.Qt.Qt.Qt.",
"Qt.Qt.Qt.Qt.Qt.Qt.Qt.Qt.Qt.Qt.Qt.Qt.Qt.Qt.Qt.Qt.Qt.Qt.Qt..F8.F9.Ci.Ci.Di.CF.Ci.Cm.Cx.CE.Ch.Cl.Di.CF.Ci.Cm.CF.Dr.CF.CF.CF.DK.CE.Cy.DJ.CI.CF.CC.DJ.DJ.Ch.CF.Di.Dg.Di.DZ.Er.Dd.C3.Co.G..G#.Ga.Gb.Gc.Gd.Ge.Gf.Gg.Gh.Gi.Gj.Gk.Gl.Gm.C3.Gn.Go.Gp.Gq.GrQt.Qt.Qt.Qt.Qt.Qt.Qt.Qt.Qt.Qt.Qt.Qt.Qt.Qt.Qt.Qt.Qt.Qt.Qt.Qt.Qt.Qt.Qt.Qt.Qt.Qt.Qt.Qt.Qt.Qt.Qt.Qt.Qt.Qt.Qt.Qt.Qt.Qt.Qt.Qt.Qt.Qt.Qt.Qt.Qt.Qt.Qt.Qt.Qt.Qt.Qt.Qt..tn.Bw.Gs.Gt.FF.EO.Ch.Ch.Ch.Ch.Ch.Ch.Ch.Ch.Ch.Ch.Ch.Ch.Ch.Ch.Ch.Ch.Ch.Ch.Ch.Ch.Cw.CI.CE.Ch.Da.Dk.DJ.DG.Ch.CF.Dg.CF.DJ.DJ.Da.Ch.Eq.Di.Dg.DJ.CC.CE.Da.DL.Cz.Gu.DJ.Dg.DJ.C2.CE.Da.Ci.Gv.GwQt.Qt.Qt.Qt.Qt.Qt.Qt.Qt.Qt.Qt.Qt.Qt.Qt.Qt.Qt.Qt.Qt.Qt.Qt.Qt.Qt.Qt.Qt.Qt.Qt.Qt.Qt.Qt.Qt.Qt..#F.DI.Gx.Gy.Gz.GA.GB.GC.GD.GE.GF.GG.GH.GI.GJ.GK.GLQt.Qt.Qt.Qt..GM.GN.GO.GP.GQ.GR.GS.GT.GU.GV.GW.GX.GY.GZ.G0.G1.G2.G3.G4.aVQt.Qt.Qt.Qt.Qt.Qt.Qt.Qt.Qt.Qt.Qt.Qt.Qt.Qt.Qt.Qt.Qt.Qt.Qt.Qt.Qt.Qt.Qt.Qt.Qt.Qt.Qt.Qt.Qt.Qt.Qt.Qt.Qt.Qt.Qt.Qt.",
"Qt.Qt.Qt.Qt.Qt.Qt.Qt.Qt.Qt.Qt.Qt.Qt.Qt.Qt.Qt.Qt.Qt.Qt.Qt..G5.D#.CE.Cu.DJ.Cm.Db.DJ.Cw.CI.Ch.Ch.CF.CF.Da.Ch.Dr.Dk.DJ.Cx.DJ.Da.DL.Ch.DJ.DL.CI.Dg.DJ.Cy.CE.CE.CF.CF.Cw.Cw.DZ.Er.Df.DJ.Dg.G6.G7.G8.F9.G9.H..H#.Ha.Hb.Hc.Hd.He.Dg.Di.C3.Gn.Hf.Hg.Hh.GrQt.Qt.Qt.Qt.Qt.Qt.Qt.Qt.Qt.Qt.Qt.Qt.Qt.Qt.Qt.Qt.Qt.Qt.Qt.Qt.Qt.Qt.Qt.Qt.Qt.Qt.Qt.Qt.Qt.Qt.Qt.Qt.Qt.Qt.Qt.Qt.Qt.Qt.Qt.Qt.Qt.Qt.Qt.Qt.Qt.Qt.Qt.Qt.Qt.Qt.Qt.Qt..tn.yr.Hi.Hj.EN.DG.DJ.Ch.Ch.Ch.Ch.Ch.Ch.Ch.Ch.Ch.Ch.Ch.Ch.Ch.Ch.Ch.Ch.Ch.Ch.CI.Dg.CI.DJ.DL.CE.Cx.CE.Da.Co.Dg.Dk.DJ.Gu.DJ.Da.Ch.DJ.Di.CF.CE.CF.Cy.CE.DJ.Ch.DJ.DL.Di.CC.Ch.Ch.CE.CF.Hk.HlQt.Qt.Qt.Qt.Qt.Qt.Qt.Qt.Qt.Qt.Qt.Qt.Qt.Qt.Qt.Qt.Qt.Qt.Qt.Qt.Qt.Qt.Qt.Qt.Qt.Qt.Qt.Qt.Qt.Qt..#F.Hm.Hn.Ho.Hp.Hq.Hr.Hs.Ht.Hu.Hv.Hw.Hx.Hy.Hz.HA.HBQt.Qt.Qt.Qt..HC.HD.HE.HF.HG.HH.HI.HJ.HK.HL.HM.HN.HO.HP.HQ.HR.HS.HT.HU.aVQt.Qt.Qt.Qt.Qt.Qt.Qt.Qt.Qt.Qt.Qt.Qt.Qt.Qt.Qt.Qt.Qt.Qt.Qt.Qt.Qt.Qt.Qt.Qt.Qt.Qt.Qt.Qt.Qt.Qt.Qt.Qt.Qt.Qt.Qt.Qt.",
"Qt.Qt.Qt.Qt.Qt.Qt.Qt.Qt.Qt.Qt.Qt.Qt.Qt.Qt.Qt.Qt.Qt.Qt..HV.HW.CV.Cl.Fh.CF.Ci.Cy.CI.CI.DJ.DJ.DJ.Cy.Cm.Da.Ch.CF.Di.DJ.EP.DJ.Ch.Cy.DJ.CE.C2.Cm.Dg.CF.Ch.Ch.Ch.CF.Cw.CI.CF.Dg.Er.Dd.HX.HY.HZ.H0.H1.H2.H3.H4.H5.H6.H7.H8.H9.I..Cu.I#.Dc.CJ.Ia.uM.Ib.GrQt.Qt.Qt.Qt.Qt.Qt.Qt.Qt.Qt.Qt.Qt.Qt.Qt.Qt.Qt.Qt.Qt.Qt.Qt.Qt.Qt.Qt.Qt.Qt.Qt.Qt.Qt.Qt.Qt.Qt.Qt.Qt.Qt.Qt.Qt.Qt.Qt.Qt.Qt.Qt.Qt.Qt.Qt.Qt.Qt.Qt.Qt.Qt.Qt.Qt.Qt.Qt..tn.Bw.uQ.Ic.Id.Cg.CE.Ch.Ch.Ch.Ch.Ch.Ch.Ch.Ch.Ch.Ch.Ch.Ch.Ch.Ch.Ch.Ch.Ch.Ch.FM.DJ.DJ.CE.CE.CE.Ch.Ch.Ch.Ch.DJ.Di.CF.CE.DJ.CE.CE.CE.Dj.Dg.CE.CI.DJ.Da.CE.DJ.EP.C2.CF.Dr.Cm.Ch.DJ.Cw.DG.Ie.IfQt.Qt.Qt.Qt.Qt.Qt.Qt.Qt.Qt.Qt.Qt.Qt.Qt.Qt.Qt.Qt.Qt.Qt.Qt.Qt.Qt.Qt.Qt.Qt.Qt.Qt.Qt.Qt.Qt..#F.Ig.Ih.Ii.Ij.Ik.Il.Im.In.Io.Ip.Iq.Ir.Is.It.HA.IuQt.Qt.Qt.Qt..Iv.Iw.Ix.Iy.Iz.IA.IB.IC.ID.IE.IF.IG.IF.IH.II.IJ.IK.IL.IM.aVQt.Qt.Qt.Qt.Qt.Qt.Qt.Qt.Qt.Qt.Qt.Qt.Qt.Qt.Qt.Qt.Qt.Qt.Qt.Qt.Qt.Qt.Qt.Qt.Qt.Qt.Qt.Qt.Qt.Qt.Qt.Qt.Qt.Qt.Qt.Qt.",
"Qt.Qt.Qt.Qt.Qt.Qt.Qt.Qt.Qt.Qt.Qt.Qt.Qt.Qt.Qt.Qt.Qt.Qt..IN.IO.Ch.Ch.Cw.Dg.Ci.Cn.Cx.CE.CE.DJ.CE.Cy.Ch.Da.CE.CI.Cw.Dg.DJ.DJ.CE.DJ.CE.CE.DJ.DJ.CI.Dg.Cm.Da.DJ.Dl.Di.CF.CF.Dr.Di.Er.Cq.IP.IQ.IR.IS.IT.IU.IV.IW.IX.IY.IZ.I0.I1.I2.Di.I3.I4.I5.I6.Gq.I7Qt.Qt.Qt.Qt.Qt.Qt.Qt.Qt.Qt.Qt.Qt.Qt.Qt.Qt.Qt.Qt.Qt.Qt.Qt.Qt.Qt.Qt.Qt.Qt.Qt.Qt.Qt.Qt.Qt.Qt.Qt.Qt.Qt.Qt.Qt.Qt.Qt.Qt.Qt.Qt.Qt.Qt.Qt.Qt.Qt.Qt.Qt.Qt.Qt.Qt.Qt.Qt..I8.I9.uQ.J..J#.Cg.CE.Ja.Ch.Ch.Ch.Ch.Ch.Ch.Ch.Ch.Ch.Ch.Ch.Ch.Ch.Ch.Ch.Ch.Ch.Jb.Gu.CE.CE.DJ.DK.Ch.Da.Da.DJ.CI.Cw.Dk.DJ.DJ.DJ.DJ.CI.CI.Dk.CF.DJ.Cu.Cm.DJ.DJ.CE.CE.DJ.Dr.DJ.DK.DJ.CB.Cw.Jc.JdQt.Qt.Qt.Qt.Qt.Qt.Qt.Qt.Qt.Qt.Qt.Qt.Qt.Qt.Qt.Qt.Qt.Qt.Qt.Qt.Qt.Qt.Qt.Qt.Qt.Qt.Qt.Qt.Qt..#F.Ck.Dw.Je.Jf.Jg.Jh.Ji.Jj.Jk.Jl.Jm.Jn.Jn.Jo.Jp.JqQt.Qt.Qt.Qt..Jr.Js.Jt.Ju.Jv.Jw.Jx.Jy.Jz.JA.JB.JC.JD.CA.JE.JE.JF.JG.JH.aVQt.Qt.Qt.Qt.Qt.Qt.Qt.Qt.Qt.Qt.Qt.Qt.Qt.Qt.Qt.Qt.Qt.Qt.Qt.Qt.Qt.Qt.Qt.Qt.Qt.Qt.Qt.Qt.Qt.Qt.Qt.Qt.Qt.Qt.Qt.Qt.",
"Qt.Qt.Qt.Qt.Qt.Qt.Qt.Qt.Qt.Qt.Qt.Qt.Qt.Qt.Qt.Qt.Qt..#U.JI.JJ.Ch.CF.CI.Cl.Ch.Cm.DJ.DJ.DJ.CE.Ch.DJ.CE.Ch.DJ.CI.CI.Di.CF.DJ.DJ.CE.Da.Ch.CI.DJ.Cy.CF.CC.CE.CC.CE.Dg.CF.CF.DY.FG.Dk.Co.JK.JL.JM.JN.JO.JP.JQ.JR.JS.JT.JU.JV.JW.Eq.JX.EQ.JY.JZ.uM.J0.J1.J2.J3.J4.J5.J6.J7.J6.J5.J8.J2.J2.J5.J8.J3.J2.J5.J6.J7.J5.J5.J8.J2.J2.J5.J5.J8.J5.J4.J2.J2.J5.J2.J4.J4.J9.J5.J5.J5.J5.J2.J9.J5.J9.J9.J2.J5.J5.J5.J8.J2.J9.J5.K..Aj.w2.K#.Ka.Kb.DJ.Ch.Ch.Ch.Ch.Ch.Ch.Ch.Ch.Ch.Ch.Ch.Ch.Ch.Ch.Ch.Ch.Ch.Ch.Kc.CE.Cm.DJ.CE.Ch.CI.Ch.Ch.DJ.CI.CI.Di.CF.DJ.DJ.CE.Cu.CI.Dg.Dg.DJ.DJ.DJ.CE.Ch.CE.CE.Cm.CC.Dr.CF.DJ.DJ.Dr.Fg.KdQt.Qt.Qt.Qt.Qt.Qt.Qt.Qt.Qt.Qt.Qt.Qt.Qt.Qt.Qt.Qt.Qt.Qt.Qt.Qt.Qt.Qt.Qt.Qt.Qt.Qt.Qt.Qt.Qt..EW.CZ.Ke.Kf.Kg.Kh.Ki.Kj.Kk.Kl.Km.Kn.Ko.Kp.Kq.Fg.KrQt.Qt.Qt.Qt..Jr.Ks.Kt.Ku.Kv.Kw.Kx.Ky.Kz.KA.KB.KC.KD.KE.KF.KG.KH.KI.KJ.aVQt.Qt.Qt.Qt.Qt.Qt.Qt.Qt.Qt.Qt.Qt.Qt.Qt.Qt.Qt.Qt.Qt.Qt.Qt.Qt.Qt.Qt.Qt.Qt.Qt.Qt.Qt.Qt.Qt.Qt.Qt.Qt.Qt.Qt.Qt.Qt.",
"Qt.Qt.Qt.Qt.Qt.Qt.Qt.Qt.Qt.Qt.Qt.Qt.Qt.Qt.Qt.Qt.Qt..p2.KK.Ci.Ci.Dg.Dg.DG.Ch.Cl.CF.Dd.Cw.CI.CF.DJ.CE.CE.CI.Dg.CI.Dg.Dr.CI.CI.CE.DK.CE.CE.DJ.CF.DJ.Dr.CC.CC.CC.Dk.Di.CC.CF.DY.Dg.Dr.KL.Cw.KM.Dk.KN.KO.KP.KP.CF.KL.KQ.Dq.KR.Dr.I#.Dg.JY.KS.vb.KT.KU.KV.KW.KX.KY.KZ.K0.K0.K1.K1.KY.KY.KY.K2.KW.K2.K1.K3.K4.K0.K3.K1.K1.K5.K1.K5.K5.K2.KX.KW.vH.vH.KW.K6.K6.K7.K7.K7.K8.K9.L..L#.La.La.L..L..K7.K7.K8.L..L..L#.L#.z0.Lb.Lc.Ld.Le.CZ.CE.Ch.Ch.Ch.Cr.Lf.Ch.Ch.Ch.Ch.Ch.Ch.Ch.Ch.Ch.Ch.Ch.Ch.Ch.CI.Dl.CF.CI.DJ.CF.DJ.DJ.Ch.DJ.CF.DJ.Dg.Dr.CI.CI.DK.Cu.CF.CI.DY.Cx.CI.CE.DK.Da.CE.CI.CC.DJ.Dr.KR.DJ.CC.Dg.CF.Lg.LhQt.Qt.Qt.Qt.Qt.Qt.Qt.Qt.Qt.Qt.Qt.Qt.Qt.Qt.Qt.Qt.Qt.Qt.Qt.Qt.Qt.Qt.Qt.Qt.Qt.Qt.Qt.Qt..EY.Li.Lj.Lk.Ll.Lm.Ln.Lo.Lp.Lq.Lr.Ls.Lt.Lu.Lv.Lw.IuQt.Qt.Qt.Qt..Jr.Lx.IZ.Ly.Lz.LA.LB.LC.LD.LE.LF.LG.LH.LI.LJ.LK.LL.LM.LN.aVQt.Qt.Qt.Qt.Qt.Qt.Qt.Qt.Qt.Qt.Qt.Qt.Qt.Qt.Qt.Qt.Qt.Qt.Qt.Qt.Qt.Qt.Qt.Qt.Qt.Qt.Qt.Qt.Qt.Qt.Qt.Qt.Qt.Qt.Qt.Qt.",
"Qt.Qt.Qt.Qt.Qt.Qt.Qt.Qt.Qt.Qt.Qt.Qt.Qt.Qt.Qt.Qt.Qt..LO.DN.Ch.Da.CE.Dr.DJ.Ch.Ch.CF.Dg.Cw.DJ.CE.CI.Da.Da.Cm.CF.CF.Cw.Di.DJ.CI.CE.CE.CE.Dg.Dr.CF.CC.Cw.Dr.CF.Dg.Dg.FG.Dk.Dg.DY.DY.LP.LQ.LR.LS.LT.LU.LV.LW.LX.LY.LZ.L0.L1.L2.L3.DY.Dr.L4.L5.Hg.L6.L7.KZ.L8.L9.M..M#.M#.Ma.Ma.Ma.Mb.Mb.Mc.Md.Md.Md.Me.Me.Ma.Mf.Mg.Mf.Mf.Mf.Mf.Mf.Mf.Mf.Me.Mh.Mh.Mh.Me.Me.Mh.Md.Md.Md.Md.Mb.Mi.Mj.Mk.Ml.Mj.Mm.Md.Md.Mc.Mm.Mj.Ml.Mn.Mo.Mp.Mq.Mr.Ms.CZ.CE.Mt.Ch.Ch.Ch.Ch.Ch.Ch.Ch.Ch.Ch.Ch.Ch.Ch.Ch.Ch.Ch.Ch.Ch.Ch.EQ.Cw.Cw.DJ.DJ.CC.Ch.DK.DJ.Dr.CI.Cw.DY.CI.CI.DJ.CE.CI.Gu.Dg.CF.CI.CI.Gu.CE.CE.DJ.CF.DJ.Cw.Dr.CF.Dg.Cw.De.Mu.MvQt.Qt.Qt.Qt.Qt.Qt.Qt.Qt.Qt.Qt.Qt.Qt.Qt.Qt.Qt.Qt.Qt.Qt.Qt.Qt.Qt.Qt.Qt.Qt.Qt.Qt.Qt.Qt..EY.Mw.Mx.My.Mz.MA.MB.MC.MD.ME.MF.MG.MH.MI.MJ.FN.MKQt.Qt.Qt.Qt..ML.MM.MN.MO.MP.MQ.MR.MS.MT.MU.MV.MW.MX.MY.MZ.M0.M1.M2.M3.aVQt.Qt.Qt.Qt.Qt.Qt.Qt.Qt.Qt.Qt.Qt.Qt.Qt.Qt.Qt.Qt.Qt.Qt.Qt.Qt.Qt.Qt.Qt.Qt.Qt.Qt.Qt.Qt.Qt.Qt.Qt.Qt.Qt.Qt.Qt.Qt.",
"Qt.Qt.Qt.Qt.Qt.Qt.Qt.Qt.Qt.Qt.Qt.Qt.Qt.Qt.Qt.Qt..M4.M5.M6.CI.CE.Cl.CE.EQ.CE.Ci.Cm.Dg.Cw.CI.CE.CE.Da.Da.Ch.CF.CE.CI.FG.CF.CE.CE.Ch.CE.M7.Dr.CF.Dr.Dg.Di.CC.Dg.CF.Di.Di.DY.DY.Di.M8.M9.N..N#.Na.Nb.Nc.Nd.Ne.Nf.Ng.Nh.Ni.Nj.Nk.DY.Dr.Nl.Ec.Nm.Nn.No.Np.Mn.Nq.Mj.Nr.Mc.Mh.Me.Md.Nr.Md.M#.Ns.Ma.Ma.Mg.Mg.Ma.Nt.Nt.Nt.Nt.Nu.Nu.Mg.Nt.Nt.Mf.Mg.Ma.Mg.Ma.Ma.Ma.Ma.Me.Me.Md.Nv.Mb.Nw.Mj.Mj.Nx.Mb.Me.Me.Md.Mb.Mb.Ml.Ny.Nz.NA.NB.Mr.BX.Cq.CB.Ch.Ch.Ch.Ch.Ch.Ch.Ch.Ch.Ch.Ch.Ch.Ch.Ch.Ch.Ch.Ch.Ch.Ch.NC.CF.CF.Cw.CE.CI.EP.Da.Ch.DJ.CF.CF.Cw.FG.CI.CI.CE.CE.CF.CI.Di.Cw.Gu.CI.Ch.Cy.Gu.Dg.CF.CF.Dk.DY.CC.Dr.Dg.Dk.Ci.ND.NEQt.Qt.Qt.Qt.Qt.Qt.Qt.Qt.Qt.Qt.Qt.Qt.Qt.Qt.Qt.Qt.Qt.Qt.Qt.Qt.Qt.Qt.Qt.Qt.Qt.Qt.Qt..EZ.NF.NG.NH.NI.NJ.NK.NL.NM.NN.NO.NP.NQ.NR.NS.NT.KrQt.Qt.Qt.Qt..Iv.FN.Mt.NU.ET.C2.NV.Cq.Cl.Cs.I#.NW.F9.CG.NX.NY.NZ.N0.JH.aVQt.Qt.Qt.Qt.Qt.Qt.Qt.Qt.Qt.Qt.Qt.Qt.Qt.Qt.Qt.Qt.Qt.Qt.Qt.Qt.Qt.Qt.Qt.Qt.Qt.Qt.Qt.Qt.Qt.Qt.Qt.Qt.Qt.Qt.Qt.Qt.",
"Qt.Qt.Qt.Qt.Qt.Qt.Qt.Qt.Qt.Qt.Qt.Qt.Qt.Qt..aV.N1.N2.DG.Gu.Dl.CE.Ch.Ch.CF.DJ.Da.Cm.Dg.Cw.CI.EP.CE.CE.Da.Da.CE.EP.C3.JX.CD.CE.Cx.CE.ER.Fi.Dr.Dr.Dr.DY.EQ.Dr.CI.DJ.Di.FG.Dg.DY.DY.LP.N3.N4.N5.N6.N7.N8.N9.O..O#.Oa.Ob.Oc.Od.Oe.Di.DY.Of.Og.Oh.uX.Oi.K8.Mn.L9.Oj.M..M..Mb.Nr.Nr.Md.Me.Ma.Ok.Ok.Mg.Nt.Mg.Nt.Ol.Om.Om.Om.Ol.Om.Om.Om.On.Nu.Nt.On.On.Nt.Nt.Nt.Nt.Ok.Me.Me.M#.Mc.Nv.Mi.Mm.Nv.Mc.Ok.Me.Me.Md.Nv.Mj.xs.Oo.Op.Oq.Mr.Or.C2.CF.Ch.Ch.Ch.Ch.Ch.Ch.Ch.Ch.Ch.Ch.Ch.Ch.Ch.Ch.Ch.Ch.Ch.Ch.Os.CF.Cw.CF.CE.CE.CE.Da.Da.CE.CF.CE.CI.I#.CF.CE.CE.CE.CI.CE.Dk.Di.DJ.CE.CE.Ch.DJ.Fi.Dr.Dr.DY.EQ.Dr.CF.CF.Di.FG.CB.Ot.Ou.OvQt.Qt.Qt.Qt.Qt.Qt.Qt.Qt.Qt.Qt.Qt.Qt.Qt.Qt.Qt.Qt.Qt.Qt.Qt.Qt.Qt.Qt.Qt.Qt.Qt..EY.Cm.CG.Ow.Ox.Oy.Oz.OA.OB.OC.OD.OE.OF.OG.OH.Fg.OIQt.Qt.Qt.Qt..OJ.OK.OL.OM.ON.OO.OP.OQ.OR.OS.OT.OU.OV.OW.OX.OY.OZ.O0.O1.aVQt.Qt.Qt.Qt.Qt.Qt.Qt.Qt.Qt.Qt.Qt.Qt.Qt.Qt.Qt.Qt.Qt.Qt.Qt.Qt.Qt.Qt.Qt.Qt.Qt.Qt.Qt.Qt.Qt.Qt.Qt.Qt.Qt.Qt.Qt.Qt.",
"Qt.Qt.Qt.Qt.Qt.Qt.Qt.Qt.Qt.Qt.Qt.Qt.QtM.O2.O3.O4.O5.Db.Ch.CC.Cv.Ch.Ch.Ch.Ch.Ch.CE.Cx.Eb.Df.EP.C1.Cx.CE.CE.CI.CI.CI.Cw.Di.CF.Cx.C3.O6.Fi.CF.CC.Dr.Di.Dg.Cw.DJ.C2.Dr.Di.Dg.Dg.Dr.Ek.NW.O7.O8.O9.P..P#.Pa.Pb.F9.Pc.Pd.Pe.Pf.Dg.Di.Dp.KK.Pg.Ph.Pi.Pj.K8.Nz.L9.Mb.M#.Mc.Nr.Md.Md.M#.Ok.Nt.Nt.Nt.On.Ol.Ol.Pk.Pl.Pl.Pm.Pl.Pl.Pl.Pm.Pl.Pl.Pl.Om.Om.Ol.Ol.Ol.Ol.On.On.On.Nt.Ok.Ok.M#.M#.M#.M#.Ok.On.Nt.Mg.Ok.M#.Nv.Pn.Po.Pp.Pq.Pr.Ka.Cy.CF.Ch.Ch.Ch.Ch.Ch.Ch.Ch.Ch.Ch.Ch.Ch.Ch.Ch.Ch.Ch.Ch.Ch.Ch.CF.CF.CD.Cw.CB.CE.CE.Da.Da.CE.DJ.EP.DJ.JX.CD.CE.DJ.EP.DJ.EP.Ek.JX.CI.CE.EP.Cz.Cx.Fi.CF.Dr.Di.DY.Dg.CF.CC.Dg.FG.Dr.Ps.Pt.Pu.PvQt#Qt.Qt.Qt.Qt.Qt.Qt.Qt.Qt.Qt.Qt.Qt.Qt.Qt.Qt.Qt.Qt.Qt.Qt.Qt.Qt.Qt.Qt.Qt..EY.Ig.Pw.Px.Py.Pz.PA.PB.PC.PD.PE.PF.PG.PH.PI.PJ.MKQt.Qt.Qt.Qt..PK.PL.PM.PN.PO.PP.PQ.PR.PS.PT.PU.PV.PW.PX.PY.PZ.P0.P1.P2.aVQt.Qt.Qt.Qt.Qt.Qt.Qt.Qt.Qt.Qt.Qt.Qt.Qt.Qt.Qt.Qt.Qt.Qt.Qt.Qt.Qt.Qt.Qt.Qt.Qt.Qt.Qt.Qt.Qt.Qt.Qt.Qt.Qt.Qt.Qt.Qt.",
"Qt.Qt.Qt.Qt.Qt.Qt.Qt.Qt.Qt.Qt.Qt..P3.P4.P5.P6.P7.P8.CV.CY.CV.Cm.CY.CY.CV.CY.Ce.CV.Kb.P9.Q..Cx.Q#.Kb.Kb.Kb.DG.Cg.Cg.ET.Ch.CC.Cs.Cs.Cm.Ch.Ck.Cj.Da.Cm.Ch.Ci.Ci.Ci.CA.Ch.Cm.Cn.Co.Ch.Cn.DI.Hm.Dn.CC.KL.C0.CZ.CE.Cd.Qa.Qb.Cd.Ch.Ch.Co.CG.Qc.I9.Qd.Qe.K8.Mn.L9.M#.On.Ok.Ma.Ok.Mg.Nt.Pl.Pl.Qf.Qf.Qf.Qf.Qf.Qf.Qg.Qh.Qh.Qh.Qf.Qf.Qg.Qi.Qi.Qf.Qf.Qf.Qf.Qf.Qf.Qf.Qj.Pm.Pl.Pl.Ol.On.On.Ok.Ok.On.Om.Pl.Pl.Om.On.On.Ok.Mk.Qk.Ql.Qm.uY.Qn.CY.Cg.Ce.Qo.Qp.Qq.Qr.CY.Fg.FH.FH.JG.Fg.Fg.Qs.CT.CY.C0.Qt.CV.CV.Cj.DG.DG.DG.Qu.CV.Cg.Ce.CV.Kb.Kb.Kb.Da.Cz.Cj.EO.DG.Kb.Kb.Ci.DJ.Cl.EO.Qv.Cg.Q#.CI.Cn.Cl.Cm.Cm.CC.KL.Cl.Ci.Ch.Ch.Qw.Qx.Qy.Qz.QA.QBQt.Qt.Qt.Qt.Qt.Qt.Qt.Qt.Qt.Qt.Qt.Qt.Qt.Qt.Qt.Qt.Qt.Qt.Qt.Qt.Qt.Qt..EY.QC.QD.QE.QF.QG.QH.QI.QJ.QK.QL.QM.QN.QO.QP.QQ.JqQt.Qt.Qt.Qt..QR.QS.QT.QU.QV.QW.QX.QY.QZ.Q0.Q1.Q2.Q3.Q4.Q5.Q5.Q6.Q7.P2.aVQt.Qt.Qt.Qt.Qt.Qt.Qt.Qt.Qt.Qt.Qt.Qt.Qt.Qt.Qt.Qt.Qt.Qt.Qt.Qt.Qt.Qt.Qt.Qt.Qt.Qt.Qt.Qt.Qt.Qt.Qt.Qt.Qt.Qt.Qt.Qt.",
"Qt.Qt.Qt.Qt.Qt.Qt.Qt.Qt.Qt..Q8.Q9.R..R#.Ra.Rb.Rc.Rd.Re.Rf.Rg.Rh.Ri.Rj.Rk.Rk.Rk.Rk.Rk.Rj.Rk.Rl.Rm.Rn.Rn.Ro.Rp.Rq.Rr.Rs.Rt.Ro.Ru.Rv.Rp.Rv.Rw.Rw.Rx.Ry.Rx.Rz.RA.RB.RC.RC.RD.RE.RF.RG.RH.RI.RJ.RK.RL.RK.RM.RN.RG.RO.RL.RO.RG.RP.RQ.RR.RS.RT.RU.RV.RW.Mo.Qk.Qk.RX.RY.RZ.RZ.R0.RZ.R0.RY.RY.R1.R1.R1.R1.Mj.Mm.Mm.Nv.Mc.Mc.Mc.Mm.Mm.Mm.Mm.Mm.Mj.R1.R2.M..Mj.R1.R1.R1.R1.RY.RY.RY.R3.R3.R3.R3.RY.R1.R1.RY.RY.R4.RZ.Qk.R5.R6.R7.R8.R9.S..S#.Sa.Sa.Sb.S..S..Sc.Sd.Sc.Sc.S..S..Sa.Sa.Sa.S#.Se.Sf.Sg.Se.Sg.Sh.Si.Sj.Sk.S#.S#.Sl.nn.Sm.Sn.So.Sp.Sq.Sr.yx.Ss.Ss.Ss.St.Su.Sv.Sw.Sx.oq.oq.Sy.Sz.SA.SB.Sz.Sz.SC.Sz.SB.SB.Ss.SA.SD.SE.SF.SG.SH.SI.SJQt.Qt.Qt.Qt.Qt.Qt.Qt.Qt.Qt.Qt.Qt.Qt.Qt.Qt.Qt.Qt.Qt.Qt.Qt.Qt..SK.PJ.SL.SM.SN.SO.SP.SQ.SR.SS.ST.SU.SV.SW.SX.QQ.SYQt.Qt.Qt.Qt..SZ.S0.S1.S2.S3.S4.S5.S6.S7.S8.S9.T..T#.Ta.Tb.Tc.Td.Te.Tf.aVQt.Qt.Qt.Qt.Qt.Qt.Qt.Qt.Qt.Qt.Qt.Qt.Qt.Qt.Qt.Qt.Qt.Qt.Qt.Qt.Qt.Qt.Qt.Qt.Qt.Qt.Qt.Qt.Qt.Qt.Qt.Qt.Qt.Qt.Qt.Qt.",
"Qt.Qt.Qt.Qt.Qt.Qt.Qt..Tg.Th.Ti.Rb.Tj.Tk.Tl.Tm.Tm.Tn.To.Tp.Tq.Tq.Tr.Ts.Ts.Tt.Tu.Tu.Tv.Tv.Tw.Tw.Tx.Ty.Tz.Tz.d3.Tz.Tz.TA.Tz.TA.TB.TB.TC.TC.TD.TE.TE.TE.TF.TF.TF.TG.TF.TF.TG.TG.zx.TG.TG.TG.TH.TH.TI.TJ.TK.TK.TL.Tk.TK.TM.TN.TO.TP.TQ.TR.TS.TT.TU.TV.TT.TV.TU.TW.TW.TX.TW.TW.TY.TW.TZ.TX.TV.TX.TV.TV.TW.T0.T1.T0.T1.T2.T2.T3.T0.T4.T3.T3.T0.T0.T5.T0.T0.T5.T5.T5.T5.xh.xh.TW.TW.TZ.T6.T6.TW.TW.TX.TX.TX.TX.TZ.T7.T7.T8.T8.T9.U..U#.Ua.Ua.Ua.Ua.U#.U#.Ub.Uc.Uc.Ud.Ue.Uf.Ue.Ug.Uh.Ui.Uj.Uj.Uk.Ul.Um.Un.Uo.Uo.TJ.Up.TF.Tj.Tj.Uq.Uq.dx.Ur.Us.Us.Us.Us.Ut.Ut.Ut.Uu.Uv.Ty.TA.Tx.Tx.Tw.bU.Tu.Ts.cr.Uw.Ux.Ux.Ux.Uy.Uz.UA.UB.UC.UD.UE.Tt.UF.Uz.UG.UHQt.Qt.Qt.Qt.Qt.Qt.Qt.Qt.Qt.Qt.Qt.Qt.Qt.Qt.Qt.Qt.Qt.Qt..UI.UJ.UK.UL.UL.UM.UN.UN.UL.UO.UP.UQ.UR.UR.US.UT.UUQt.Qt.Qt.Qt..UV.UW.UX.UX.UY.UZ.U0.U1.U0.UZ.U2.U2.U3.U4.U5.U6.U7.U8.U9Qt.Qt.Qt.Qt.Qt.Qt.Qt.Qt.Qt.Qt.Qt.Qt.Qt.Qt.Qt.Qt.Qt.Qt.Qt.Qt.Qt.Qt.Qt.Qt.Qt.Qt.Qt.Qt.Qt.Qt.Qt.Qt.Qt.Qt.Qt.Qt.Qt.",
"Qt.Qt.Qt.Qt.Qt..me.V..V#.Va.Vb.Vc.Vd.Ve.Tm.Vf.Vg.Vh.Vi.Vj.Vj.Vk.UA.Uz.cr.Vl.dy.Vm.Vn.Vo.Vo.Vo.Vp.Vq.Vr.Vs.Vt.Vu.Vv.Vu.Vw.Vw.Vw.Vu.Vh.Vx.Vy.Vz.VA.VB.VC.VC.VC.VD.VE.VE.VF.VG.VH.VH.VI.VJ.zC.VK.VL.VL.VM.VN.VO.VO.VO.VP.VP.VQ.Ud.VR.VS.VT.VU.VV.VV.VW.VW.VX.VY.VY.VZ.VZ.V0.V1.VY.V2.V3.VX.V4.V5.V3.V3.V3.V6.V7.V3.V5.V6.V5.VV.V5.V5.V3.V4.V8.V4.V3.V3.VW.V3.V7.VW.V4.V9.W..W..W..W..W#.Wa.W..Wb.zj.Wc.Wd.Wc.Wc.We.Wc.Wc.Wf.Wg.Wh.Wi.bd.bd.Wj.Wj.Wi.Wk.Wl.Wm.Wn.Wn.Wo.Uf.Ug.Ui.Wp.Uj.VK.Wq.bn.zB.Un.zG.Wr.bb.Un.bb.Ws.Wt.Um.bn.Ws.TH.Uo.Ws.Wu.bb.bb.Wv.bb.bb.VF.Ws.Un.Wt.Up.Up.TF.Ww.Wx.d3.Vq.Wy.Vn.Vn.Vn.Vn.Vn.Wy.Vu.QA.Wz.Uu.Ty.WA.UF.VF.WB.WCQt.Qt.Qt.Qt.Qt.Qt.Qt.Qt.Qt.Qt.Qt.Qt.Qt.Qt.Qt.Qt.Qt.Qt.Qt.Qt.Qt.Qt.Qt.Qt.Qt.Qt.Qt.Qt.Qt.Qt.Qt.Qt.Qt.Qt.Qt.Qt.Qt.Qt.Qt.Qt.Qt.Qt.Qt.Qt.Qt.Qt.Qt.Qt.Qt.Qt.Qt.Qt.Qt.Qt.Qt.Qt.Qt.Qt.Qt.Qt.Qt.Qt.Qt.Qt.Qt.Qt.Qt.Qt.Qt.Qt.Qt.Qt.Qt.Qt.Qt.Qt.Qt.Qt.Qt.Qt.Qt.Qt.Qt.Qt.Qt.Qt.Qt.Qt.Qt.Qt.Qt.Qt.Qt.",
"Qt.Qt.Qt.Qt..WD.WE.WF.Vb.zw.zw.Vc.Vd.WG.WH.WI.WI.WJ.Vr.Vo.Vo.WK.Vn.WL.Wy.Vo.Vo.Vr.c3.c3.WM.WN.WO.WO.WO.WO.Vy.WO.Vy.WP.WQ.WR.pR.WS.VA.WQ.WT.WU.WU.bp.WV.WV.WW.WX.WY.WY.WZ.WZ.W0.W1.W1.W2.W3.W4.Uc.Ub.W5.W6.W6.W7.W8.W9.X..X#.Xa.R7.Xb.Xc.Xd.Xe.Xf.VZ.VZ.Xg.Xh.Xh.Xi.Xj.Xk.Xg.Xl.Xg.Xm.Xm.Xn.Xl.Xo.Wd.Xo.Wf.Wc.Xp.Wd.Wf.Wc.Xo.Xm.Xm.Xm.Xm.Xl.Xq.Xl.Xr.Xs.Xs.Xs.Xl.Xt.Xu.Xq.Xq.Xq.Xu.Xu.XqQtv.Xv.Xw.Xw.Xx.Xy.Xz.Xx.Xz.XA.XB.XC.XD.XE.XF.XF.XG.XH.XI.XJ.X#.XK.XL.XL.XM.XN.XO.XP.WI.Wo.XQ.XR.XS.VK.XT.XU.XV.XW.XV.XX.XY.Wv.XY.XY.Wq.Un.bn.XZ.Wq.XX.XX.XX.XX.XY.bb.bn.bb.Un.X0.X1.VB.QA.X2.d3.Wx.Vq.Vp.Vo.Vq.Vr.Vr.X3.QA.Vx.X4.X5.Vz.TA.Tx.X6.X7.X8.X9Qt.Qt.Qt.Qt.Qt.Qt.Qt.Qt.Qt.Qt.Qt.Qt.Qt.Qt.Qt.Qt.Qt.Qt.Qt.Qt.Qt.Qt.Qt.Qt.Qt.Qt.Qt.Qt.Qt.Qt.Qt.Qt.Qt.Qt.Qt.Qt.Qt.Qt.Qt.Qt.Qt.Qt.Qt.Qt.Qt.Qt.Qt.Qt.Qt.Qt.Qt.Qt.Qt.Qt.Qt.Qt.Qt.Qt.Qt.Qt.Qt.Qt.Qt.Qt.Qt.Qt.Qt.Qt.Qt.Qt.Qt.Qt.Qt.Qt.Qt.Qt.Qt.Qt.Qt.Qt.Qt.Qt.Qt.Qt.Qt.Qt.Qt.Qt.Qt.Qt.Qt.Qt.",
"Qt.Qt..li.Y..Uk.Tk.Y#.Tm.Ya.Tm.Yb.Yc.Yd.Ye.XN.XN.Yf.Yg.TB.TB.Yh.TB.TB.TB.TB.QA.QA.Vx.TD.X1.VE.WJ.VB.WJ.WJ.Up.VB.WJ.X1.VC.bp.VH.Wr.Wr.X0.X0.Un.Wr.VH.VG.VG.Wv.Wv.XU.XU.XU.Yi.Yi.Yj.Yj.XQ.Yk.Ui.Ug.Wo.Yl.Ym.Yn.Yo.Yp.Yo.Yq.Yr.Ys.uN.Yt.Yu.Yv.Yw.Yx.Yy.Yz.YA.YB.So.So.Sq.Sq.Sq.YC.Sq.YD.St.Sl.YE.yx.yx.YE.yz.yz.YF.YF.YG.Sy.yx.YF.YH.YH.YH.yA.YI.YJ.YJ.YH.YK.YJ.yw.yw.yw.yA.YL.YL.YL.YM.YN.wH.YO.YK.YP.oq.YK.YQ.yG.YR.YS.YT.YU.YV.YW.YX.XH.YY.YZ.Y0.Y1.Y2.XM.XM.WI.WI.Y3.Ug.Y4.WH.Tm.VK.Ul.zC.VK.XS.XX.Y5.XV.XV.XV.XY.Wv.XY.Y6.XY.Y7.Y7.Y7.XS.Y8.Y8.Y9.Y8.Y8.Y7.Y7.XS.XX.Y7.Y7.Z..Z#.Za.Z#.XZ.bb.bb.VF.Un.bn.bb.Wq.Yf.XZ.Y7.Zb.Zc.Y8.Zd.Ze.Zf.Zg.Zh.Zi.ZjQt.Qt.Qt.Qt.Qt.Qt.Qt.Qt.Qt.Qt.Qt.Qt.Qt.Qt.Qt.Qt.Qt.Qt.Qt.Qt.Qt.Qt.Qt.Qt.Qt.Qt.Qt.Qt.Qt.Qt.Qt.Qt.Qt.Qt.Qt.Qt.Qt.Qt.Qt.Qt.Qt.Qt.Qt.Qt.Qt.Qt.Qt.Qt.Qt.Qt.Qt.Qt.Qt.Qt.Qt.Qt.Qt.Qt.Qt.Qt.Qt.Qt.Qt.Qt.Qt.Qt.Qt.Qt.Qt.Qt.Qt.Qt.Qt.Qt.Qt.Qt.Qt.Qt.Qt.Qt.Qt.Qt.Qt.Qt.Qt.Qt.Qt.Qt.Qt.Qt.",
"Qt.Qt..Zk.Zl.TU.Zm.TT.Zn.Zo.Zp.Zm.Zm.TV.TT.TT.Zn.Zn.Zn.Zq.Bu.Zr.Zs.Zs.Zt.Zu.Zn.Zv.Zw.Zv.Bu.TT.TV.Zv.TY.TV.Bu.Zq.Zq.Zq.Zq.Zn.Zs.Zx.Zy.Zs.Zz.Zx.ZA.ZA.ZB.Zs.Zs.Zy.ZC.ZC.Zx.ZD.ZE.ZF.ZF.ZG.ZH.ZI.ZH.ZF.ZJ.ZF.ZF.ZK.ZL.ZL.ZM.Zo.ZN.ZO.ZP.ZQ.ZR.ZS.ZT.ZU.ZV.ZW.ZX.ZY.ZW.ZZ.ZU.ZU.Z0.ZU.Z0.Z1.ZV.Z0.Z2.Z2.Z1.Z1.Z1.Z2.Z3.Z1.ZV.Z0.Z2.Z2.Z1.Z1.Z1.Z1.Z2.Z2.ZV.ZU.Z4.Z1.Z5.Z5.Z2.Z6.Z1.Z1.Z7.Z7.Z8.Z7.Z1.ZU.Z9.Z0.0..0#.0a.0b.0c.0d.u9.0e.0f.0g.0g.0g.0g.0g.0h.0i.0h.0j.0g.0k.0l.0m.0l.0n.0o.0p.0q.0f.0f.0f.0r.0s.0s.0h.0g.0g.0g.0t.0u.0u.0v.0w.0h.0x.0t.0y.TZ.T7.T7.0p.0f.0r.0n.0i.0z.0j.0A.0B.0j.0s.0i.0C.0B.0B.ZL.0B.0D.0E.0E.0i.0r.0r.Zq.Zq.T8.0r.0C.e6.0FQt.Qt.Qt.Qt.Qt.Qt.Qt.Qt.Qt.Qt.Qt.Qt.Qt.Qt.Qt.Qt.Qt.Qt.Qt.Qt.Qt.Qt.Qt.Qt.Qt.Qt.Qt.Qt.Qt.Qt.Qt.Qt.Qt.Qt.Qt.Qt.Qt.Qt.Qt.Qt.Qt.Qt.Qt.Qt.Qt.Qt.Qt.Qt.Qt.Qt.Qt.Qt.Qt.Qt.Qt.Qt.Qt.Qt.Qt.Qt.Qt.Qt.Qt.Qt.Qt.Qt.Qt.Qt.Qt.Qt.Qt.Qt.Qt.Qt.Qt.Qt.Qt.Qt.Qt.Qt.Qt.Qt.Qt.Qt.Qt.Qt.Qt.Qt.Qt.Qt.",
"Qt.Qt..0G.0H.0I.0J.0K.0I.0L.0I.0M.0N.0M.0O.0P.0Q.0R.0S.XB.0T.0U.0V.0W.XB.0V.0W.XB.0X.0Y.VZ.VZ.0Z.00.0Z.00.01.02.03.04.04.05.05.05.06.07.08.08.08.08.08.08.08.09.1..1#.1#.1#.1a.1a.1b.1c.1c.1d.1d.1d.1c.1d.1d.1d.1e.1f.1g.1h.1i.1j.1k.1l.1m.1n.1o.1p.1q.1r.1s.1s.1q.1t.1s.1q.1q.1s.1q.1q.1s.1q.1r.1s.1u.1q.1s.1s.1q.1s.1s.1s.1r.1s.1u.1q.1s.1s.1q.1r.1s.1s.1q.1s.1s.1q.1q.1q.1s.1q.1q.1s.1q.1q.1u.1q.1s.1q.1p.1v.1w.1x.1y.1z.1A.1B.1C.1D.1E.1D.1F.1E.1D.1D.1D.1F.1G.1H.1H.1I.1J.1K.1L.1M.1M.1N.1O.1P.1Q.1R.1S.1R.1R.1R.1T.1U.1V.1W.1X.1Y.1Z.10.11.11.12.13.14.15.16.17.18.18.18.19.19.2..2#.2a.2b.2c.0O.2d.2e.2c.2f.2d.2f.2e.2f.2g.2f.2f.2g.2h.2i.2j.2kQt.Qt.Qt.Qt.Qt.Qt.Qt.Qt.Qt.Qt.Qt.Qt.Qt.Qt.Qt.Qt.Qt.Qt.Qt.Qt.Qt.Qt.Qt.Qt.Qt.Qt.Qt.Qt.Qt.Qt.Qt.Qt.Qt.Qt.Qt.Qt.Qt.Qt.Qt.Qt.Qt.Qt.Qt.Qt.Qt.Qt.Qt.Qt.Qt.Qt.Qt.Qt.Qt.Qt.Qt.Qt.Qt.Qt.Qt.Qt.Qt.Qt.Qt.Qt.Qt.Qt.Qt.Qt.Qt.Qt.Qt.Qt.Qt.Qt.Qt.Qt.Qt.Qt.Qt.Qt.Qt.Qt.Qt.Qt.Qt.Qt.Qt.Qt.Qt.Qt.",
"Qt.Qt..0G.Zy.2l.Xw.Xw.0X.0X.2m.2n.2o.2p.2q.2r.2s.2t.2s.2s.2u.2u.2v.2v.2w.2v.2v.2x.00.05.2y.2z.07.08.08.07.1..1..1..1#.1a.1a.1b.1b.1b.2A.2B.2C.2D.1e.2C.2E.1g.1e.1g.2F.2G.2G.2F.1f.1f.2H.2I.2I.2I.2I.2H.2H.2I.1g.2H.2J.1h.2K.Xj.2L.2M.2N.2O.1n.2P.2Q.1u.1u.1u.1u.1u.2R.1u.2R.1s.1s.1s.2R.1u.1s.2R.2S.2R.2R.1s.1s.2T.2R.2S.1s.2R.2R.2R.2R.1s.2U.2R.2R.1u.1u.1u.2V.1u.2R.1s.2R.2V.1s.2R.2S.2R.2R.2R.2R.1s.1s.2Q.2W.2X.xc.u5.2Y.2Z.20.21.22.23.24.22.25.25.25.25.26.27.26.27.28.1E.1F.1F.29.3..3..1I.3#.3a.3b.3b.3c.1L.1L.3c.1M.1M.3d.3e.1S.3f.3g.1V.1V.3h.3i.3j.3k.3l.3m.VW.V9.V9.V9.W..Wb.Wd.Wd.Xl.Xi.XqQtvQtv.Xv.3nQtv.3n.Xt.3n.XvQtv.Xt.3o.3p.3q.3r.3sQt.Qt.Qt.Qt.Qt.Qt.Qt.Qt.Qt.Qt.Qt.Qt.Qt.Qt.Qt.Qt.Qt.Qt.Qt.Qt.Qt.Qt.Qt.Qt.Qt.Qt.Qt.Qt.Qt.Qt.Qt.Qt.Qt.Qt.Qt.Qt.Qt.Qt.Qt.Qt.Qt.Qt.Qt.Qt.Qt.Qt.Qt.Qt.Qt.Qt.Qt.Qt.Qt.Qt.Qt.Qt.Qt.Qt.Qt.Qt.Qt.Qt.Qt.Qt.Qt.Qt.Qt.Qt.Qt.Qt.Qt.Qt.Qt.Qt.Qt.Qt.Qt.Qt.Qt.Qt.Qt.Qt.Qt.Qt.Qt.Qt.Qt.Qt.Qt.Qt.",
"Qt.Qt..3t.3u.3v.3w.3x.3y.3z.3A.3A.3B.3B.3C.3D.3E.3w.3F.3G.3H.on.3I.Ak.3I.3J.3K.3L.3M.wF.3N.z5.3O.R8.3P.3Q.3R.3S.3T.3U.3V.3W.3X.3Y.3Z.30.30.0e.0e.xj.31.RY.32.33.34.35.36.37.38.39.4..4..4#.4a.4b.4c.4d.4d.4c.4e.4e.4f.4f.4g.4h.4i.4j.4k.4l.4m.4n.4o.1q.2R.2R.1u.1s.2R.1u.1u.2R.1s.1u.2R.1u.1u.1u.2R.1u.2R.2R.1u.2R.2R.1u.1u.1u.2R.1u.2R.2R.1u.2R.2R.2R.1u.1s.2R.1u.2R.2R.1u.2R.1s.1u.1u.2R.1u.1u.2R.2R.1q.4p.4q.4r.4s.4t.4u.4v.4w.4x.4y.4y.4z.4A.4B.4C.Zl.4D.4E.4F.4G.4H.4I.4J.4K.4L.4M.Qf.4N.Pl.Pk.Pk.On.Ok.4O.Me.4P.R2.4Q.R4.4R.4S.4T.4U.4U.3T.4V.4W.4X.4Y.4Z.40.41.42.43.44.45.46.47.48.49.5..5#.5a.5b.5c.5d.5e.5f.5g.5h.5i.5j.5k.5l.5m.5n.3u.5o.5pQt.Qt.Qt.Qt.Qt.Qt.Qt.Qt.Qt.Qt.Qt.Qt.Qt.Qt.Qt.Qt.Qt.Qt.Qt.Qt.Qt.Qt.Qt.Qt.Qt.Qt.Qt.Qt.Qt.Qt.Qt.Qt.Qt.Qt.Qt.Qt.Qt.Qt.Qt.Qt.Qt.Qt.Qt.Qt.Qt.Qt.Qt.Qt.Qt.Qt.Qt.Qt.Qt.Qt.Qt.Qt.Qt.Qt.Qt.Qt.Qt.Qt.Qt.Qt.Qt.Qt.Qt.Qt.Qt.Qt.Qt.Qt.Qt.Qt.Qt.Qt.Qt.Qt.Qt.Qt.Qt.Qt.Qt.Qt.Qt.Qt.Qt.Qt.Qt.Qt.",
"Qt.Qt..5q.5r.5s.5t.5u.5v.5w.5x.5y.5z.5z.5A.5B.5A.5A.5C.5D.5E.5F.5G.5H.5F.5G.5G.5F.5I.5F.5J.5K.5L.5L.5M.5K.5L.5K.5N.5O.5P.wU.5H.5Q.5Q.5R.5R.5S.5R.5T.5U.5V.5V.5W.5X.wV.5X.5X.5W.5Y.5s.5Z.50.51.52.53.54.55.53.56.57.58.59.6..6#.6a.6b.6c.4l.4m.6d.6e.6f.2R.2R.1s.1s.2T.2R.1u.2R.2V.2V.2R.1s.1s.2R.2R.1u.1u.2V.2V.2V.2R.1s.2U.2R.2R.2R.1u.2V.2S.2V.2V.1t.2U.1s.2R.2R.1u.2R.2R.1s.2U.2R.2R.2R.1u.2V.1u.2V.1u.6g.6h.6i.6j.6k.6l.6m.6n.6m.6o.6p.6m.6q.5v.6r.6s.6s.6t.6t.6u.6v.6w.6x.5y.6y.5U.6z.5U.6A.6B.5R.5F.6C.1o.6D.5F.wU.6C.6C.6E.wJ.wS.wJ.wO.wO.6F.wK.6G.6H.6F.wO.6I.6J.6I.6K.6L.6L.6M.5O.6N.6O.6L.6P.6Q.6R.6S.6T.6T.6U.6V.6W.6X.6Y.6Z.60.61.62.63Qt.Qt.Qt.Qt.Qt.Qt.Qt.Qt.Qt.Qt.Qt.Qt.Qt.Qt.Qt.Qt.Qt.Qt.Qt.Qt.Qt.Qt.Qt.Qt.Qt.Qt.Qt.Qt.Qt.Qt.Qt.Qt.Qt.Qt.Qt.Qt.Qt.Qt.Qt.Qt.Qt.Qt.Qt.Qt.Qt.Qt.Qt.Qt.Qt.Qt.Qt.Qt.Qt.Qt.Qt.Qt.Qt.Qt.Qt.Qt.Qt.Qt.Qt.Qt.Qt.Qt.Qt.Qt.Qt.Qt.Qt.Qt.Qt.Qt.Qt.Qt.Qt.Qt.Qt.Qt.Qt.Qt.Qt.Qt.Qt.Qt.Qt.Qt.Qt.Qt.Qt.",
"Qt.Qt..WB.64.65.66.66.65.2S.2S.1u.67.1s.6f.6f.6f.6f.6f.68.6f.1u.1s.1s.1u.1u.1u.1u.1u.69.7..7#.7a.7b.7a.7..7..7c.7c.7c.7d.7e.7f.7g.7g.7h.7h.7i.7j.7k.7i.7h.7l.7f.7m.7f.7n.7o.7p.7q.7r.7p.7r.7r.7s.7t.7u.7u.7t.7u.7v.7w.7x.7y.7z.7A.7B.7C.7D.4r.7E.7F.69.2R.1u.2R.1u.1s.2S.2U.2V.2V.2V.2R.1u.1s.1u.2V.2S.2V.2V.2V.7G.2V.1u.1s.2R.2S.2S.2S.2V.2V.7G.7G.2R.1u.1u.1t.2S.2S.2V.2R.2R.1u.2R.2V.2V.2S.2V.2V.2V.1s.7H.7I.4r.7J.7K.Wx.7L.7r.7r.7r.7M.7N.7N.7q.7O.7p.7P.7N.7O.7q.7q.7Q.7R.7S.7T.7U.7U.7U.7j.7i.7V.7i.7i.7W.7c.7c.7V.7..7W.7g.7X.7X.7Y.7W.7#.7Z.7a.7b.70.70.7a.70.69.71.72.71.71.73.1q.1q.73.73.73.2R.1u.1u.74.74.1u.2R.1u.6f.6f.1q.2R.2T.75.76Qt.Qt.Qt.Qt.Qt.Qt.Qt.Qt.Qt.Qt.Qt.Qt.Qt.Qt.Qt.Qt.Qt.Qt.Qt.Qt.Qt.Qt.Qt.Qt.Qt.Qt.Qt.Qt.Qt.Qt.Qt.Qt.Qt.Qt.Qt.Qt.Qt.Qt.Qt.Qt.Qt.Qt.Qt.Qt.Qt.Qt.Qt.Qt.Qt.Qt.Qt.Qt.Qt.Qt.Qt.Qt.Qt.Qt.Qt.Qt.Qt.Qt.Qt.Qt.Qt.Qt.Qt.Qt.Qt.Qt.Qt.Qt.Qt.Qt.Qt.Qt.Qt.Qt.Qt.Qt.Qt.Qt.Qt.Qt.Qt.Qt.Qt.Qt.Qt.Qt.Qt.",
"Qt.Qt..77.Z1.78.7G.7G.74.2V.2V.79.2T.1s.1s.1u.1t.2R.2V.2V.74.8..7G.7G.78.74.78.78.8#.78.78.78.7G.7G.8a.7G.8..7G.8b.2V.79.2R.2U.1s.2R.79.2V.74.7G.7G.8a.8c.7G.7G.78.78.8d.8c.7G.8c.8c.8e.8a.8a.8c.7G.8f.79.8#.2V.74.8g.78.78.8h.8i.8j.8k.6i.4r.7E.8l.1q.1u.2R.2V.2V.8b.7G.2V.74.2V.2R.1u.2R.2R.2V.8..8..74.74.2V.7G.2R.2R.2V.2V.8..8..74.74.2V.7G.8..2R.2V.2V.2V.7G.2V.74.1u.2R.2V.2V.8..8..74.8..74.74.1s.8m.8n.8o.7D.5J.8p.8q.8r.8s.8s.8s.8s.8t.8t.8t.8r.8u.8a.8b.8b.8b.8b.2V.7G.2Q.8r.8v.8t.8w.8s.8r.8x.8r.8r.8r.8u.8e.7G.8..8..2V.8b.2V.2V.2V.7G.8a.8e.8w.8v.8r.8s.8r.8y.8r.8r.8r.8r.8x.8x.8s.8r.8y.8y.8x.8x.8s.8r.8w.8t.8r.8a.7G.2V.74.74.8z.8AQt.Qt.Qt.Qt.Qt.Qt.Qt.Qt.Qt.Qt.Qt.Qt.Qt.Qt.Qt.Qt.Qt.Qt.Qt.Qt.Qt.Qt.Qt.Qt.Qt.Qt.Qt.Qt.Qt.Qt.Qt.Qt.Qt.Qt.Qt.Qt.Qt.Qt.Qt.Qt.Qt.Qt.Qt.Qt.Qt.Qt.Qt.Qt.Qt.Qt.Qt.Qt.Qt.Qt.Qt.Qt.Qt.Qt.Qt.Qt.Qt.Qt.Qt.Qt.Qt.Qt.Qt.Qt.Qt.Qt.Qt.Qt.Qt.Qt.Qt.Qt.Qt.Qt.Qt.Qt.Qt.Qt.Qt.Qt.Qt.Qt.Qt.Qt.Qt.Qt.Qt.",
"Qt.Qt..77.Z6.7G.7G.8a.7G.74.2V.2R.1u.2R.1u.1u.2R.2V.74.8..7G.8a.8c.8c.7G.7G.8a.8c.8c.8c.8a.7G.8a.7G.8e.7G.8a.7G.74.2V.1s.1u.2R.2R.1u.2R.2V.8..7G.8a.8a.8c.7G.8a.8e.7G.8e.8a.8a.7G.7G.8c.8a.7G.8..74.2V.1u.1u.2R.2R.1u.2R.2V.8h.8B.8C.8D.4r.6i.8E.8F.8G.2R.1t.8H.8w.8r.8s.8t.8w.2V.2V.2V.2V.8I.8w.8w.8w.7G.2V.1s.1t.1s.1s.1s.2V.8a.7G.1u.1s.1s.1u.1u.2V.2V.74.7G.8r.7G.1s.1s.1s.2V.8J.8s.8K.8I.8L.2V.2R.8M.8N.8E.8O.8O.1o.8P.8Q.2Q.8x.8s.8s.8x.8r.8v.8y.8r.8a.7G.8b.74.74.74.8b.78.8a.8w.8y.8r.8r.8s.8x.8R.8y.8y.8r.8a.7G.74.8b.74.74.8..74.8..2V.7G.7G.8r.8y.8y.8r.8s.8x.8R.8y.8y.8s.8y.8R.8x.8s.8r.8r.8y.8y.8s.8r.8r.8y.8r.8r.8e.8c.7G.7G.8..Z3.8SQt.Qt.Qt.Qt.Qt.Qt.Qt.Qt.Qt.Qt.Qt.Qt.Qt.Qt.Qt.Qt.Qt.Qt.Qt.Qt.Qt.Qt.Qt.Qt.Qt.Qt.Qt.Qt.Qt.Qt.Qt.Qt.Qt.Qt.Qt.Qt.Qt.Qt.Qt.Qt.Qt.Qt.Qt.Qt.Qt.Qt.Qt.Qt.Qt.Qt.Qt.Qt.Qt.Qt.Qt.Qt.Qt.Qt.Qt.Qt.Qt.Qt.Qt.Qt.Qt.Qt.Qt.Qt.Qt.Qt.Qt.Qt.Qt.Qt.Qt.Qt.Qt.Qt.Qt.Qt.Qt.Qt.Qt.Qt.Qt.Qt.Qt.Qt.Qt.Qt.Qt.",
"Qt.Qt..77.Z7.7G.8e.8e.7G.7G.8..2V.1u.2R.2R.2V.2S.2V.7G.7G.7G.8w.8e.8e.8w.8w.8a.2Q.8r.8r.8a.8w.8r.8w.8w.8e.7G.7G.8..8b.2V.2V.2R.2R.2V.2V.8..7G.7G.8a.8w.8e.8w.8r.8e.8r.8r.8a.8w.8r.8e.8e.8w.7G.7G.7G.8b.2V.2V.1u.2R.2S.2V.7G.8T.8U.8C.8V.8W.8X.8Y.53.8Z.80.81.82.83.84.85.86.87.88.89.9..80.9#.9a.9b.9c.9d.65.9e.9f.9g.9h.9g.7H.9h.9i.9j.7H.7H.9k.9l.9m.9n.9o.9p.9q.9r.9s.9t.9u.9v.9w.9x.9y.9z.9A.9B.9C.9D.9E.9F.9G.9H.wZ.9I.8Q.2Q.8s.8r.8s.8r.8r.8r.8r.8r.8w.7G.8a.8..8..8..8a.7G.8e.8r.8r.8r.8r.8r.8s.8x.8y.8r.8r.8r.8c.7G.7G.8..8..8b.74.8b.8a.7G.8e.8e.8w.8r.8r.8r.8s.8x.8y.8s.8s.8y.8y.8s.8r.8y.8x.8y.8s.8s.8t.8r.8y.8r.8w.8w.8w.8a.7G.8a.9J.8SQt.Qt.Qt.Qt.Qt.Qt.Qt.Qt.Qt.Qt.Qt.Qt.Qt.Qt.Qt.Qt.Qt.Qt.Qt.Qt.Qt.Qt.Qt.Qt.Qt.Qt.Qt.Qt.Qt.Qt.Qt.Qt.Qt.Qt.Qt.Qt.Qt.Qt.Qt.Qt.Qt.Qt.Qt.Qt.Qt.Qt.Qt.Qt.Qt.Qt.Qt.Qt.Qt.Qt.Qt.Qt.Qt.Qt.Qt.Qt.Qt.Qt.Qt.Qt.Qt.Qt.Qt.Qt.Qt.Qt.Qt.Qt.Qt.Qt.Qt.Qt.Qt.Qt.Qt.Qt.Qt.Qt.Qt.Qt.Qt.Qt.Qt.Qt.Qt.Qt.Qt.",
"Qt.Qt..77.9K.8r.8w.8w.8w.8a.8a.8..2V.2V.2V.2V.2V.8..8a.8a.8w.8w.8r.8r.8r.8r.8w.8r.8r.8r.8w.8r.8r.8r.8r.8w.8e.8a.8e.7G.2V.2S.2U.2S.2V.8b.8a.8a.8w.8w.8w.8r.8r.8r.8r.8w.8r.8r.8y.8r.8r.8r.8w.8v.8e.8a.7G.2V.2V.2V.2V.2V.8..8a.9L.Ru.9M.9N.9O.9P.9Q.9R.9S.9T.9U.9V.9W.9X.9Y.9Z.90.91.92.93.94.95.96.97.98.99#...KS#.##.a#.b#.c#.d#.e#.f#.g#.h#.i#.j#.k#.l#.m#.n#.o#.p#.q#.r#.s#.t#.u#.v#.w#.x#.y#.z#.A#.B#.C#.D#.E#.F#.G.zl#.H.8Q.8y.8s.8t.8x.8t.8y.8t.8r.8w.8w.8a.8a.7G.8a.7G.8a.8a.8w.8w.8r.8t.8y.8t.8s.8s.8s.8y.8w.8w.8w.8a.7G.8a.8a.7G.8a.7G.7G.7G.7G.7G.8a.8a.8e.8w.8r#.I#.J#.K#.K#.L#.K#.J.8w.8w.8w.8r.8y.8y.8r.8e.8w.8w.8w.8w.8a.7G.78.7G.8z#.MQt.Qt.Qt.Qt.Qt.Qt.Qt.Qt.Qt.Qt.Qt.Qt.Qt.Qt.Qt.Qt.Qt.Qt.Qt.Qt.Qt.Qt.Qt.Qt.Qt.Qt.Qt.Qt.Qt.Qt.Qt.Qt.Qt.Qt.Qt.Qt.Qt.Qt.Qt.Qt.Qt.Qt.Qt.Qt.Qt.Qt.Qt.Qt.Qt.Qt.Qt.Qt.Qt.Qt.Qt.Qt.Qt.Qt.Qt.Qt.Qt.Qt.Qt.Qt.Qt.Qt.Qt.Qt.Qt.Qt.Qt.Qt.Qt.Qt.Qt.Qt.Qt.Qt.Qt.Qt.Qt.Qt.Qt.Qt.Qt.Qt.Qt.Qt.Qt.Qt.Qt.",
"Qt.Qt..77#.N.8r.8w.8y.8y.8a.8a.7G.2V.74.74.74.2V.7G.8a.8w.8t.8v.8r.8x.8x.8x.8r.8r.8r.8r.8y.8R.8x.8s.8r.8y.8y.8r.8a.7G.2V.8b.74.8..2V.8..8a.8r.8r.8y.8y.8s.8x#.O.8y.8r.8s.8y#.O.8x.8x.8r.8v.8t.8w.8a.7G.2V.74.74.74.8b.7G.8a.Z2#.P#.Q#.R.JZ#.S#.T#.U#.V#.W#.X#.Y#.Z#.0#.1#.2#.3#.4#.5#.6#.7#.8#.9##.#####a##b##c##d##e##f##g##h##i##j##k##l##m##n##o##p##q##r##s##t##u##v##w##x##y##u##z##A##B##C##D##E##F##G##H##I##J##K##L##M.8y.8s.8r.8y.8y.8r.8r.8e.7G.7G.7G.8..2V.7G.8a.8a.8w.8w.8r.8s.8y.8R.8y.8x.8t.8r.8y.8y.8y.8r.8r.8w.8w.8w.7G.7G.74.8..8b.8b.8b.8a.7G.8w.8r.8r.8y##N##O##P##Q##R##S##T.9g.9g.7H.7H##U##V##W##V.9h##X.8r.8a.7G.7G.8c.Z6#.MQt.Qt.Qt.Qt.Qt.Qt.Qt.Qt.Qt.Qt.Qt.Qt.Qt.Qt.Qt.Qt.Qt.Qt.Qt.Qt.Qt.Qt.Qt.Qt.Qt.Qt.Qt.Qt.Qt.Qt.Qt.Qt.Qt.Qt.Qt.Qt.Qt.Qt.Qt.Qt.Qt.Qt.Qt.Qt.Qt.Qt.Qt.Qt.Qt.Qt.Qt.Qt.Qt.Qt.Qt.Qt.Qt.Qt.Qt.Qt.Qt.Qt.Qt.Qt.Qt.Qt.Qt.Qt.Qt.Qt.Qt.Qt.Qt.Qt.Qt.Qt.Qt.Qt.Qt.Qt.Qt.Qt.Qt.Qt.Qt.Qt.Qt.Qt.Qt.Qt.Qt.",
"Qt.Qt..77#.N.8r.8r.8r.8r.8w.7G.78.8b.2V.74.8..8b.7G.8e.8r.8r.8r.8y.8t.8x.8x.8y.8s.8s.8s.8y.8y.8x##Y.8t.8y.8r.8r.8e.7G.7G.8b.2V.2V.8b.7G.7G.8w.8r.8r.8t.8x.8x.8x.8r.8s.8s.8y.8y.8s.8r.8r.8r.8r.8r.8e.8c.7G.8..74.8b.7G.7G.8e##Z##0##1##2##3##4##5##6##7##8##9#a.#a##aa#ab#ac#ad#ae#af#ag#ah#ai#aj#ak#al#am#an#ao#ap#aq#ar#as#at.pb#au#av#aw#ax#ay#az#aA#aB#aC#aD#aE#aF#aG#aH#aI#aJ#aK#aL#aM#aN#aO#aP#aQ#aR#aS#aT#aU#aV#aW#aX#aY.8y.8s.8r.8r.8r.8r.7G.7G.8b.2V.74.2V.8b.7G.8a.8r.8r.8y.8t.8s.8x#.O.8y.8s.8s.8s.8y.8x.8x.8x.8y.8r.8y.8r.8a.7G.8b.8..74.74.8b.2V.7G.8a.8r#aZ#a0.Ul#a1#a2#a3.Ur#a4#a5#a5#a6#a7#a8.Ri#a9#b..6t#b##ba.7G.8v.8e.8w.8v.9K#bbQt.Qt.Qt.Qt.Qt.Qt.Qt.Qt.Qt.Qt.Qt.Qt.Qt.Qt.Qt.Qt.Qt.Qt.Qt.Qt.Qt.Qt.Qt.Qt.Qt.Qt.Qt.Qt.Qt.Qt.Qt.Qt.Qt.Qt.Qt.Qt.Qt.Qt.Qt.Qt.Qt.Qt.Qt.Qt.Qt.Qt.Qt.Qt.Qt.Qt.Qt.Qt.Qt.Qt.Qt.Qt.Qt.Qt.Qt.Qt.Qt.Qt.Qt.Qt.Qt.Qt.Qt.Qt.Qt.Qt.Qt.Qt.Qt.Qt.Qt.Qt.Qt.Qt.Qt.Qt.Qt.Qt.Qt.Qt.Qt.Qt.Qt.Qt.Qt.Qt.Qt.",
"Qt.Qt..77#.N.8r.8y.8y.8w.8w.8w.8e.8a.7G.7G.7G.8a.8e.8w.8w.8r.8y.8y.8r.8s.8s.8t#.I#.I.8s.8t.8t.8s.8r.8y.8s.8r.8w.8w.8K.8a.8..8..8..8a.8a.8w.8w.8w.8t.8y.8r.8t.8s.8t.8s#.I.8t.8s.8s.8y.8r.8y.8r.8w.8w.8e.8a.7G.8a.7G.8a.8a.8w##Z#bc.9M#bd#be#bf#bg#bh#bi#bj#bk#bl#bm.3l.14#bn.1g.yp#bo#bp#bq.2r.00#br#bs.3l#bt#bu#bv#bw#bx.2g#by#bz.14.3o#bA#bB#bC.u5#bD.XA#bE#bF#bG#bH#bI#bJ#bK#bL#bM#bN#bO#bP#bQ#bR#bS#bT#bU#bV#bW#bX#bY#bZ#b0.8r.8s.8t.8y.8r.8r.8w.7G.8a.8..8..8..8a.7G.8w.8r.8r.8t.8t.8r.8s.8x.8y.8s#.I#.I.8y.8y.8s.8r.8r.8t.8r.8r.8w.8c.8a.8..8..8..8..2V.8H.8a.8e#aZ#b1#b2#b3#b4#b5#b6#b7.QQ.QQ.QQ#b8#b9#c.#c##ca#cb#cc#cd.8c#ce.8y.8t.8r#cf#cgQt.Qt.Qt.Qt.Qt.Qt.Qt.Qt.Qt.Qt.Qt.Qt.Qt.Qt.Qt.Qt.Qt.Qt.Qt.Qt.Qt.Qt.Qt.Qt.Qt.Qt.Qt.Qt.Qt.Qt.Qt.Qt.Qt.Qt.Qt.Qt.Qt.Qt.Qt.Qt.Qt.Qt.Qt.Qt.Qt.Qt.Qt.Qt.Qt.Qt.Qt.Qt.Qt.Qt.Qt.Qt.Qt.Qt.Qt.Qt.Qt.Qt.Qt.Qt.Qt.Qt.Qt.Qt.Qt.Qt.Qt.Qt.Qt.Qt.Qt.Qt.Qt.Qt.Qt.Qt.Qt.Qt.Qt.Qt.Qt.Qt.Qt.Qt.Qt.Qt.Qt.",
"Qt.Qt..77.64.8y.8y.8t.8r.8I.8a.8a.7G.7G.8a.7G.7G.8a.8c.8w.8r.8t.8y.8s.8s.8s.8s.8s#ch#.I#.I.8t.8s.8s.8y.8y.8r.8w.8c.8a.8a.8..7G.7G.8..8a.8w.8w.8r.8t.8y.8x.8x.8x.8t#.I.8s.8s.8s.8s.8s.8y.8t.8t.8w.8w.8a.7G.78.7G.7G.7G.8a.8r##Z#ci#cj#ck#cl#cm#bf#cn#co.sv.qy#cp#cq#cr.0E.z.#cs#ct#cu#cv#cw#cx.CN#cy#cz#cA#cB#cC#cD#cE#cF#cG#cH#cI#cJ.0t#cK#cL#cM#cN#cO#cP#cQ#cR#cS#cT#cU#cV#cW#cX#cY#cZ#c0#c1#c2#c3#c4#c5#c6#c7#c8#c9#d.#d##da.8y.8s.8y.8t.8r.8w.8w.8a.8a.7G.8a.8..8a.8a.8e.8w.8r.8t.8y.8t.8s.8s.8t.8s#.I#.I.8t.8s.8x.8s.8y.8y.8r.8w.8e.8a.8a.8..8a.74.74.8..2V.7G.8a.8s#db#dc#dd#de#df#dg#dh#di#dj#dk#dl#dm#dn#do.7U#dp#dq#dr##X#.J#.I.8s.8s#ds#dtQt.Qt.Qt.Qt.Qt.Qt.Qt.Qt.Qt.Qt.Qt.Qt.Qt.Qt.Qt.Qt.Qt.Qt.Qt.Qt.Qt.Qt.Qt.Qt.Qt.Qt.Qt.Qt.Qt.Qt.Qt.Qt.Qt.Qt.Qt.Qt.Qt.Qt.Qt.Qt.Qt.Qt.Qt.Qt.Qt.Qt.Qt.Qt.Qt.Qt.Qt.Qt.Qt.Qt.Qt.Qt.Qt.Qt.Qt.Qt.Qt.Qt.Qt.Qt.Qt.Qt.Qt.Qt.Qt.Qt.Qt.Qt.Qt.Qt.Qt.Qt.Qt.Qt.Qt.Qt.Qt.Qt.Qt.Qt.Qt.Qt.Qt.Qt.Qt.Qt.Qt.",
"Qt.Qt..77#du.8x.8x.8s.8r.8w.8r.7G.7G.7G.8c.78.7G.8a.8r.8r.8t#aZ.8x.8x.8s.8s#.I#ch#ch#ch#.I#.I.8s.8x#dv#.I.8y.8w.8r.8a.7G.7G.8c.8c.78.7G.8r.8w.8r.8s#.I.8x.8s#.I#aZ#.I#ch#.I#.I.8s#dv#dv#.I.8t.8r.8L.8a.7G.7G.8c.7G.7G.7G.8r##Z#ci#dw#dx#dy#dz#dA#dB#dC#dD#dE#dF#dG.tM#dH#bv#dI#dJ#dK#dL#dM#dN.32#dO.Mg#dP#dQ#dR#dS#dT.i3#dU#dV#dW#dX#dY#dZ#d0#d1.4D#d2#d3#d4.RY#d5#d6#d7#d8#d9#d6#e.#e##ea.zb#eb#ec#ed#ee#ef#eg#eh#ei#ej#ek##M.8y.8s.8x.8t.8r.8w.8w.8a.7G.78.8c.78.7G.8a.8w.8w.8r.8t.8x.8x.8s.8s.8s#.I#ch#.I#.I.8s.8s.8s.8x#.I.8t.8w.8w.8a.7G.78.7G.8..8..8..8a.7G.8e.8y.2U#el#em#en#eo#el#ep#eq#er#es#et#eu#ev#ew#eu#ex#ey.7k##X#.J#aZ.8s.8s#ez#eAQt.Qt.Qt.Qt.Qt.Qt.Qt.Qt.Qt.Qt.Qt.Qt.Qt.Qt.Qt.Qt.Qt.Qt.Qt.Qt.Qt.Qt.Qt.Qt.Qt.Qt.Qt.Qt.Qt.Qt.Qt.Qt.Qt.Qt.Qt.Qt.Qt.Qt.Qt.Qt.Qt.Qt.Qt.Qt.Qt.Qt.Qt.Qt.Qt.Qt.Qt.Qt.Qt.Qt.Qt.Qt.Qt.Qt.Qt.Qt.Qt.Qt.Qt.Qt.Qt.Qt.Qt.Qt.Qt.Qt.Qt.Qt.Qt.Qt.Qt.Qt.Qt.Qt.Qt.Qt.Qt.Qt.Qt.Qt.Qt.Qt.Qt.Qt.Qt.Qt.Qt.",
"Qt.Qt.#eB#eC#dv#ch.8s.8y.8L.8v.7G.8e.8w.8v.8w.7G.8e.8y.8r.8y#.I#.I#.I#.I#.I#ch#.J#.J#.J#.I#.I#.J#.I#.I#.I.8y.8r.8y.8e.7G.8w.8w.8w.8e.7G.8v.8r.8y.8s#.J#.I#.I#.I#aZ#.J#.J#.I#.I#.I#.I#eD#.I.8y.8r.8y.8w.8e.8w.8v.8v.8e.8c.8t##Z#eE#eF#eG#eH#eI#eJ#eK#eL#eM#eN#eO#eP#eQ.Nz#eR.RZ#eS.XS#eT#eU#eV.3Q#eW#eX.Ys.YZ.Wz#eY#eZ#cL.Yi.WN.Wr.YW.XG.XW#e0#e1#e2#e3#e4#e5#e6#e7#e8#e9#f.#f##fa#fb#fc#fd#fe#ff#fg#fh#fi#fj#fk#fl#fm#.E#fn#fo.8t#.I#.I#.I.8y.8w.8r.7G.7G.8c.8w.8c.7G.7G.8y.8w.8y#.I#.I#.I.8s#.I#.I#ch#aZ#ch#ch#.I#.I#.I.81#aZ.8t.8y.8t.8a.7G.8c.8c.7G.7G.8..8a.8a.8e.8w.8t#.K#fp#fq#fp#fp.Z0#fp#fp#fq#.K#.K#.K#fr#.K##X##X#.I.8y#.I#ch.8s.8s#fs#eAQt.Qt.Qt.Qt.Qt.Qt.Qt.Qt.Qt.Qt.Qt.Qt.Qt.Qt.Qt.Qt.Qt.Qt.Qt.Qt.Qt.Qt.Qt.Qt.Qt.Qt.Qt.Qt.Qt.Qt.Qt.Qt.Qt.Qt.Qt.Qt.Qt.Qt.Qt.Qt.Qt.Qt.Qt.Qt.Qt.Qt.Qt.Qt.Qt.Qt.Qt.Qt.Qt.Qt.Qt.Qt.Qt.Qt.Qt.Qt.Qt.Qt.Qt.Qt.Qt.Qt.Qt.Qt.Qt.Qt.Qt.Qt.Qt.Qt.Qt.Qt.Qt.Qt.Qt.Qt.Qt.Qt.Qt.Qt.Qt.Qt.Qt.Qt.Qt.Qt.Qt.",
"Qt.Qt.#eB#eC#.I#ft#ce.8x.8y#fu.8t.8v.8y.8y.8v.8v.8t.8t.8x.8t#.I#aZ#fv#.J#.I#.I#.J#.J#.J#.J#ch#aZ#fv#.I#.I.8s.8x#ce.8y.8v.8y.8t.8y.8v.8y#ce.8y.8x#ce.8s#.I#fv#.J#ch#.J#.J#.I#.J#.J#fv#aZ#.I#ce.8x#ce#ce#fw.8t.8y.8t.8t.8t#ce.9L#fx#fy#fz#fA.9O#fB#fC#fD#fE#fF#fG.z1#fH#fI#fI#fJ.WE.Zg.JZ#fK#fL#fM.Us#fN#cL.XO.TB#fO#fP.TB.Vx#fQ#fR.zB.WJ.X2.Uj#fS#fT#fU.J1.J1#fV.o9#fW#fX#fY#fZ#f0#f1#f2#f3#f4#ff#f5#f6#f7.sv#f8#f9#g.#g##ga#gb.8s#.I.8s.8s.8s.8r#fw.8w.8w.8v.8t.8v.8w.8v#fw.8y.8s#.I#ft#.I#.J#.I#.I#.J#.J#.J#ch#.I#.I#.I#.J#aZ.8s.8y.8v.8v.8w.8v.8y.8v.8v.8e.7G.8c.7G.8r.8y.8s#aZ#.I#fv#aZ#.I#ch#.J#.J#.I#.I#ch#.I#aZ#.I.8s#.I.8t.8y.8y.8x.8x#gc#gdQt.Qt.Qt.Qt.Qt.Qt.Qt.Qt.Qt.Qt.Qt.Qt.Qt.Qt.Qt.Qt.Qt.Qt.Qt.Qt.Qt.Qt.Qt.Qt.Qt.Qt.Qt.Qt.Qt.Qt.Qt.Qt.Qt.Qt.Qt.Qt.Qt.Qt.Qt.Qt.Qt.Qt.Qt.Qt.Qt.Qt.Qt.Qt.Qt.Qt.Qt.Qt.Qt.Qt.Qt.Qt.Qt.Qt.Qt.Qt.Qt.Qt.Qt.Qt.Qt.Qt.Qt.Qt.Qt.Qt.Qt.Qt.Qt.Qt.Qt.Qt.Qt.Qt.Qt.Qt.Qt.Qt.Qt.Qt.Qt.Qt.Qt.Qt.Qt.Qt.Qt.",
"Qt.Qt.#eB#ge#.I#aZ#.I#.I#.I#.I#.I.8t.8s.8x.8s#ce#.I#.I#.I#ce#.I#aZ#aZ#.J#.J#.J#.J#.J#.J#.J#.J#.J#.I#aZ#.I.8s#.I#.I#.I.8s.8s.8s.8s#ce.8s#.I#.I.8t#ce#aZ#.I#.J#.J#.J#.J#.J#.J#.J#.J#aZ#aZ#.I#ce#.I#.I#ch#.I.8s.8s.8s.8s#.J#ch.9L#gf#.P#gg#gh#gi#gj#gk#gl#gm.ZR#gn.3Q#go.Mo#gp#go#gq#gr#gs#gt#gu.P4#gv#gw.Ya#gx.bn#gy#gz#gA.Vv.Vp.TG.WJ.VC.TD.bn.R6.XP.Oi#gB#gC#gD.KW#gE#gF#gG#gH.xj#gI#gJ#gK#gL#gM#gN#gO#gP#gQ#gR.Ia#gS#gT#fy#gU.8s#.J#.I#ce.8s#gV#.I.8s.8t.8s.8t.8s.8t.8s#ce#gV.8s#ce#aZ#.I##X#.J#.J#.J#.J#.J#ch#.J#.J#.I#aZ#.I#ce.8s#ce#.I.8t.8t.8x.8s#ce.8y.8w.8e.7G.8y#dv#ce#aZ#aZ#gW#.J#.J#ch#.J#ch#.J#.J#aZ#aZ#.I.8s.8s#.I.8s.8t.8y.8s.8r#gX#gYQt.Qt.Qt.Qt.Qt.Qt.Qt.Qt.Qt.Qt.Qt.Qt.Qt.Qt.Qt.Qt.Qt.Qt.Qt.Qt.Qt.Qt.Qt.Qt.Qt.Qt.Qt.Qt.Qt.Qt.Qt.Qt.Qt.Qt.Qt.Qt.Qt.Qt.Qt.Qt.Qt.Qt.Qt.Qt.Qt.Qt.Qt.Qt.Qt.Qt.Qt.Qt.Qt.Qt.Qt.Qt.Qt.Qt.Qt.Qt.Qt.Qt.Qt.Qt.Qt.Qt.Qt.Qt.Qt.Qt.Qt.Qt.Qt.Qt.Qt.Qt.Qt.Qt.Qt.Qt.Qt.Qt.Qt.Qt.Qt.Qt.Qt.Qt.Qt.Qt.Qt.",
"Qt.Qt.#eB#ge#.I#aZ#.I#.I#aZ#.I#.J.8s.8s.8s.8s#aZ#.J#.I#aZ#.I#.I#.I#aZ#.J##X#.K#fr##X#fr#.K#fr##X#aZ#.J#.I#.I#.J#.I#.J#aZ.8s.8s.8s#ft#.J#aZ#ch#.I#.I#.J#aZ##X##X#.K##X#.K#.K#.K#.J#aZ#aZ#.I#.I#aZ#ch#.J#aZ.8s.8s.8s.8s#.J#.J.9L#gZ#g0#g1#g2#g3#eI#g4#g5#g6#g7#g8#fM#g9#fI#e6#h.#gq#h##ha#hb#hc#hd.Ya.Ye.Y4.XP#he#hf#hg#hh.X5.X0.bn.Ws#hi.Wt#gv#hj.XS#hk#hl#hm.Ye.K0#hn#ho#hp#hq#hr.33.L8#hs#ht#d7#hu#hv#hw.sv#hx.Ia#hy#hz#hA#hB#aZ#.J#aZ#.I#ce#.I#.I#.J#ft.8s.8s.8s#aZ#.J#.I#.I#ce#.I#aZ#.I##X#.J#.K#fr##X#fr#.K#.J#.J#aZ#aZ#.I#ce#aZ#.I#.J#aZ.8s.8s.8s.8s.8s.8y.8v.8v#.I#aZ#.I#aZ#.I#aZ#.J#.J##X#fr#fr##X#.J#aZ#.I#aZ#.J#ch#ch#.I.8s.8t.8s.8s#.N#gYQt.Qt.Qt.Qt.Qt.Qt.Qt.Qt.Qt.Qt.Qt.Qt.Qt.Qt.Qt.Qt.Qt.Qt.Qt.Qt.Qt.Qt.Qt.Qt.Qt.Qt.Qt.Qt.Qt.Qt.Qt.Qt.Qt.Qt.Qt.Qt.Qt.Qt.Qt.Qt.Qt.Qt.Qt.Qt.Qt.Qt.Qt.Qt.Qt.Qt.Qt.Qt.Qt.Qt.Qt.Qt.Qt.Qt.Qt.Qt.Qt.Qt.Qt.Qt.Qt.Qt.Qt.Qt.Qt.Qt.Qt.Qt.Qt.Qt.Qt.Qt.Qt.Qt.Qt.Qt.Qt.Qt.Qt.Qt.Qt.Qt.Qt.Qt.Qt.Qt.Qt.",
"Qt.Qt.#eB#ge#.I#.J#.I#.I#.J#.J#.J#.I#.I#.I.8s#aZ#.J#.J#ch#.I#aZ#.J#.J##X#.K#fr.6g#.K.6g#fr#.K##X#.J#aZ#aZ#aZ#.J#.J#.J#ch.8s#.I#.I#.I#.J#.J#.J#ch#aZ#.J#.J##X#.L#.K#fr#.K#fr#.K##X#ch#.J#aZ#ch#.J#.J#.J#aZ#ch#.I#ch#.I#.J#fr.Z0#gZ#fn#hC#g3#hD#hE#dy#hF#hG#hH#hI.Y4.aE#hJ#hK#hL.XV#hM.Ia#hN#hO.XN#hP#gw.Ze#hQ.X2#hR#hS#hT#hU.XY.Pq#hV.XV.WK#hW#hX#hY.z4#gw#hZ.R7#eR#h0#h1#h2#h3#h4#h5#h6#hs#fZ#h7#h8#h9#i.#i##ia#ib#ic#id.oq#ie#.J#.J.8s#.I#.I#.J#.J#.J#ft.8s.8s.8s#.J#.J#.J#.J#.I#.I#.I#.J##X#.K#fr#fr#fr#fr#fr#.K##X#.J#.J#.I#.I#.J#.J#.J#.J.8s.8s.8s#.I.8s.8s#ce.8t#ch#aZ#.I#.I#.I#.J##X#.K#fr#fr#fr#.K##X#aZ#.J#aZ##X#.K##X#aZ#.I.8s.8s.8s#if#gYQt.Qt.Qt.Qt.Qt.Qt.Qt.Qt.Qt.Qt.Qt.Qt.Qt.Qt.Qt.Qt.Qt.Qt.Qt.Qt.Qt.Qt.Qt.Qt.Qt.Qt.Qt.Qt.Qt.Qt.Qt.Qt.Qt.Qt.Qt.Qt.Qt.Qt.Qt.Qt.Qt.Qt.Qt.Qt.Qt.Qt.Qt.Qt.Qt.Qt.Qt.Qt.Qt.Qt.Qt.Qt.Qt.Qt.Qt.Qt.Qt.Qt.Qt.Qt.Qt.Qt.Qt.Qt.Qt.Qt.Qt.Qt.Qt.Qt.Qt.Qt.Qt.Qt.Qt.Qt.Qt.Qt.Qt.Qt.Qt.Qt.Qt.Qt.Qt.Qt.Qt.",
"Qt.Qt.#eB#ig#.I#.J#.J#.J#.J#.J#.J#.I#.I#.I#ch#.I#.J#.J#.J#.J#.J#ch#.J##X#.K.6g#.K#.K#fq.6g#fr##X#.J#.J#.J#.J#.J#.J#.J#.I#ch#.I#ch#.I#ch#.J#.J#.J#ch#.J#ch#.J##X#fr#.K#.K#fr#.J#.J#.I#ch#.J#.J##X#.J#.J#.J#.J#ch#.J#fr#fr##X#fq#gZ#ih#ii#ij#g1#g3#ik#il#im#dx#in.Ut#io#io.Tt#ip#iq.wz#ir#is.ht.Vg#it#iu.Tv#iv#iw#ix#iy#iz.Sk.Vq#cL#iA.Uy#iB#iC#iD.Uw#iE#iF#iG#iH.Oj#iI#iJ#iK#iL.Nz.gX#iM#iN#cD#iO#iP.1m#be#iQ#iR#iS#id#g4.yx#iT#.J#.J#.J#.J#.J#.J#.J#.J#.I#ch#.I#ch#.I#.J#.J#.J#.J#.J#.J#ch##X#.K#fr.8T#.K.8T#fr#fr##X#.J#ch#.J#.J#.J#.J#.J#ch#.I#ch#ch#.I#.I.8s.8s#aZ#.J#.I#.I#.I#.I#aZ##X#.K#fr#.K#fr#.K##X#aZ#.J#aZ##X#fr##X#gW#.J#.I#.J#.I#iU.pNQt.Qt.Qt.Qt.Qt.Qt.Qt.Qt.Qt.Qt.Qt.Qt.Qt.Qt.Qt.Qt.Qt.Qt.Qt.Qt.Qt.Qt.Qt.Qt.Qt.Qt.Qt.Qt.Qt.Qt.Qt.Qt.Qt.Qt.Qt.Qt.Qt.Qt.Qt.Qt.Qt.Qt.Qt.Qt.Qt.Qt.Qt.Qt.Qt.Qt.Qt.Qt.Qt.Qt.Qt.Qt.Qt.Qt.Qt.Qt.Qt.Qt.Qt.Qt.Qt.Qt.Qt.Qt.Qt.Qt.Qt.Qt.Qt.Qt.Qt.Qt.Qt.Qt.Qt.Qt.Qt.Qt.Qt.Qt.Qt.Qt.Qt.Qt.Qt.Qt.Qt.",
"Qt.Qt.#eB#ge.8s#aZ#.I#ch#.J#.J#.J.8s#.I.8s.8s#aZ#.J#.J#ch#.I#.I#.J#.J##X#.K#fr.6g#.K.6g#fr#.K##X#.J#.J#.I#aZ#ch#.J#.J#.I.8s.8s.8s.8s#.J#.J#.J#ch#.I#.I#.I#.J##X#.K#fr#.K#fr#.K##X#.J#.J#aZ#aZ#ch#.J#.J#.J.8s#.I#.I.8s#aZ#.J.9L#fx#iV#iW#iX#iY#iZ#i0#i1#i2#dx#i3.X3#i4#hc#i5.kN#i6#hW#eJ#i7.lf.TC#i8#hO#i9#j.#j##ja#jb#jc#jd#je#jf#jg#jh#ji#jj#iD#jk#jl.mQ#jm#jn#jo#jp#jq#jr.CP#js#jt#ju#jv#jw#jx.49#jy#jz#jA#jB#.##jC#jD#jE#gU#.J#.J#.J#.J#.J#.J#.J#.J#.I#ch#.I#.I#.I#.J#.J#.J#.J#.J#.J#.J##X#.K#fr.8T#.K.8T.6g#.K##X#.J#.J#aZ#.J#.J#.J#.J#ch#.I#ch#.I#.I#.I.8s.8s#.J##X#.I#.I#aZ#.I#aZ#.J#.J##X#fr#fr#.J#.J#aZ#.I#aZ#.J#ch#.I#.I#gW#aZ#.J#.I#ez#cgQt.Qt.Qt.Qt.Qt.Qt.Qt.Qt.Qt.Qt.Qt.Qt.Qt.Qt.Qt.Qt.Qt.Qt.Qt.Qt.Qt.Qt.Qt.Qt.Qt.Qt.Qt.Qt.Qt.Qt.Qt.Qt.Qt.Qt.Qt.Qt.Qt.Qt.Qt.Qt.Qt.Qt.Qt.Qt.Qt.Qt.Qt.Qt.Qt.Qt.Qt.Qt.Qt.Qt.Qt.Qt.Qt.Qt.Qt.Qt.Qt.Qt.Qt.Qt.Qt.Qt.Qt.Qt.Qt.Qt.Qt.Qt.Qt.Qt.Qt.Qt.Qt.Qt.Qt.Qt.Qt.Qt.Qt.Qt.Qt.Qt.Qt.Qt.Qt.Qt.Qt.",
"Qt.Qt.#eB#eC.8s#aZ#.I#ce#.I#aZ#.J.8s.8s.8s.8s#aZ#.J#.I#.I#ce#.I#aZ#aZ##X##X#.K#fr##X#fr#.L#.L#.J#aZ#aZ#.I#ce#aZ#.I#.J#aZ.8s.8s.8s.8s#.J#ch#.I#aZ#.I#.I#.I#aZ##X##X#.K#fr#fr#.K##X#aZ#aZ#.J#.I#.I#.I#.J#.J.8s.8s.8s.8s#aZ#jF.8T#jG#jH#jI.1k#iY#jJ#jK#jL#jM#jN#jO#jP.K8#jQ#jR#b2#jS#jT#jU#jV#jW.TC.Md#jX#jY.SF#jZ#j0#j1#j2#j3.dz#j4#j5#j6#j7#j8#j9.X5#k.#k#.z2#ka#hR#kb#kc#kd#ke.R1#kf#kg#kh#ki.3R#kj#kk#kl#km#im#kn#.##dx#jE#iT#aZ#aZ#.J#.I#aZ#.J#.J#.J.8s.8s.8s.8s#aZ#.J#ch#.J#.I#.I#aZ#aZ#.J#.K#fr#fr##X#fr#.K#.K##X##X#.J#.I#.I#aZ#.J#.J#.J.8s.8s.8s.8s.8s.8s.8s#.J#.I.8x#ce#aZ#aZ#gW#.J#.J#ch#.J#ch#.J#.J#.I#aZ#aZ#.I.8s#.I.8s#aZ#.I#.J#.I#iU#koQt.Qt.Qt.Qt.Qt.Qt.Qt.Qt.Qt.Qt.Qt.Qt.Qt.Qt.Qt.Qt.Qt.Qt.Qt.Qt.Qt.Qt.Qt.Qt.Qt.Qt.Qt.Qt.Qt.Qt.Qt.Qt.Qt.Qt.Qt.Qt.Qt.Qt.Qt.Qt.Qt.Qt.Qt.Qt.Qt.Qt.Qt.Qt.Qt.Qt.Qt.Qt.Qt.Qt.Qt.Qt.Qt.Qt.Qt.Qt.Qt.Qt.Qt.Qt.Qt.Qt.Qt.Qt.Qt.Qt.Qt.Qt.Qt.Qt.Qt.Qt.Qt.Qt.Qt.Qt.Qt.Qt.Qt.Qt.Qt.Qt.Qt.Qt.Qt.Qt.Qt.",
"Qt.Qt.#eB#eC#ce#aZ#.I.8s#.I#.I.8s#ce.8s.8x#ce.8t#.I#.I#.I.8t#.I#aZ#.I#.J#.J#.J#.J#.J#.J#.J#.J#.J#.I#aZ#.I#ce#ce#.I#.I.8t.8t.8s.8s#ce.8s#.I#.I#.I#ce#aZ#aZ#aZ#.J#.J#.J#.J#.J#.J#.J#aZ#aZ#aZ#.I#.I#.I#.I#.I#ce.8s.8s.8s.8s.8s.8T#kp.RG.ZS#kq#kr#ks.9H#kt#ku#kv#kw#kx#ky#kz#kA#kB#kC#kD#kE#kF.Ws#kG##k#kH#kI#i3.Ra#hf#kJ.gl.5k#kK#kx#kL#kM#kN#kO#iN#kP.p1.5t#kQ#kR#kS#kT#i3#kU#kV#kW#kX#kY#kZ#k0#k1#is#k2#k3#k4#k5#k6.9F#k7#dw#k8#.I#aZ#aZ#.I#.I#.I#.I#.J.8s.8s.8s.8s#ft#.J#.I#.I#ce#.I#aZ#.I#.J#.J#.J#.J#.J#.J#.J#.J#.J#aZ#aZ#.I#ce#.I#.I#.J#.I.8s.8s.8s.8s#.I.8s#.I#.I#.I#.I#.I#ce.8s#aZ#aZ#.J#.J#.J#.J#.J#.J#.J#.J#.I#aZ#.I#.I#.I#.I.8s.8s.8s#if#gYQt.Qt.Qt.Qt.Qt.Qt.Qt.Qt.Qt.Qt.Qt.Qt.Qt.Qt.Qt.Qt.Qt.Qt.Qt.Qt.Qt.Qt.Qt.Qt.Qt.Qt.Qt.Qt.Qt.Qt.Qt.Qt.Qt.Qt.Qt.Qt.Qt.Qt.Qt.Qt.Qt.Qt.Qt.Qt.Qt.Qt.Qt.Qt.Qt.Qt.Qt.Qt.Qt.Qt.Qt.Qt.Qt.Qt.Qt.Qt.Qt.Qt.Qt.Qt.Qt.Qt.Qt.Qt.Qt.Qt.Qt.Qt.Qt.Qt.Qt.Qt.Qt.Qt.Qt.Qt.Qt.Qt.Qt.Qt.Qt.Qt.Qt.Qt.Qt.Qt.Qt.",
"Qt.Qt.#eB#eC.8s#.I#.I.8x.8y#fu.8w.8v.8y.8y.8v.8v#fw.8y.8x.8t#.I#.I#fv#.J#.I#ch#.J#aZ#.J#.J#ch#ch#fv#aZ#.I#ce.8y.8v#fu.8v.8v.8y.8y.8v.8v.8v.8y.8x#.I#aZ#.I#fv#aZ#ch#ch#.J#ch#ch#.J.4p#aZ.8s#.I.8x.8y#ce.8y.8v.8y.8t.8v.8v#fw.8h#k9#l..4q#l##la#la#lb#lc#ld#le#lf#lg#lh.lN#li#iV#lj#lk#ll#lm#ln#lo#lp#lq.6u.7K#lr#ls#lt#lu#lv#lw#lx#ly#lz#lA#lB#.6#lC#lD#c##lE#lF.YQ#lG#lH#lI#lJ#lK#lL#lM#lN#lO#lP#jK#lQ#lR#lS#lT#lU#la#lV.YO#lW.8t#aZ#aZ#ce.8x.8y#ce.8y.8t.8t.8r.8t.8t.8t#ce.8y.8t#ce#aZ#fv##X#ch#ch#.J#.J#.J#ch#ch##X#fv#.I#.I.8s.8x.8y#ce.8t#ce.8y.8y#ce.8t.8t#fw.8v#ce.8y.8x.8t#.I#.I#fv#.J#.J#ch#.J#.J#ch#.J##X#.I#aZ#.I#.I.8s.8s.8t#.I.8s#.N#gYQt.Qt.Qt.Qt.Qt.Qt.Qt.Qt.Qt.Qt.Qt.Qt.Qt.Qt.Qt.Qt.Qt.Qt.Qt.Qt.Qt.Qt.Qt.Qt.Qt.Qt.Qt.Qt.Qt.Qt.Qt.Qt.Qt.Qt.Qt.Qt.Qt.Qt.Qt.Qt.Qt.Qt.Qt.Qt.Qt.Qt.Qt.Qt.Qt.Qt.Qt.Qt.Qt.Qt.Qt.Qt.Qt.Qt.Qt.Qt.Qt.Qt.Qt.Qt.Qt.Qt.Qt.Qt.Qt.Qt.Qt.Qt.Qt.Qt.Qt.Qt.Qt.Qt.Qt.Qt.Qt.Qt.Qt.Qt.Qt.Qt.Qt.Qt.Qt.Qt.Qt.",
"Qt.Qt.#eB#eC#dv#.I.8s.8r.8r.8r.8..8c.8w.8w.8w.7G.8w.8t.8y.8y#.I#.I#.I#.J#.I#.I#.J#aZ#.I#.I#.I#aZ#.I#.I#.I.8y.8r.8t.8w.7G.8e.8w.8w.8e.8..8w.8t.8y.8t#.J#.I#.I#.I#.I#ch#.J#aZ#.I#.I#.I#.I.8s.8s.8y.8t.8w.7G.8e.8v.8w.8w.7G.8I##X#lX.RH#lY#lY.ZS#la#lZ#l0#l1#l2#l3#l4#iF#l5#l6#l7.Yu#l8#l9#m.#m##ma#mb#mc#md#me#mf#mg#mh#mi#mj#g1#mk#ml#mm#mn#mo#mp#mq#mr#ms#iB#mt#mu#mv#lQ#mw.tH#mx.54#my#mz#mA#mB#mC#mD#mE#mF.8X.8W#gg#mG#mH#mI.8t#.I#.J.8s.8y.8t.8v.8I.8w.8v.8v.8w.8e.8I#fw.8r.8t#.I#ch#.I#.I#.I#.I#.J#aZ#.J#.I#.I#.J#.I.8s#.J.8s.8y.8r.8v.8w.8w.8v.8v.8w.8e.8w.8e.7G.8w.8r.8y.8y#.I#.I#.I#.J#.I#.I#.J#.J#.I#.I#.I#.I#aZ#.I.8s.8s.8s.8y.8s.8r#mJ#gYQt.Qt.Qt.Qt.Qt.Qt.Qt.Qt.Qt.Qt.Qt.Qt.Qt.Qt.Qt.Qt.Qt.Qt.Qt.Qt.Qt.Qt.Qt.Qt.Qt.Qt.Qt.Qt.Qt.Qt.Qt.Qt.Qt.Qt.Qt.Qt.Qt.Qt.Qt.Qt.Qt.Qt.Qt.Qt.Qt.Qt.Qt.Qt.Qt.Qt.Qt.Qt.Qt.Qt.Qt.Qt.Qt.Qt.Qt.Qt.Qt.Qt.Qt.Qt.Qt.Qt.Qt.Qt.Qt.Qt.Qt.Qt.Qt.Qt.Qt.Qt.Qt.Qt.Qt.Qt.Qt.Qt.Qt.Qt.Qt.Qt.Qt.Qt.Qt.Qt.Qt.",
"Qt.Qt.#eB#iU.8y#.I.8t.8r.8w.8w.7G.78.7G.8c.78.7G.8a.8w.8w.8t.8s.8x.8x.8s#.I#.I#.I#ch#ch#.I#.I.8s.8x.8x#.I.8t.8w.8w.8a.7G.78.8c.8c.78.7G.8w.8w.8r.8t.8s.8x.8s.8s#.I#.I#.I#.I#.I.8s.8s#dv#.I.8s.8r.8y.8r.7G.78.8c.8c.78.7G.8a.8T#k9.RA#mK#lb#la#la#lT#mL#mM#mN#mO#ir#mP#mQ.Sq.6o#mR.1k#mS#mT#mU#mV#mW#mX#mY#mZ#dy#m0#m1#m2#m3#m4.5V#m5#m6#m2#m7#m8#m9#n.#n##mQ#na#nb#nc#nd#ne#nf#ng#nh#ni#nj#dx#nk#nl#nm#nn#mM#no#np#nq.8Y#nr.9v.8t.8x.8s.8s.8y.8y.8r.7G.7G.7G.8c.7G.7G.8a.8w.8w.8r.8t.8x.8x.8s#.I#.I#ch#.I#.I#.I#.I.8s#.I#dv#.I.8t.8y.8t.8r.7G.7G.8c.8c.7G.7G.8c.8d.7G.8a.8y.8w.8t#.I#dv.8s.8s#.I#.I#.I#.I#.I#.I.8s#dv.8s#.I.8x.8s.8r.8y.8x.8x#cf#gYQt.Qt.Qt.Qt.Qt.Qt.Qt.Qt.Qt.Qt.Qt.Qt.Qt.Qt.Qt.Qt.Qt.Qt.Qt.Qt.Qt.Qt.Qt.Qt.Qt.Qt.Qt.Qt.Qt.Qt.Qt.Qt.Qt.Qt.Qt.Qt.Qt.Qt.Qt.Qt.Qt.Qt.Qt.Qt.Qt.Qt.Qt.Qt.Qt.Qt.Qt.Qt.Qt.Qt.Qt.Qt.Qt.Qt.Qt.Qt.Qt.Qt.Qt.Qt.Qt.Qt.Qt.Qt.Qt.Qt.Qt.Qt.Qt.Qt.Qt.Qt.Qt.Qt.Qt.Qt.Qt.Qt.Qt.Qt.Qt.Qt.Qt.Qt.Qt.Qt.Qt.",
"Qt.Qt.#eB#iU.8r.8y.8t.8r.8c.8e.8a.8..7G.7G.7G.8a.8a.8c.8w.8r.8y.8y.8s.8s.8s.8s.8s#.I#.I#.I#.I.8x.8s.8y.8y.8r.8w.8I.8e.8a.8..8a.7G.8..8a.8e.8c.8r.8y.8y.8y.8s.8s.8t.8s#.I#.I#ce.8s.8s.8y.8y.8t.8w.8c.8e.8a.7G.7G.7G.78.8a.8a.8T#ns#nt.4n#lY#nu#nu#nv#kq#nw#nx#ny#jL#nz#nA#nB.5u#ij#kq#no#nC#nD#nE#nF#nG#nH.7K.9H#nI#nq#nJ#lL#nK.yB.YF#b9#nw#nL#nM#nN#nO#nj#nP.Sw#nQ#nR#nS#nT#mi#nU#nV#nW#nX#nY#nZ#n0#n1#mw#n2#n3#n4#np#n5#n6.9v.8y.8x.8s.8s.8y.8y.8t.8r.8I.7G.8a.7G.7G.8a.7G.7G.8a.8c.8w.8r.8t.8y.8y.8x.8s.8s#.I#ch#.I#.I.8t#.I.8s.8y.8y.8t.8w.8c.8e.8a.7G.7G.7G.7G.8a.8a.8c.8w.8L.8y.8y.8s.8s.8t.8s#.I.8s.8s.8s.8x.8x.8y.8s.8s.8y.8y.8x.8x.8x#cf#n7Qt.Qt.Qt.Qt.Qt.Qt.Qt.Qt.Qt.Qt.Qt.Qt.Qt.Qt.Qt.Qt.Qt.Qt.Qt.Qt.Qt.Qt.Qt.Qt.Qt.Qt.Qt.Qt.Qt.Qt.Qt.Qt.Qt.Qt.Qt.Qt.Qt.Qt.Qt.Qt.Qt.Qt.Qt.Qt.Qt.Qt.Qt.Qt.Qt.Qt.Qt.Qt.Qt.Qt.Qt.Qt.Qt.Qt.Qt.Qt.Qt.Qt.Qt.Qt.Qt.Qt.Qt.Qt.Qt.Qt.Qt.Qt.Qt.Qt.Qt.Qt.Qt.Qt.Qt.Qt.Qt.Qt.Qt.Qt.Qt.Qt.Qt.Qt.Qt.Qt.Qt.",
"Qt.Qt.#eB#iU.8r.8t.8r.8r.8r.8e.8a.8a.8..8..7G.8a.8c.8w.8r.8r.8s.8r.8r.8s.8x.8y.8s#.I.8s.8y.8x.8s.8r.8r.8y.8r.8r.8w.8c.8a.8b.8..7G.7G.8a.8w.8r.8w.8r.8x.8r.8t.8s.8y.8s#.I.8s.8y.8s.8s.8r.8t.8r.8r.8w.8e.8a.8a.8..7G.8b.8a.7G.8T#n8#n9.xb#o.#o#.8n#lT#oa#ob#oc#od#oe#of.Sn#og#nh#oh#lU#oi#oj.8V#ok#ol#ol#a8.8D#om.ZQ#on#oj#oo#op#oq.nn#or#os#ot#ou#lc#ov#m4#ow#ox#oy.Ki#oz#oA#on#oB#oC#oD#oE.Sq#jB#oF#oG#oH#mS#lb#np#oj#oi#oI#oJ.8r.8s.8t.8s.8r.8y.8y.8e.8w.8w.8a.8a.7G.8..7G.8a.8e.8w.8w.8w.8s.8y.8r.8s.8s.8y.8s#.I.8s.8s.8y.8s.8t.8r.8t.8r.2Q.8w.8e.8a.8a.8..7G.7G.8a.8w.8w.8w.8r.8s.8r.8r.8s.8y.8y.8s.8s.8t.8s.8x#.O.8r.8r.8t.8r.8R.8x.8y.8r#oK#oLQt.Qt.Qt.Qt.Qt.Qt.Qt.Qt.Qt.Qt.Qt.Qt.Qt.Qt.Qt.Qt.Qt.Qt.Qt.Qt.Qt.Qt.Qt.Qt.Qt.Qt.Qt.Qt.Qt.Qt.Qt.Qt.Qt.Qt.Qt.Qt.Qt.Qt.Qt.Qt.Qt.Qt.Qt.Qt.Qt.Qt.Qt.Qt.Qt.Qt.Qt.Qt.Qt.Qt.Qt.Qt.Qt.Qt.Qt.Qt.Qt.Qt.Qt.Qt.Qt.Qt.Qt.Qt.Qt.Qt.Qt.Qt.Qt.Qt.Qt.Qt.Qt.Qt.Qt.Qt.Qt.Qt.Qt.Qt.Qt.Qt.Qt.Qt.Qt.Qt.Qt.",
"Qt.Qt.#eB#iU.8r.8w.8r.8r.8a.8c.7G.8b.74.2V.8b.8b.7G.8a.8r.8r.8r.8r.8x.8x.8x.8y.8t.8s.8s.8y#.O.8x.8s.8r.8r.8r.8r.8a.7G.7G.8b.74.74.8b.7G.7G.8e.8r.8r.8r.8s.8x.8x.8y.8y.8s.8r.8y.8x.8s.8r.8r.8r.8r.8a.7G.7G.8..74.74.8b.8b.7G##X#lX.6u.7E#oM#nu#oN#oO#oP#oQ#oR#fX#oS#oT.pb#oU#oV#oW#oX.Hf#oY.nV#oZ#o0.Rn#o1#o2#o3#o4#o5#o6#lD.p1.YF.yA#o7#o8#o9#p.#p##pa#pb.YM#pc#fy#pd#pe#pf#pg#ph#nb.yw.yz#ok#n.#bj#pi#pj#pk#kq#n3#np#mK#pl#pm.2Q.8x.8x.8x.8s.8r.8r.8r.8r.7G.7G.8b.2V.2V.8b.8b.7G.8a.8r.8r.8r.8r.8s.8x.8x.8y.8y.8s.8s.8r.8r.8x.8s.8r.8r.8r.8r.8e.8c.7G.8..74.74.8..8..7G.8e.8r.8r.8r#pn.8y.8x.8R.8y.8s.8s.8r.8r.8r.8r.8r.8r.8r.8r.8r.8r.8r.8a#oK#oLQt.Qt.Qt.Qt.Qt.Qt.Qt.Qt.Qt.Qt.Qt.Qt.Qt.Qt.Qt.Qt.Qt.Qt.Qt.Qt.Qt.Qt.Qt.Qt.Qt.Qt.Qt.Qt.Qt.Qt.Qt.Qt.Qt.Qt.Qt.Qt.Qt.Qt.Qt.Qt.Qt.Qt.Qt.Qt.Qt.Qt.Qt.Qt.Qt.Qt.Qt.Qt.Qt.Qt.Qt.Qt.Qt.Qt.Qt.Qt.Qt.Qt.Qt.Qt.Qt.Qt.Qt.Qt.Qt.Qt.Qt.Qt.Qt.Qt.Qt.Qt.Qt.Qt.Qt.Qt.Qt.Qt.Qt.Qt.Qt.Qt.Qt.Qt.Qt.Qt.Qt.",
"Qt.Qt.#eB#iU.8r.8w.8y.8r.8a.8a.2V.2V.8..2V.2V.2V.8a.8a.8r.8t.8v.8y##Y.8x.8y.8r.8r.8r.8r.8y.8R.8y.8s.8r.8v.8y.8r.8a.8a.2V.2V.74.74.2V.2V.8a.8a.8r.8v.8v.8y.8x#.O.8r.8r.8L.8r.8R#.O.8x.8r.8w.8t.8r.8a.8a.2V.2V.8..74.2V.2V.7G.6g#po#pp.2P#pq#jI#pr#ps#pt#k3#pu#pv#pw#px#py.X7#pz#pA#pB#pC#pD#pE#pF#pG#pH#pI#lC#pJ#pK#pL#pM#pN#pO#pP#pQ.d6#pR#pS#pT#pU#pV#pW#pX#pY#pZ#p0#p1#pC#p2#p3.kN#p4#p5#p6#p7#p8#p9#q.#q##qa#ll#qb#qc#iB#qd.2Q.8x.8x.8x.8s.8r.8v.8y.8u.8a.7G.2V.8..74.74.2V.7G.8a.8w.8t.8y.8r.8s.8x.8R.8r.8r.8r.8s.8r.8R.8x.8x.8r.8w.8t.8r.8a.8a.2V.2V.8..2V.8..2V.8a.8a.8r.8y.8y.8y.8x.8x.8R.8r.8s.8x.8y.8w.8e.8r.8a.2Q.8r.8a.8w.8r.8e.7G#qe#oLQt.Qt.Qt.Qt.Qt.Qt.Qt.Qt.Qt.Qt.Qt.Qt.Qt.Qt.Qt.Qt.Qt.Qt.Qt.Qt.Qt.Qt.Qt.Qt.Qt.Qt.Qt.Qt.Qt.Qt.Qt.Qt.Qt.Qt.Qt.Qt.Qt.Qt.Qt.Qt.Qt.Qt.Qt.Qt.Qt.Qt.Qt.Qt.Qt.Qt.Qt.Qt.Qt.Qt.Qt.Qt.Qt.Qt.Qt.Qt.Qt.Qt.Qt.Qt.Qt.Qt.Qt.Qt.Qt.Qt.Qt.Qt.Qt.Qt.Qt.Qt.Qt.Qt.Qt.Qt.Qt.Qt.Qt.Qt.Qt.Qt.Qt.Qt.Qt.Qt.Qt.",
"Qt.Qt.#eB#cf.8a.8w.8w.8e.8a.8a.2V.2V.2V.1s.2V.2V.8.#qf.8a.8e.8e.8w.8r.8r.8r.8w.8r.8r.8r.8w.8r.8r.8r.8a.8e.8w.8a.8e.8a.2V.2V.1s.2U.2V.74.8a.8a.8a.8w.8w.8w.8r.8r.8r.8r.8r.8w.8r.8r.8r.8r.8w.8w.8e.8a.8a.2V.2V.2S.2U.2V.2V.8b#fr#qg#nt#qh#mn#qi#qj#qk#ql#od#qm#qn#qo#qp#qq#qr#qs#qt#qu#qv#qw.Qk#qx#qy#qz#qA.5##kC#qB#qC#dy#qD#qE#qF#qG#qH#qI#qJ#qK#qL.u5#qM#qN#qO#qG.R8##y#qP#qK#lz#qQ#qR#qS#qT#qU#qV#qW#mp#qX#qY#qZ#q0#ou#c.#q1.8K.8r.8r.8r.8r.8e.8w.8e.8a.8a.8b.2V.2V.1s.2V.2V.7G.8a.8a.8w.8e.8w.8r.8r.8r.8r.8r.8r.8r.8w.8r.8r.8r.8r.8w.8w.8w.8a.8a.2V.2V.2S.2U.2V.2V.8a.8a.8e.8w.8e.8r.8r.8r.8r.8w.8r.8r.8w.8c.7G.7G.7G.7G.8c.8e.8e.7G.7G.7G.Z3#n7Qt.Qt.Qt.Qt.Qt.Qt.Qt.Qt.Qt.Qt.Qt.Qt.Qt.Qt.Qt.Qt.Qt.Qt.Qt.Qt.Qt.Qt.Qt.Qt.Qt.Qt.Qt.Qt.Qt.Qt.Qt.Qt.Qt.Qt.Qt.Qt.Qt.Qt.Qt.Qt.Qt.Qt.Qt.Qt.Qt.Qt.Qt.Qt.Qt.Qt.Qt.Qt.Qt.Qt.Qt.Qt.Qt.Qt.Qt.Qt.Qt.Qt.Qt.Qt.Qt.Qt.Qt.Qt.Qt.Qt.Qt.Qt.Qt.Qt.Qt.Qt.Qt.Qt.Qt.Qt.Qt.Qt.Qt.Qt.Qt.Qt.Qt.Qt.Qt.Qt.Qt.",
"Qt.Qt.#eB.9K.7G.8e.8a.8H.8b.2V.2V.1u.2R.2R.2R.1u.2V.8..7G.8a.8a.8e.7G.8w.8w.8a.8a.8w.8r.8a.8w.8w.8e.8e.8K.7G.7G.8..2V.2R.2R.2R.2R.1u.2V.2V.8..8..8a.8a.8w.8a.8w.8e.8a.8r.8a.8e.8w.8e.8e.8w.8a.7G.8..8..2V.2R.2R.1u.2V.2S.2V##X#q2#q3#q4#q5#q6#q7#q8#q9#r.#r##ra#rb#rc#rd#re#rf#rg#rh#ri#rj#h.#rk#rl.Xz#rm#rn#ro#rp#rq.wY#rr#rs#rt.01#ru#pr#rv#rw.ZQ.Ao#rx#ry.4##rz.e8#rA#kE#rB#oS#rC#rD#rE#rF#rG#rH#rI#rJ#qu#rK#rL#rM#rN#rO#ie.7G.8e.8e.8w.8e.8e.8K.8..7G.8..2V.2V.2R.2R.2R.2S.2V.8..7G.8..8e.8a.8w.8e.8r.8a.8w.8w.8r.8a.8w.8r.8e.8e.8w.8a.7G.8..8..2V.2R.2R.2R.2V.2S.8b.8..7G.8a.8e.8e.8a.8r.8w.8a.8r.8r.8e.7G.74.74.74.78.78.78.74.8..7G.7G.Z6#n7Qt.Qt.Qt.Qt.Qt.Qt.Qt.Qt.Qt.Qt.Qt.Qt.Qt.Qt.Qt.Qt.Qt.Qt.Qt.Qt.Qt.Qt.Qt.Qt.Qt.Qt.Qt.Qt.Qt.Qt.Qt.Qt.Qt.Qt.Qt.Qt.Qt.Qt.Qt.Qt.Qt.Qt.Qt.Qt.Qt.Qt.Qt.Qt.Qt.Qt.Qt.Qt.Qt.Qt.Qt.Qt.Qt.Qt.Qt.Qt.Qt.Qt.Qt.Qt.Qt.Qt.Qt.Qt.Qt.Qt.Qt.Qt.Qt.Qt.Qt.Qt.Qt.Qt.Qt.Qt.Qt.Qt.Qt.Qt.Qt.Qt.Qt.Qt.Qt.Qt.Qt.",
"Qt.Qt.#rP.Z6.7G.8a.7G.7G.74.2V.1t.2R.1u.1u.2R.1t.2V.74.7G.7G.7G.8c.7G.7G.7G.7G.8c.8d.8c.7G.7G.7G.7G.8c.7G.7G.7G.2V.2V.1t.1u.1u.2R.2R.2R.2V.74.7G.7G.7G.8c.7G.7G.7G.7G.8c.8a.8e.7G.7G.8c.8a.8a.7G.74.2V.1t.1s.1u.1u.2R.1s.1t#gV#rQ#rR#lZ#oa#rS#rT#rU#ij#rV#kn#rW#hW#rX#rY#rZ#r0#r1#r2#r3#nU.kr#r4#r5#r6#r7#r8.8W#r9.wZ.yN#s.#s#.Go#fa#sa#sb#rN#sc#sd#pd#se#sf#sg#dN#sh#si#sj.9Q#nO.tE#sk#sl#sm#sn#so#sp#mi.9H#sq#sr#ss#st#su#gb.78.7G.7G.7G.8c.7G.8a.7G.8..2V.2R.1t.1u.2R.1u.1q.2R.74.8..7G.7G.7G.8c.7G.7G.8a.7G.8c.8c.8a.8e.7G.7G.8c.8a.8a.7G.74.2V.1t.1u.1u.1u.2R.1s.2V.74.7G.8a.7G.8c.7G.7G.8a.7G.8c.8a.8e.7G.74.8..78.78.78.7G.7G.7G.7G.8a.9J#n7Qt.Qt.Qt.Qt.Qt.Qt.Qt.Qt.Qt.Qt.Qt.Qt.Qt.Qt.Qt.Qt.Qt.Qt.Qt.Qt.Qt.Qt.Qt.Qt.Qt.Qt.Qt.Qt.Qt.Qt.Qt.Qt.Qt.Qt.Qt.Qt.Qt.Qt.Qt.Qt.Qt.Qt.Qt.Qt.Qt.Qt.Qt.Qt.Qt.Qt.Qt.Qt.Qt.Qt.Qt.Qt.Qt.Qt.Qt.Qt.Qt.Qt.Qt.Qt.Qt.Qt.Qt.Qt.Qt.Qt.Qt.Qt.Qt.Qt.Qt.Qt.Qt.Qt.Qt.Qt.Qt.Qt.Qt.Qt.Qt.Qt.Qt.Qt.Qt.Qt.Qt.",
"Qt.Qt.#rP#sv.7G.8a.8b.8..2V.2V.2R.1t.1s.1s.1s.1t.2R.2V.8b.2V.7G.7G.7G.74.74.78.78.8#.8g.78.74.74.7G.7G.8a.2V.74.2V.2R.2R.1s.2U.1s.1t.2R.2V.2V.8..8..8a.7G.7G.78.74.78.8#.78.74.78.8..7G.7G.8b.8..2V.2V.1t.2R.1s.1s.1t.1t.1t#ce#ns#sw.FY#sx#sy#sz#sA.yN#sB#sC#nI#sD#mM#sE#sF#sG#sH#sI#nf#sJ#sK#mi#sL#sM#sN#ro#sb#sO#lV#m2#sP#sO#sQ#kv#mT#sR#sS#jL#mP#lQ#sT#ob#sK#sU#sU#sR.9P#kv#pk#sV#sW#lR#sW#sL#on#sX#ob#mS#sY#sZ#s0.Jg#s1.8q.2R.78.7G.74.7G.7G.7G.74.2V.2V.2R.2R.1s.2U.1s.2R.2R.2V.74.74.8..7G.7G.78.78.78.78.8#.8#.78.78.8..78.7G.7G.8b.8..2V.2V.1t.2R.1s.2U.2R.2T.2V.2V.8..2V.7G.7G.7G.7G.74.78.78.78.78.8c.8a.8a.8a.7G.8e.8e.8e.8e.8e.8w#oK#n7Qt.Qt.Qt.Qt.Qt.Qt.Qt.Qt.Qt.Qt.Qt.Qt.Qt.Qt.Qt.Qt.Qt.Qt.Qt.Qt.Qt.Qt.Qt.Qt.Qt.Qt.Qt.Qt.Qt.Qt.Qt.Qt.Qt.Qt.Qt.Qt.Qt.Qt.Qt.Qt.Qt.Qt.Qt.Qt.Qt.Qt.Qt.Qt.Qt.Qt.Qt.Qt.Qt.Qt.Qt.Qt.Qt.Qt.Qt.Qt.Qt.Qt.Qt.Qt.Qt.Qt.Qt.Qt.Qt.Qt.Qt.Qt.Qt.Qt.Qt.Qt.Qt.Qt.Qt.Qt.Qt.Qt.Qt.Qt.Qt.Qt.Qt.Qt.Qt.Qt.Qt.",
"Qt.Qt.#rP#s2.74.8c.8..7G.7G.2V.2R.1t.1s.1s.1s.1t.1t.2V.8..7G.7G.7G.78.74.78.78.78.8g.74.78.7G.8..78.7G.8a.7G.7G.74.2R.1t.1u.1u.1s.2R.1r.2V.2V.7G.7G.8a.7G.78.78.78.7G.78.7G.7G.7G.7G.7G.7G.8b.7G.74.2V.2R.1t.1u.1s.1u.2R.2R#fv#s3#rR#lS#sK#ks#s4#ov#s5#s5#gh#s6#s7#s8#bI#s9#t.#q5.1k.yN#t##eb#ta#tb#tc#td#te.1k#tf#tg#th#ti#tj#dz#tk#tl#tm#sB#jK#nw#tn#gQ#to#tp#tq#tr#ts#ro#ou#jD#tt#tu#oc#tv#tw#tx#ty#tz#tA#tB#tC#tD#tE#q3#aY.2R.74.74.74.8..7G.8..8..7G.2V.2R.1t.1s.1s.1s.1r.1r.2V.2V.7G.7G.7G.7G.74.78.74.78.8#.8#.78.78.74.74.7G.7G.8..8..74.2V.2R.1q.1s.1s.1s.1r.2R.2V.7G.8..7G.7G.78.74.78.78.78.78.7G.8e.8w.8r.8w.8a.8w.8r.8a.8a.8r.8r#mJ#.MQt.Qt.Qt.Qt.Qt.Qt.Qt.Qt.Qt.Qt.Qt.Qt.Qt.Qt.Qt.Qt.Qt.Qt.Qt.Qt.Qt.Qt.Qt.Qt.Qt.Qt.Qt.Qt.Qt.Qt.Qt.Qt.Qt.Qt.Qt.Qt.Qt.Qt.Qt.Qt.Qt.Qt.Qt.Qt.Qt.Qt.Qt.Qt.Qt.Qt.Qt.Qt.Qt.Qt.Qt.Qt.Qt.Qt.Qt.Qt.Qt.Qt.Qt.Qt.Qt.Qt.Qt.Qt.Qt.Qt.Qt.Qt.Qt.Qt.Qt.Qt.Qt.Qt.Qt.Qt.Qt.Qt.Qt.Qt.Qt.Qt.Qt.Qt.Qt.Qt.Qt.",
"Qt.Qt.#rP.Z6.7G.8w.8a.8a.8H.74.2V.1s.1u.2R.2R.1s.2R.2V.74.8..8a.8a.8e.8a.8a.8e.8a.8c.8I.8a.8a.8e.8a.8c.8a.8a.8b.74.2V.2R.1u.2R.2R.2R.1u.2V.74.8b.8a.8a.8e.7G.8e.8a.8a.8e.8a.8w.8e.8a.8w.8a.8a.8b.74.2V.2R.1u.8#.2R.1u.1s.2V.8h#tF#tG#mT#tH#lS#tI#iW#tJ#tK#tL#tM#tN#mx#tO#tP#tQ#tR#tg#mK#tS#tT#iJ#tU#tV#tW#tX#tY.1k#lU#tZ#t0#t1#t2#t3#t4#t5#tI#jC#oN#dL#t6#t7#bB#t8#t9#u.#k7#u#.yM#ua#ub#uc#ud#ue#uf#ug#uh#lb#mC#ui#uj#uk#q3#gU.8H.7G.7G.7G.7G.8c.7G.8a.7G.74.2V.1t.1u.1u.1u.1u.1t.2V.74.7G.8a.7G.8c.7G.7G.8e.8a.8c.8c.7G.8e.7G.7G.8c.8a.8a.7G.8..74.2R.1u.1u.2R.2R.1s.2R.74.8..7G.8a.8c.8c.7G.8a.8a.8c.8e.8w.8r.8r.8r.8r.8r.8r.8r.8w.8r.8r.8R#gc#ulQt.Qt.Qt.Qt.Qt.Qt.Qt.Qt.Qt.Qt.Qt.Qt.Qt.Qt.Qt.Qt.Qt.Qt.Qt.Qt.Qt.Qt.Qt.Qt.Qt.Qt.Qt.Qt.Qt.Qt.Qt.Qt.Qt.Qt.Qt.Qt.Qt.Qt.Qt.Qt.Qt.Qt.Qt.Qt.Qt.Qt.Qt.Qt.Qt.Qt.Qt.Qt.Qt.Qt.Qt.Qt.Qt.Qt.Qt.Qt.Qt.Qt.Qt.Qt.Qt.Qt.Qt.Qt.Qt.Qt.Qt.Qt.Qt.Qt.Qt.Qt.Qt.Qt.Qt.Qt.Qt.Qt.Qt.Qt.Qt.Qt.Qt.Qt.Qt.Qt.Qt.",
"Qt.Qt.#rP#oK.8a.8w.8w.7G.8a#qf.8b.2V.2V.1u.2R.2V.2V.8..8a.7G.8a.8e.8w.8w.8r.8w.8r.8r.8r.8w.8w.8r.8w.8a.8w.8a.7G.8a.8..2V.2S.2R.1u.2V.2V.8b#qf.8a.7G.8w.8a.8e.8r.8w.8a.8r.8w.8r.8r.8r.8w.8e.8e.8a.8a.8a.2V.2V.2S.1u.2V.2V.8b#fr#tF#um#un#uo#nJ#ph#up#oO#ph#qL#uq#ur#us#ut#cm#ld#mK#uu#oN#uv#uw#ux#uy#uz#uA#uB#ph#uC.4n#uD#uE#iY#bw#uF#uG#uH#qc#uB.6d#uI#uJ#tA#uK#uL#uM#kt#uN#uO#l0#uP#uQ#uR#uS#uT#uU#uV#uW#l0#uX#uY#uZ.S4#u0#u1.7G.8r.8w.8r.8e.8e.8e.8a.8H.8..8..2V.2V.1u.1u.2V.2V.8..8..8H.8a.8e.8e.8e.8r.8w.8a.8r.8w.8r.8e.8r.8w.8e.8e.8K.7G.8a.8..2V.2S.2R.2R.2V.2V.2V.8..7G.7G.8w.8e.8e.8w.8r.8a.8a.8w.8w.8r.8x.8x.8y.8r.8r.8r.8r.8r.8R.8x#gc#u2Qt.Qt.Qt.Qt.Qt.Qt.Qt.Qt.Qt.Qt.Qt.Qt.Qt.Qt.Qt.Qt.Qt.Qt.Qt.Qt.Qt.Qt.Qt.Qt.Qt.Qt.Qt.Qt.Qt.Qt.Qt.Qt.Qt.Qt.Qt.Qt.Qt.Qt.Qt.Qt.Qt.Qt.Qt.Qt.Qt.Qt.Qt.Qt.Qt.Qt.Qt.Qt.Qt.Qt.Qt.Qt.Qt.Qt.Qt.Qt.Qt.Qt.Qt.Qt.Qt.Qt.Qt.Qt.Qt.Qt.Qt.Qt.Qt.Qt.Qt.Qt.Qt.Qt.Qt.Qt.Qt.Qt.Qt.Qt.Qt.Qt.Qt.Qt.Qt.Qt.Qt.",
"Qt.Qt.#rP.9K.8r.8r.8w.8w.8a.8e.8a.2V.2S.2V.2V.2V.8b.8a.8a.8w.8w.8w.8r.8r.8r.8r.8r.8r.8r.8r.8r.8r.8r.8r.8w.8v.8w.8a.8a.74.2V.2V.2V.2V.2V.8a.8a.8w.8v.8w.8r.8r.8r.8y.8r.8r.8r.8r.8y.8x.8y.8w.8v.8w.8a.8a.2V.2S.2V.2V.2V.2V.7G##X#u3.6w#u4#u5#u6#u7#pa#u8#u9#v.#eG.S4#ic#v##ou#va.ZS.ZS#vb#sc#vc#vd#ve#vf#vg#tI#uN#tg.8E#ik#vh#sG#vi#cn#vj#ts#ur#vk#vl#vm#.u#vn#vo#vp#vq#vr#rS#rS#no#kE#vs#vt#vu#vv#vw#vx#lb#nI#np#vy#sZ#vz#a9#vA.8a.8r.8r.8r.8r.8r.8w.8w.8a.8a.8a.2V.2V.2S.2U.2V.2V.8a.8e.8K.8w.8w.8r.8r.8r.8r.8r.8r.8r.8r.8r.8r.8r.8r.8w.8w.8w.8a.8a.8..2V.2S.2S.2V.2V.7G.8a.8a.8w.8w.8w.8r.8r.8r.8r.8r.8r.8r.8r.8y.8x.8r.8r.8s.8s.8y.8y.8x.8s#gc.pNQt.Qt.Qt.Qt.Qt.Qt.Qt.Qt.Qt.Qt.Qt.Qt.Qt.Qt.Qt.Qt.Qt.Qt.Qt.Qt.Qt.Qt.Qt.Qt.Qt.Qt.Qt.Qt.Qt.Qt.Qt.Qt.Qt.Qt.Qt.Qt.Qt.Qt.Qt.Qt.Qt.Qt.Qt.Qt.Qt.Qt.Qt.Qt.Qt.Qt.Qt.Qt.Qt.Qt.Qt.Qt.Qt.Qt.Qt.Qt.Qt.Qt.Qt.Qt.Qt.Qt.Qt.Qt.Qt.Qt.Qt.Qt.Qt.Qt.Qt.Qt.Qt.Qt.Qt.Qt.Qt.Qt.Qt.Qt.Qt.Qt.Qt.Qt.Qt.Qt.Qt.",
"Qt.Qt.#rP#.N.8y.8y.8y.8y.8r.8a.7G.2V.8b.74.74.2V.8..8a.8w.8r.8y.8y.8s.8x#.O.8y.8x.8s.8s.8y.8y#.O.8x.8t.8w.8y.8r.8a.7G.78.8b.74.74.8..74.7G.8a.8r.8t.8w.8t.8x.8x.8x.8y.8s.8x.8y.8x.8y.8r.8r.8w.8v.8w.8a.8a.8b.74.74.8b.2V.7G.8T#vB.6y#vC#vD#vE#vF.JC#vG#vH#ks.7E#vI#vJ#vK#nu#vL#vM#vN.8Y#uC#rS#vO#vP#l0#rS#lY#u9#lV#o.#rT#tI#vQ#vR#nw#to#ph#oa#eG#oM#n3#vS#un#n2#os#sN#vT.7E#kr#u6#uN#vU#vV#uX#vW#vX#l2#vY#oN.6d#vZ#v0#v1#a9#v2.8e.8x.8x.8x.8x.8y.8r.8t.8r.8a.8a.2V.2V.8..8..2V.2V.8a.8a.8r.8t.8y.8y.8x#.O.8R.8r.8t.8s.8r.8r#.O.8x.8s.8r.8v.8y.8r.8a.7G.8b.74.74.8..2V.7G.8a.8r.8y.8y.8r.8s.8x.8R.8r.8r.8r.8r.8r.8t.8s.8s.8s#.I#.I.8s.8y.8s#.I#gc#gYQt.Qt.Qt.Qt.Qt.Qt.Qt.Qt.Qt.Qt.Qt.Qt.Qt.Qt.Qt.Qt.Qt.Qt.Qt.Qt.Qt.Qt.Qt.Qt.Qt.Qt.Qt.Qt.Qt.Qt.Qt.Qt.Qt.Qt.Qt.Qt.Qt.Qt.Qt.Qt.Qt.Qt.Qt.Qt.Qt.Qt.Qt.Qt.Qt.Qt.Qt.Qt.Qt.Qt.Qt.Qt.Qt.Qt.Qt.Qt.Qt.Qt.Qt.Qt.Qt.Qt.Qt.Qt.Qt.Qt.Qt.Qt.Qt.Qt.Qt.Qt.Qt.Qt.Qt.Qt.Qt.Qt.Qt.Qt.Qt.Qt.Qt.Qt.Qt.Qt.Qt.",
"Qt.Qt.#rP#.N.8r.8y.8x.8r.8r.8w.7G.8a.8b.2V.8b.8a.7G.8c.8r.8r.8r.8y.8r.8r.8x.8r.8s.8s.8s.8y.8y.8x.8y.8r.8t.8r.8r.8r.8c.7G.7G.8b.74#qf.7G.8c.8e.8r.8r.8r.8r.8r.8s.8y.8y.8s.8s.8r.8y.8r.8r.8r.8w.8I.8e.8a#qf.8b.8..8..8b.8a.7G.6g#v3#v4#v5#v6#oM#v7#v8#vG#oa#mL#vL#vI#vn#oa.xb#vL#v9#oM.ZS#mL.6d#w.#oj#vz#vz#oM#ph.ZS#b8#lU#w##vO#l##nu#oa#mK#uu#g2#wa#wb#wc#wd#nq#no#nq#nn#vI#mK#oj#lV#we#wf.Ta#nT#wg#wh#wi#wj#wk#wl#wm#b8.5s#wn.8e.8x.8x.8x.8x.8s.8y.8r.8r.8w.8c.7G.7G.2V.2V.8..7G.8c.8w.8r.8r.8r#pn.8x.8x.8y.8y.8s.8s.8y.8y.8x.8s.8r.8r.8r.8r.8r.7G.7G.8..8b.74.8b.7G.7G.8e.8r.8r.8r.8r.8y.8s.8x.8y.8s.8s.8s.8y.8s#.I.8t.8s#.I#.I#.I.8s#.I.8s#gc#woQt.Qt.Qt.Qt.Qt.Qt.Qt.Qt.Qt.Qt.Qt.Qt.Qt.Qt.Qt.Qt.Qt.Qt.Qt.Qt.Qt.Qt.Qt.Qt.Qt.Qt.Qt.Qt.Qt.Qt.Qt.Qt.Qt.Qt.Qt.Qt.Qt.Qt.Qt.Qt.Qt.Qt.Qt.Qt.Qt.Qt.Qt.Qt.Qt.Qt.Qt.Qt.Qt.Qt.Qt.Qt.Qt.Qt.Qt.Qt.Qt.Qt.Qt.Qt.Qt.Qt.Qt.Qt.Qt.Qt.Qt.Qt.Qt.Qt.Qt.Qt.Qt.Qt.Qt.Qt.Qt.Qt.Qt.Qt.Qt.Qt.Qt.Qt.Qt.Qt.Qt.",
"Qt.Qt.#rP#.N.8r.8y.8y.8r.8w.8w.8K.8a.8..7G.8..8a.8a.8e.8w.8w.8y.8y.8r.8s.8s.8t.8s#.I#.I#.I.8t.8s.8s.8r.8y.8y.8w.8e.8w.8a.7G.7G.8a.7G.8a.8w.8w.8w.8r.8t.8r.8t.8s.8t.8s.8s.8s#ce.8y.8w.8a.8w.8w.8a.8b.8..2V.8b.7G.7G.8..8a.8a#fq#wp.6B#u4#wq#wr.Ps#ws.ZS#lU#lU#w.#u6#vY.6h#v1#wt#wu#wv#vb#nJ#ww#wx#sy#wy#wy#wz#pa#vb#b8#wA.7E#u4#wB#vL#vI.4n#vG#wC#wD#u5#un.Ta#vY#vY#wE#vT#wF#lU#np#wG#wF#wH#u4#wI#wJ#vy#wd#o.#uu#ww#wm#wK#wL#wM.8e.8s.8s.8s.8s.8r.8t.8r.8e.8w.8e.8a.8a.7G.7G.8a.8a.8e.8w.8w.8r.8s.8r.8t.8s.8t.8s#.I#.I.8s.8y.8s.8s.8r.8y.8y.8r.8r.8w.8e.8a.7G.7G.7G.8a.8w.8w.8w.8r.8y.8r.8r.8s.8s.8y.8s#.I.8s.8y.8x.8s.8y.8y#.J#.J#aZ#.I#.I#.I#ez#wNQt.Qt.Qt.Qt.Qt.Qt.Qt.Qt.Qt.Qt.Qt.Qt.Qt.Qt.Qt.Qt.Qt.Qt.Qt.Qt.Qt.Qt.Qt.Qt.Qt.Qt.Qt.Qt.Qt.Qt.Qt.Qt.Qt.Qt.Qt.Qt.Qt.Qt.Qt.Qt.Qt.Qt.Qt.Qt.Qt.Qt.Qt.Qt.Qt.Qt.Qt.Qt.Qt.Qt.Qt.Qt.Qt.Qt.Qt.Qt.Qt.Qt.Qt.Qt.Qt.Qt.Qt.Qt.Qt.Qt.Qt.Qt.Qt.Qt.Qt.Qt.Qt.Qt.Qt.Qt.Qt.Qt.Qt.Qt.Qt.Qt.Qt.Qt.Qt.Qt.Qt.",
"Qt.Qt.#wO#.N.8y.8y.8y.8L.8w.8I.8a.7G.78.7G.7G.8..8a.8w.8I.8r.8t.8y.8x.8x.8x#ce#.I#ch#ch.8s.8s.8s.8s.8x.8y.8t.8r.8w.8a.8a.7G.7G.8c.78.7G.8a.8w.8r.8t.8y.8y.8s.8s.8t.8s.8s#.I#.I.8r.7G.7G.8c.8a.8a.7G.74.2V.78.7G.7G.78.7G.8a##T#wP.5V.Ta#u4#wQ#wR#wS#wT#mK.6d#ww#wU#sy#lY#v1.7E#ws#wV.4n#wi#wW#vZ#wW#wX#wl#wY#so#vN#b8#ww#sy#wZ.Jl#wl#w0.7I#uu#w1#w2#u5#w3#w3#ww#u5#u5#sp#w4.4n#vn#w5#wt#w6#w.#wA#wE.1z#w3#vl#u8#oM#w7#wK#w8#wM.8w#.I.8s.8x.8x.8y.8y.8t.8r.8w.8w.8a.7G.8c.7G.78.8a.8e.8I.8r.8y.8y.8y.8s.8x#.I#.I#.I#ch#.I.8s.8s.8s.8x.8y.8t.8r.8w.8c.8a.7G.7G.7G.7G.7G.8a.8c.8w.8r.8t.8y.8x.8s.8s.8t.8s#.I#.I#.I#.I.8s.8t.8y#.J#.J#.J#ch#ch#.J#ig#wNQt.Qt.Qt.Qt.Qt.Qt.Qt.Qt.Qt.Qt.Qt.Qt.Qt.Qt.Qt.Qt.Qt.Qt.Qt.Qt.Qt.Qt.Qt.Qt.Qt.Qt.Qt.Qt.Qt.Qt.Qt.Qt.Qt.Qt.Qt.Qt.Qt.Qt.Qt.Qt.Qt.Qt.Qt.Qt.Qt.Qt.Qt.Qt.Qt.Qt.Qt.Qt.Qt.Qt.Qt.Qt.Qt.Qt.Qt.Qt.Qt.Qt.Qt.Qt.Qt.Qt.Qt.Qt.Qt.Qt.Qt.Qt.Qt.Qt.Qt.Qt.Qt.Qt.Qt.Qt.Qt.Qt.Qt.Qt.Qt.Qt.Qt.Qt.Qt.Qt.Qt.",
"Qt.Qt.#wO#.N.8x#dv#.I.8y.8w.8y.8a.7G.8c.8c.8c.7G.7G.8r.8y.8r.8s#.I#dv.8s.8s#aZ#.I#.I#.I#ch#.I.8s.8s#dv#.I.8s.8y.8t.8r.7G.7G.8c.8I.7G.7G.8a.8t.8y.8t#.I#dv#.I.8s#.I#ch#.I#ch#aZ#.I.8t.2S#w9#x.#x..1u.8e.2V.7G.8e.8e.8c.78.8a##T#x##jI.Ta#wl#v7#wR#vG#oN#la#wX#uO.Ki.FY#vN#wK#vb#xa#wV.6d#wy#wq#xb#u4#wl#xc.8n#st#wa#xd#wl.Ta#vE.8X#vC.Ta.6d#vM#xe#xf#wl#xb.Ta.1z.Ta#wl#uo#xg#nu#lc#uu#wt#xh#w0#xi#wI.1z#xc#wt#xj#uu#wx#ww.6D#wM.8t.8s.8s.8s.8s#dv.8s.8t.8r.1u#xk#x.#w9.8..7G.8a.8w.8e#xl.8r.8t#.I#dv.8s.8s#.I#.I#ch#.I#ch#.I.8s.8s#dv#.I.8s.8y.8v.8r.7G.7G.8c.8I.8d.7G.8a.8r.8y.8y#aZ#dv#dv.8s#.I#.I#.I#ch#.I#.I#.I.8s.8x#dv#.J#.J##X#.J#.J#.J#ez#gYQt.Qt.Qt.Qt.Qt.Qt.Qt.Qt.Qt.Qt.Qt.Qt.Qt.Qt.Qt.Qt.Qt.Qt.Qt.Qt.Qt.Qt.Qt.Qt.Qt.Qt.Qt.Qt.Qt.Qt.Qt.Qt.Qt.Qt.Qt.Qt.Qt.Qt.Qt.Qt.Qt.Qt.Qt.Qt.Qt.Qt.Qt.Qt.Qt.Qt.Qt.Qt.Qt.Qt.Qt.Qt.Qt.Qt.Qt.Qt.Qt.Qt.Qt.Qt.Qt.Qt.Qt.Qt.Qt.Qt.Qt.Qt.Qt.Qt.Qt.Qt.Qt.Qt.Qt.Qt.Qt.Qt.Qt.Qt.Qt.Qt.Qt.Qt.Qt.Qt.Qt.",
"Qt.Qt.#wO#cf#.I#.I#.I.8s.8y.8t.8w.8c.8v.8v.8v.8w.7G.8v.8r.8y.8s#.J#.I#.I#aZ#.I#.J#.J#.J#.J#.I#.I#.I#ch#aZ#.I.8y.8r.8v.8c.8w.8v.8v.8w.8c.8v.8r.8y.8t#aZ#.I#.I#.I#.I#ch#.J#.J#.I#aZ#.I#xm.7h.7c.7c.69.8v.8e.8v.8v.8v.8v.8e.8w.9L#xn#o2#u4#xo#xp#jI#xq#mK#la#u4#sy#xr#xs#vN#xt#xu#wS#wY#wA#wy#wx#xv#u4#vL#wl#oM#xw#lY#wt#wl#u4#xx#wl#wl.Ta.7E#uu#xy#xz#wl#vZ#wl#u4#u4#xA#w3.7E#oM#sG#uu#wK#xB#xC#xD#xE.1z#xb#wt#lY#xF#wl#vL#xG#xH.8r#.I#.I#.I#.I#.I#.J.8s.8s.8G.7X.7X#xI.1s.8e.8w.8w.8w.8y.8y.8y#aZ#ch#.I#.I#.I#ch#aZ#aZ#.J#.I#.I#aZ#.I#ch.8s.8y.8r.8v.8c.8e.8w.8v.8w.7G.8w#fw.8r.8y#.I#ch#.I#aZ#.I#.I#ch#aZ#ch#.I#.I#.I#.I#.I#fr##X##X#fr#.K##X#ez#gYQt.Qt.Qt.Qt.Qt.Qt.Qt.Qt.Qt.Qt.Qt.Qt.Qt.Qt.Qt.Qt.Qt.Qt.Qt.Qt.Qt.Qt.Qt.Qt.Qt.Qt.Qt.Qt.Qt.Qt.Qt.Qt.Qt.Qt.Qt.Qt.Qt.Qt.Qt.Qt.Qt.Qt.Qt.Qt.Qt.Qt.Qt.Qt.Qt.Qt.Qt.Qt.Qt.Qt.Qt.Qt.Qt.Qt.Qt.Qt.Qt.Qt.Qt.Qt.Qt.Qt.Qt.Qt.Qt.Qt.Qt.Qt.Qt.Qt.Qt.Qt.Qt.Qt.Qt.Qt.Qt.Qt.Qt.Qt.Qt.Qt.Qt.Qt.Qt.Qt.Qt.",
"Qt.Qt.#wO#du#.I#.I#.I.8s.8x#ce.8t.8y#gV.8y.8y#ce.8t#ce.8y.8x#ce#.I#.I#gW#.J#ch#ch#.J#.J#ch#ch#.J##X#aZ#.I#ce.8x#ce#ce.8y#ce.8t.8y#ce.8y#ce#ce.8x#ce#.I#aZ.4p#.J#.J#ch#.J#ch#ch##X#.I.68#xJ.7W.7W#xK#.I.8t#ce.8t.8y#ce.8t.8t.8Q.5K#jI#sy.4n#ij#xL#w5#la#lb#vC#wb#xr#un#vG#wY#xM#xN#wz#wy#sy#w.#w0#u5#wl#vL#vN.BU#xO#wt#xP#wx#xQ#w.#wl.Ta#xR#w5#xS#xT#ww#xb#xb#u4#xb#wl#xb#xU#lY#tg#uu#xV#xB#wx#w7#xW#xE#xb#ww#xX#v8.4i#xY#xZ#v2.8y#.J##X#.J#fv#.I#aZ#.I.8x.69.7W#dr#xJ.1u.8t#ce.8t#ce.8y.8x#.I#aZ#.I#fv#.J#ch#ch#.J#.J#.J#ch#.J##X#.I#aZ#.I.8x.8y#ce.8y#fw.8y.8y.8t.8v.8t#ce.8x.8s#ce#aZ#fv##X#ch#ch#.J#.J#.J#ch#.I#.J#.I#.J#fr#.K#.K.8T#.K#.L#fs#gYQt.Qt.Qt.Qt.Qt.Qt.Qt.Qt.Qt.Qt.Qt.Qt.Qt.Qt.Qt.Qt.Qt.Qt.Qt.Qt.Qt.Qt.Qt.Qt.Qt.Qt.Qt.Qt.Qt.Qt.Qt.Qt.Qt.Qt.Qt.Qt.Qt.Qt.Qt.Qt.Qt.Qt.Qt.Qt.Qt.Qt.Qt.Qt.Qt.Qt.Qt.Qt.Qt.Qt.Qt.Qt.Qt.Qt.Qt.Qt.Qt.Qt.Qt.Qt.Qt.Qt.Qt.Qt.Qt.Qt.Qt.Qt.Qt.Qt.Qt.Qt.Qt.Qt.Qt.Qt.Qt.Qt.Qt.Qt.Qt.Qt.Qt.Qt.Qt.Qt.Qt.",
"Qt.Qt.#wO#du#.I#aZ#.I#ce#.I#.I#.J#aZ.8s.8s.8s#.I#aZ#.I#.I#ce#.I#aZ#.I#aZ#.J#.J#.J##X#.J#.J##X#.J#.J#.I#.I#.I#.I#.I#ch#aZ.8s.8s.8s.8s#aZ#.J#.I#.I#ce#.I#aZ#aZ#.J#.J#.J##X#fr#.J##X#.I#x..7X.7c.7.#xm.8s#.J.8s.8s.8s.8s#aZ.8s.9g.wK#x0.4i#x1#fz#x2#wQ#lZ#vz#wY#x3#vz#vY#vF#a7#ii#xN#x4#wy#u5.Jl#x5.4i#wl#xR#wS.BU#vN#x6#u4#x7#ww#x8#wl#u4.4i#lV#x9#xF.8E#u4#wx#vE.5u#y.#u4#wt#xj#tg#sG#wD#wl#w7#lY.YJ#xv.Ta#vL#vM#xM#xj#b8#y##xH.8s#.J#.J#.J#aZ#.I#aZ#.I.8t#xm.7..7c#xJ#xk#aZ#.I#.I#ch#.I#.I#.I#aZ#aZ#aZ#.J#.J#.J#.J#.J#.J#.J#.J#.J#.I#aZ#.I#.I#.I#.I#.J.8t.8s.8s.8s.8s#.J#.I#.I#ce#.I#aZ#.I#.J#.J#.J#.J#.J#.J#.J#.J#.J#.I#aZ.6g.8T#.K.8T#fr#fr#ya#ybQt.Qt.Qt.Qt.Qt.Qt.Qt.Qt.Qt.Qt.Qt.Qt.Qt.Qt.Qt.Qt.Qt.Qt.Qt.Qt.Qt.Qt.Qt.Qt.Qt.Qt.Qt.Qt.Qt.Qt.Qt.Qt.Qt.Qt.Qt.Qt.Qt.Qt.Qt.Qt.Qt.Qt.Qt.Qt.Qt.Qt.Qt.Qt.Qt.Qt.Qt.Qt.Qt.Qt.Qt.Qt.Qt.Qt.Qt.Qt.Qt.Qt.Qt.Qt.Qt.Qt.Qt.Qt.Qt.Qt.Qt.Qt.Qt.Qt.Qt.Qt.Qt.Qt.Qt.Qt.Qt.Qt.Qt.Qt.Qt.Qt.Qt.Qt.Qt.Qt.Qt.",
"Qt.Qt.#wO#du#aZ#.J#.I#.I#.J#.J#.J#.J.8s.8s.8s#ft#.J#.J#ch#.I#.I#.J#aZ##X##X#.K#fr#fr#fr#fr#.K##X#.J#aZ#ch#.I#.I#.J#.J#.J.8s.8s.8s.8s#.J#.J#.J#.I#.I#.I#aZ#aZ##X#.K#fr#fr#fr#.K##X##X#yc.7X.7..7..1q#.J#.J.8s.8s.8s.8s#.J#.I##Z.wQ#wS#sy#tJ.yN#oO#oa#lZ#xo.8W#yd#ye#vY#oB#w5#wR#vM#nu#yf#w.#yg#yh#ww#wl#yi#ws#gg#xO#o.#wx#yj#oi#yk#v5#x7#vl#wG#nO#yl#lY#wl#wx.6d#ym#sy#u4#sy.1n#uO#wQ#vG#vL#s0.xb#yn#yo#u5.Ta#vG#xL#rS.S8#wu#yp#.J#.J#.J##X#aZ#.I#ch#.I#aZ.6f.7..7b.7c.2S#.J#.J#.J#.J#ch#aZ#.I#.I#.I#.J##X#.K#fr#fr##X#fr#fr##X##X#aZ.8s#.I#.I#aZ#.I#.J#ft.8s.8s.8s#aZ#.J#.I#.I#.I#.I#.I#aZ#.J##X#.K#.K##X#fr#.K##X##X#.I#aZ#fr#fr#.K#fr#.K#.K#ya.pNQt.Qt.Qt.Qt.Qt.Qt.Qt.Qt.Qt.Qt.Qt.Qt.Qt.Qt.Qt.Qt.Qt.Qt.Qt.Qt.Qt.Qt.Qt.Qt.Qt.Qt.Qt.Qt.Qt.Qt.Qt.Qt.Qt.Qt.Qt.Qt.Qt.Qt.Qt.Qt.Qt.Qt.Qt.Qt.Qt.Qt.Qt.Qt.Qt.Qt.Qt.Qt.Qt.Qt.Qt.Qt.Qt.Qt.Qt.Qt.Qt.Qt.Qt.Qt.Qt.Qt.Qt.Qt.Qt.Qt.Qt.Qt.Qt.Qt.Qt.Qt.Qt.Qt.Qt.Qt.Qt.Qt.Qt.Qt.Qt.Qt.Qt.Qt.Qt.Qt.Qt.",
"Qt.Qt.#wO#du#.J#.J#aZ#aZ#.J#.J#.J#ch#ch#.I#.I#.I#.J#.J#.J#.J#.J#.J#.J##X##X#.K.6g.8T#.K.6g#.K##X##X#ch#.J#aZ#.J#.J#.J#.J#.I#.I#.I.8s#.J#.J#.J#.J#aZ#.J#.J#.J##X#.K#fr.8T#fr#fr##X#.I#yc.7X.7c.7W.1u#.J#.J#.I#.I#.I#.J#.J#.J.9g#yq#uu.4i#sJ#yr#vF#tg#ur#ww#lb#vd.D0#l##wG#up#ys#vG.7E#wb#wl#va.8Y.4i#wt#oM#ws#xi#oM#yt#wx#v6#wx#lU#vL#vZ#vl#wS#q4#uu#lY#vL#u5#u4#la#wA#wy#ww.1n#pa#pa.1n.2Y#yu#v6#lZ#oN#yv#wi#vN#xG#ur.8E#ws#yw#.J#.L##X##X#.J#.I#aZ#.I##X.6f.7W.7..7X.74#.J#.J#.J#.J#.J#.J#.I#aZ#.I#.J##X#.K#fr#.K#.K#fr#.K#.K##X#.J#.J#aZ#.J#ch#.J#.J#.I#.I#.I#ch#.I#.J#.J#ch#.J#aZ#.J#.J##X#.K#.K.6g#.K#fr#fr#.K##X#.J#.J#.K#fr##X#.K#.L#.J#yx.pNQt.Qt.Qt.Qt.Qt.Qt.Qt.Qt.Qt.Qt.Qt.Qt.Qt.Qt.Qt.Qt.Qt.Qt.Qt.Qt.Qt.Qt.Qt.Qt.Qt.Qt.Qt.Qt.Qt.Qt.Qt.Qt.Qt.Qt.Qt.Qt.Qt.Qt.Qt.Qt.Qt.Qt.Qt.Qt.Qt.Qt.Qt.Qt.Qt.Qt.Qt.Qt.Qt.Qt.Qt.Qt.Qt.Qt.Qt.Qt.Qt.Qt.Qt.Qt.Qt.Qt.Qt.Qt.Qt.Qt.Qt.Qt.Qt.Qt.Qt.Qt.Qt.Qt.Qt.Qt.Qt.Qt.Qt.Qt.Qt.Qt.Qt.Qt.Qt.Qt.Qt.",
"Qt.Qt.#wO#iU#ch#.I#.J#.J#.J#.J#.J#aZ#.J#.I#ch#.I#.J#.J#.J#.J#.J#.J#.J##X#fr.6g.6g#.K#.K.8T#fr##X##X#ch#.J#.J#.J#.J#.J#.J#.I#ch#.I#ch#.I#.J#.J#.J#.J#.J#.J#.J##X#fr.6g.8T#.K##X#.J#ch.1u.7c.7b.7W.1u#.J#.J#.J#ch#ch#.J##X#.J##Z.ZT#uu#lU#g1#o2#wG#rT#qc#y.#sG#kr#uO#w##oO#yy#yz#a7#sz#rS#ww#vb#iX#tf#tg#nu#up.Ps#yA#lY.4n.6d#yB#r9#rN#oa#nu#vM.2Z#vG#lY#uu#qc#y.#u9#tK#u9#n5#lY#ph.8V.1n#rS#yC#u4#va#vd#lT#np.2Y.8D#tI.4n#wQ#yw#.J#.L#fr##X#.J#.I#.J#ch##X.1q.7W.7b.7c.74#.J#.J#.J#.J#.J#.J#.J#.J#ch#.J##X#fr.6g.8T#.K.8T#fr##X##X#ch#.J#.J#.J#.J#.J#.J#.I#ch#.I#ch#.I#.J#.J#.J#.J#.J#.J#ch##X#fr#fr.8T#.K.8T.6g#fr##X#.J#ch#.J#.J#.J#.J#.J#.J#ez#wNQt.Qt.Qt.Qt.Qt.Qt.Qt.Qt.Qt.Qt.Qt.Qt.Qt.Qt.Qt.Qt.Qt.Qt.Qt.Qt.Qt.Qt.Qt.Qt.Qt.Qt.Qt.Qt.Qt.Qt.Qt.Qt.Qt.Qt.Qt.Qt.Qt.Qt.Qt.Qt.Qt.Qt.Qt.Qt.Qt.Qt.Qt.Qt.Qt.Qt.Qt.Qt.Qt.Qt.Qt.Qt.Qt.Qt.Qt.Qt.Qt.Qt.Qt.Qt.Qt.Qt.Qt.Qt.Qt.Qt.Qt.Qt.Qt.Qt.Qt.Qt.Qt.Qt.Qt.Qt.Qt.Qt.Qt.Qt.Qt.Qt.Qt.Qt.Qt.Qt.Qt.",
"Qt.Qt.#wO#du#.J.8s#.I#.I#.J#.J#.J#aZ.8s#.I.8s.8s#.J#.J#.J#aZ#.I#ch#aZ#.J##X#.K#fr#fr#fr#fr#.K##X##X#.J#ch#.I#aZ#.J#.J#.J#ft.8s.8s.8s#.J#.J#.J#.J#.I#.I#.J#.J##X#.K#fr#fr#fr#.K#.K##X.1u.7c.7b.7b#xK#.J#.J#ft.8s.8s.8s.8s#ft#yD.ZT#mK#rT#nO.8W#ph#vR#kr#sG#rS#mK#la#lT#oh.7K.5S#yE.4q#lU#mK#kq#kr#oa#lU#oN#iW#yF#xj#lY.2Y.7I#l##lU#lU.6d#nu#up.2Z#wG#vN#lZ#oa.6d#mK#nv#sz.7E.4n#vF#iY#vM.D0#yG#oN#l##la#la#nJ.4i#ws#k7#kq#kq#yH#.J##X#.J##X#.J#.J#.I#.I#.J.69.7b.7b.7W.2S#.J#.J#.J#.J#.J#ch#.I#.I#.J#.J##X#.K#fr#fr#.K#fr#.K#.K##X#.J#.I#.I#.J#.J#.J#.J#ft.8s.8s.8s.8s#.J#.J#.J#.J#.I#.J#aZ##X#.L#.K.8T#.K.8T#fr#fr##X#.J#.J#.I#.I#.I#aZ#.I#aZ#ez#wNQt.Qt.Qt.Qt.Qt.Qt.Qt.Qt.Qt.Qt.Qt.Qt.Qt.Qt.Qt.Qt.Qt.Qt.Qt.Qt.Qt.Qt.Qt.Qt.Qt.Qt.Qt.Qt.Qt.Qt.Qt.Qt.Qt.Qt.Qt.Qt.Qt.Qt.Qt.Qt.Qt.Qt.Qt.Qt.Qt.Qt.Qt.Qt.Qt.Qt.Qt.Qt.Qt.Qt.Qt.Qt.Qt.Qt.Qt.Qt.Qt.Qt.Qt.Qt.Qt.Qt.Qt.Qt.Qt.Qt.Qt.Qt.Qt.Qt.Qt.Qt.Qt.Qt.Qt.Qt.Qt.Qt.Qt.Qt.Qt.Qt.Qt.Qt.Qt.Qt.Qt.",
"Qt.Qt.#wO#du.8s#aZ#.I#.I#.I#.I#.J#aZ.8s.8s.8s.8s#.J#ch#.I#.I#.I#aZ#.I#.J#.J##X#.K##X##X#.K#.J##X#aZ#.I#.J#.I#.I#.I#ch#.J.8s.8s.8s.8s#aZ#.J#.I#aZ#ce#.I#aZ#.I#.J##X#.K#.J#.K#fr#.J#.L.8..7..7a.7b#xk.8s#.J#aZ.8s.8s.8s#ft#ft#yD.8O#w#.2M#yI#rT#ph#vR#nI#mL#sG#lU#yJ#mL#sJ#yK#jI#lV#oN#yL#w##oa#pq#mK#l##mK.8W#yM#vd.4n#vl.4i#vz.8E.8E#wA.6d#pa#g1#jI#xq#lU#lU#yJ.D0#lU.1n.8E#xj#wG#q4#k7.D0#oa#vd#w##la#sG#yJ#vY#uu#lV.Ki#yN#xH.8s#.J#.J##X#aZ#aZ#.I#.I#aZ.6f.7b.7b.7..8.#.J#.J#.I#.I#.I#.I#.I#aZ#.I#aZ#.J##X#fr#fr##X#.K##X##X##X#.I#aZ#.I#.I#.I#.I#.J#ft.8s.8s.8s#ft#.J#.I#.I#.I#.I#aZ#aZ#.J#.J#.K#fr#fr#fr#.K#.K#.J#aZ#aZ.8x.8t#ce#aZ#fv#gW#ez#ulQt.Qt.Qt.Qt.Qt.Qt.Qt.Qt.Qt.Qt.Qt.Qt.Qt.Qt.Qt.Qt.Qt.Qt.Qt.Qt.Qt.Qt.Qt.Qt.Qt.Qt.Qt.Qt.Qt.Qt.Qt.Qt.Qt.Qt.Qt.Qt.Qt.Qt.Qt.Qt.Qt.Qt.Qt.Qt.Qt.Qt.Qt.Qt.Qt.Qt.Qt.Qt.Qt.Qt.Qt.Qt.Qt.Qt.Qt.Qt.Qt.Qt.Qt.Qt.Qt.Qt.Qt.Qt.Qt.Qt.Qt.Qt.Qt.Qt.Qt.Qt.Qt.Qt.Qt.Qt.Qt.Qt.Qt.Qt.Qt.Qt.Qt.Qt.Qt.Qt.Qt.",
"Qt.Qt.#wO#iU#.I#aZ#ce#.I.8x#ce#.I.8t.8t.8r.8t.8t.8t#ce#ce.8s#ce#aZ#.I##X#.J#.J#.J#.J#.J#.J#.J#.J#aZ#.I#.I#ce.8x#gV#.I.8s#ce.8s.8r#ce.8t.8s#ce.8x.8s#ce#aZ#.I##X#.J#.J#.J#.J#.J#.J##X.74.7b.7a.7a.1u#.I#.I#ce.8s.8x.8s.8t.8y.9L#yO#u9#fA#yP.Ps#u9#yQ#mL#lZ#yR#oN#mK#v7#oe#yS.4l#w5#yT#lU#yR#yG.2W#sz.4n#a7.NK.50#yE.ZS#vE.4i.8E#o..4i#wA.6h#v7#gi#yU.2X#lU#oN#l##oN#lU#wk#oM.4n#wQ#g2#xZ#wr#mK#sG#sG#l0#sG#lZ#wb.4m#yr.1k#oa#xH.8s##X##X#.J#.I#aZ#.I.8t#dv.6f.7a.70.7a.8..8s#.I#.I#.I#.I#.I.8t#.I#aZ#.I##X#.J#.J#.J#.J#.J#.J##X#.J#.I#aZ#.I#ce#.I#.I.8s#ce.8s.8x.8s.8t.8s#.I#ce.8s#.I#aZ#.I#.J##X#.J#.J##X#.J#.J#.J#.J#aZ#aZ.8y.8x#.I#jF#.I#.I#ez#ulQt.Qt.Qt.Qt.Qt.Qt.Qt.Qt.Qt.Qt.Qt.Qt.Qt.Qt.Qt.Qt.Qt.Qt.Qt.Qt.Qt.Qt.Qt.Qt.Qt.Qt.Qt.Qt.Qt.Qt.Qt.Qt.Qt.Qt.Qt.Qt.Qt.Qt.Qt.Qt.Qt.Qt.Qt.Qt.Qt.Qt.Qt.Qt.Qt.Qt.Qt.Qt.Qt.Qt.Qt.Qt.Qt.Qt.Qt.Qt.Qt.Qt.Qt.Qt.Qt.Qt.Qt.Qt.Qt.Qt.Qt.Qt.Qt.Qt.Qt.Qt.Qt.Qt.Qt.Qt.Qt.Qt.Qt.Qt.Qt.Qt.Qt.Qt.Qt.Qt.Qt.",
"Qt.Qt.#wO#iU#.I.8s#.I.8s.8y.8v.8v.8w.8v.8v.8v.8w.8v.8v.8y.8x#ce#ft#ch#.I#.I#.I#.J#aZ#.J#.J#.I#ch#fv#.I.8s.8s.8x.8y.8v.8v.8w.8v.8y.8v.8w.8v#fw.8y.8s#.I#ft#.I#.J#.I#ch#.J#.J#.I#.I#.J.1u.7a.7a#xm.1u.8v.8v.8v.8y.8y.8v.8v.8w.0.#yO#ro#dy#yV#yW#yX#nI#lc#vn#yJ#yY#lc#yZ#y0#eJ#y1#oO#u6#l##yJ#oN#l##l##yT#u##y2#y3#y4.2P#wA#y5#wt#sy#wy#y6.Jg#y7#y8#y9#z.#lU#yT#nJ#u6#z##x4#wb#sG#yZ#za#t##sB#oi#oi#vn#vn#yv#nC#xE#rT#zb#gi#lT#xH.8y#aZ#.I#.J#.I.8s#.I.8s.8y.6f.8G.7a.7##zc.8w.8v.8v.8v.8y.8x.8s.8s#.I#fv#aZ#.I#ch#.J#.J#.J#.I#.I##X#.I.8s#.I.8s.8y#fw.8v.8v.8v.8r.8v.8v.8v#fu.8y.8s#.I#ft#.I#.I#.I#.J#.J#.J#.J#ch#.J#.J#.I#.I.8y.8y.8s#.I#dv.8s#gc#u2Qt.Qt.Qt.Qt.Qt.Qt.Qt.Qt.Qt.Qt.Qt.Qt.Qt.Qt.Qt.Qt.Qt.Qt.Qt.Qt.Qt.Qt.Qt.Qt.Qt.Qt.Qt.Qt.Qt.Qt.Qt.Qt.Qt.Qt.Qt.Qt.Qt.Qt.Qt.Qt.Qt.Qt.Qt.Qt.Qt.Qt.Qt.Qt.Qt.Qt.Qt.Qt.Qt.Qt.Qt.Qt.Qt.Qt.Qt.Qt.Qt.Qt.Qt.Qt.Qt.Qt.Qt.Qt.Qt.Qt.Qt.Qt.Qt.Qt.Qt.Qt.Qt.Qt.Qt.Qt.Qt.Qt.Qt.Qt.Qt.Qt.Qt.Qt.Qt.Qt.Qt.",
"Qt.Qt.#wO#iU.8x#.I.8s.8y.8y.8t.8a.7G.8c.8w.8c.7G.7G.8r.8w.8y.8s#.I#dv.8s.8s#aZ#.I#.I#.I#ch#.I#.I#.I#dv#ch.8s.8y.8t.8r.7G.7G.8I.8I.8c.7G.8a.8y.8w.8y#aZ#.I#.I.8s#.I#aZ#ch#.J#.I.8s#.J.74.7a#xm#xm.1u.8r.8e.7G.8e.8w.8I.7G.74.8T.8O#zd#ze#zf#zg.yy.yy.yx#zh.YI#zi#zj#zk#zl#zm#zn#zo.YL.yB.yB.YK.yw#ol#zp.qG#zq#zr.qF.yI#n##n##ca#zs#zs#zt.yF.Bd#zu#zv#zw#zx#zy#zz#zt#zA#zB#zC#zD##J#zE#zF#rE#zG#zH#oI#nV#nV#zI#zJ.4u#zK#ng#lb#xH.8y#ft#.I#.I#.I#.I#.I.8y.8w.6f.8G#xm.7b.74.7G.8r.8w.8w.8y.8r.8t#.I#dv#.I.8s#.I#.I#aZ#aZ#ch#.I#.I#.J#.I#ch.8s.8y.8L.8t.7G.7G.8w.8w.8w.7G.7G.8y.8w.8y.8s#.I#.I#.I.8s#.I#.J.8s.8s.8s.8r.8t.8s.8w.8w.8r.8t.8y.8x.8s#cf#u2Qt.Qt.Qt.Qt.Qt.Qt.Qt.Qt.Qt.Qt.Qt.Qt.Qt.Qt.Qt.Qt.Qt.Qt.Qt.Qt.Qt.Qt.Qt.Qt.Qt.Qt.Qt.Qt.Qt.Qt.Qt.Qt.Qt.Qt.Qt.Qt.Qt.Qt.Qt.Qt.Qt.Qt.Qt.Qt.Qt.Qt.Qt.Qt.Qt.Qt.Qt.Qt.Qt.Qt.Qt.Qt.Qt.Qt.Qt.Qt.Qt.Qt.Qt.Qt.Qt.Qt.Qt.Qt.Qt.Qt.Qt.Qt.Qt.Qt.Qt.Qt.Qt.Qt.Qt.Qt.Qt.Qt.Qt.Qt.Qt.Qt.Qt.Qt.Qt.Qt.Qt.",
"Qt.Qt.#wO#gc.8r.8y.8t.8L.8w.8w.8a.7G.78.8c.78.7G.8a.8w.8w.8r.8t.8x.8x.8s.8s.8s#.I#.I#.I#.I.8s.8s.8s.8x.8s.8t.8r.8w.8e.7G.7G.78.7G.78.7G.8a.8w.8w.8r.8s.8x.8x.8s.8s#.I#.I#.I.8s.8s#.J.8.#zL#xm.69#zM.8r.8a.7G.78.8c.78.78.8..4p#zN#zO#zP#zQ#zR#zS#zT.gY#zU#zV#zW#zX#zY#zZ.5d#z0#z1#z2#z3#z4#z5#z6#z7#z8#z9#A.#A##Aa#Ab#Ac#Ad#Ae#Af#Ag#Ah#Ab#Ai#Aj#Ak#Al#Am.i8#An.i8#Ao.US#Ap#Aq#Ar#As#At#Au#Av#Aw#Ax#Ay#z3#Az#AA.h2#AB#AC#AD#AE.8e.8r.8s.8y.8x.8x.8s.8y.8y.73.69#AF.70.7G.7G.8e.8w.8e.8w.8r.8t#.I#.O.8s.8s#.I#.I#ch#ch#.I.8s.8s.8s.8x.8x.8s.8t.8w.8w.8a.7G.78.8c.78.7G.8a.8w#xl.8y.8s.8x.8x.8s.8s#.I#ch.8s.8x.8y.8s.8r.8r.8r.8w.8r.8t.8y.8r.8x#cf#u2Qt.Qt.Qt.Qt.Qt.Qt.Qt.Qt.Qt.Qt.Qt.Qt.Qt.Qt.Qt.Qt.Qt.Qt.Qt.Qt.Qt.Qt.Qt.Qt.Qt.Qt.Qt.Qt.Qt.Qt.Qt.Qt.Qt.Qt.Qt.Qt.Qt.Qt.Qt.Qt.Qt.Qt.Qt.Qt.Qt.Qt.Qt.Qt.Qt.Qt.Qt.Qt.Qt.Qt.Qt.Qt.Qt.Qt.Qt.Qt.Qt.Qt.Qt.Qt.Qt.Qt.Qt.Qt.Qt.Qt.Qt.Qt.Qt.Qt.Qt.Qt.Qt.Qt.Qt.Qt.Qt.Qt.Qt.Qt.Qt.Qt.Qt.Qt.Qt.Qt.Qt.",
"Qt.Qt.#wO#.N.8r.8y.8t.8r.8w.8e.8e.8a.7G.8a.7G.8a.8a.8e.8w.8r.8t.8y.8r.8s.8s.8t.8s#.I#.I.8s.8t#.I.8s.8r.8y.8t.8w.8w.8w.8a.7G.7G.7G.8..8a.8a.8e.8w.8r.8y.8y.8t.8s.8s.8s#ch#.I.8t#.I#.I.1u.7b.7b.7a.8G.8w.8e.7G.7G.8a.7G.7G.8a##X#AG#AH#AI#AJ#AK#AL#AM#AN#AO#AP#AQ#AR#AS#AT#AU#AV#AW#AX#AY#AW#AZ#A0#A1#A2#A3#A4#A5#A6#A7#A8#A9#B.#B##Ba#Bb#Bc#Bd#Be#Bf#Bg#Bh#Bi#Bj#Bj#Bk#Bl#Bm#Bn#AX#Bk#Bo#Bp#Bq#Bh#Br#Bs#Ba#Bt#Bu#Bv#Bw#Bx#By.Z6.7G.8w.8t.8y.8t.8y.8y.8r.8w#xm#xm.7a.7b.2V.8e.8e.8e.8e.8e.8w.8t.8y.8y.8s.8s.8s#.I#.I#ch.8s.8t.8s.8x.8y.8y.8t.8r.8e.8c.8a.7G.7G.8a.7G.7G.8a.8c.8w.8r.8t.8y.8t.8s.8s.8s.8s.8x#.O.8x.8s.8y.8y.8r.8r.8r.8r.8r.8r.8r.Z3#BzQt.Qt.Qt.Qt.Qt.Qt.Qt.Qt.Qt.Qt.Qt.Qt.Qt.Qt.Qt.Qt.Qt.Qt.Qt.Qt.Qt.Qt.Qt.Qt.Qt.Qt.Qt.Qt.Qt.Qt.Qt.Qt.Qt.Qt.Qt.Qt.Qt.Qt.Qt.Qt.Qt.Qt.Qt.Qt.Qt.Qt.Qt.Qt.Qt.Qt.Qt.Qt.Qt.Qt.Qt.Qt.Qt.Qt.Qt.Qt.Qt.Qt.Qt.Qt.Qt.Qt.Qt.Qt.Qt.Qt.Qt.Qt.Qt.Qt.Qt.Qt.Qt.Qt.Qt.Qt.Qt.Qt.Qt.Qt.Qt.Qt.Qt.Qt.Qt.Qt.Qt.",
"Qt.Qt.#wO#.N.8r.8t.8t.8r.8r.8e.8c.8a.8b.74.8b.8a.7G.8e.8r.8r.8r.8y.8r.8s.8x.8y.8s.8s#.I.8y.8y.8y.8s.8r.8t.8y.8w.8r.8e.7G.8a.8..8..7G.8a.7G.8w.8r.8r.8y.8r.8r.8s.8y.8y.8s.8s.8y.8x.8s.8a.7G.7G.8b.7G.8w.8c.8a.7G.8..7G.8a.7G.0.#BA#BB#BC#BD#BE#BF#BG#BH#BI#BJ#BK#BL#BK#BM#BN#BO#BP#BQ#BR#BJ#BS#BT#BH#BU#BV#BW#BX#BY#BZ#BY#B0#B1#B2#B3#B4#B2#B5#B6#B7#B8#B9#C.#C##Ca#B6#Cb#Cc#B2#Cd#Ce#Cf#Cg#Ch#Ci#Cj#Ck#Cl#Cm#Cn#BF#Co#Cp#Cq#Cr.8..7G.8r.8w.8r.8r.8s.8r.8r.8b.2V.2V.2U.8b.7G.7G.8a.8c.8r.8w.8r.8t.8r.8t.8s.8y.8s.8s.8s.8s.8y.8x.8s.8r.8t.8y.8r.8r.8w.8c.8a.7G.8..8b.8a.8a.8w.8r.8r.8y.8y.8r.8s.8s.8y.8s.8s.8r.8r.8r.8w.8w.8w.8a.8a.8..74.8a.8b.Z4#CsQt.Qt.Qt.Qt.Qt.Qt.Qt.Qt.Qt.Qt.Qt.Qt.Qt.Qt.Qt.Qt.Qt.Qt.Qt.Qt.Qt.Qt.Qt.Qt.Qt.Qt.Qt.Qt.Qt.Qt.Qt.Qt.Qt.Qt.Qt.Qt.Qt.Qt.Qt.Qt.Qt.Qt.Qt.Qt.Qt.Qt.Qt.Qt.Qt.Qt.Qt.Qt.Qt.Qt.Qt.Qt.Qt.Qt.Qt.Qt.Qt.Qt.Qt.Qt.Qt.Qt.Qt.Qt.Qt.Qt.Qt.Qt.Qt.Qt.Qt.Qt.Qt.Qt.Qt.Qt.Qt.Qt.Qt.Qt.Qt.Qt.Qt.Qt.Qt.Qt.Qt.",
"Qt.Qt.#wO.64##Y.8t.8y.8r.8r.8a.7G.2V.8..74.74.2V.7G.8a.8w.8r.8y.8r.8s.8x#.O.8y.8x.8s.8s.8y.8y#.O.8x.8s.8r.8r.8r.8e.7G.78.8b.74.74.8..8b.7G.8a.8r.8r.8w.8r.8s.8x.8R.8y.8s.8y.8y.8x.8x.8s.8s.8t.8r.8r.7G.7G.8b.8b.74.74.8b.7G.9e#Ct#Cu#Cv#Cv#Cw#Cx#Cx#Cy#Cv#Cz#CA#CB#CC#CD#CC#CA#Cx#Cx#CA#CA#CE#CE#CF#Cx#Cx#Cx#CG#CD#Cx#Cv#Cx#CD#CC#CH#CC#CC#CG#CH#Cx#CG#CD#Cx#CH#CH#CC#CH#CC#CI#CD#CB#CJ#CK#Cx#CK#Cx#CK#CL#Cx#CK#CB#CM#CN#CO#CP.8..7G.8t.8r.8x.8t.8r.8r.8r.8a.8c.7G.8..74.74.2V.8..7G.8e.8r.8r.8r##Y.8x.8x.8R.8y.8s.8s.8y.8y.8R.8x.8s.8r.8r.8r.8r.7G.7G.8b.8b.74.2V.8b.7G.7G.8r.8r.8r.8r.8s.8x.8x.8y.8x.8r.8w.8e.8e.8e.8e.7G.7G.8..2V.2V.8..8b#CQ#CsQt.Qt.Qt.Qt.Qt.Qt.Qt.Qt.Qt.Qt.Qt.Qt.Qt.Qt.Qt.Qt.Qt.Qt.Qt.Qt.Qt.Qt.Qt.Qt.Qt.Qt.Qt.Qt.Qt.Qt.Qt.Qt.Qt.Qt.Qt.Qt.Qt.Qt.Qt.Qt.Qt.Qt.Qt.Qt.Qt.Qt.Qt.Qt.Qt.Qt.Qt.Qt.Qt.Qt.Qt.Qt.Qt.Qt.Qt.Qt.Qt.Qt.Qt.Qt.Qt.Qt.Qt.Qt.Qt.Qt.Qt.Qt.Qt.Qt.Qt.Qt.Qt.Qt.Qt.Qt.Qt.Qt.Qt.Qt.Qt.Qt.Qt.Qt.Qt.Qt.Qt.",
"Qt.Qt.#wO#.N.8r.8r.8w.8w.8r.8a.7G.2V.2V.2V.8b.2V.8b.8a.8a.8w.8v.8w.8r.8r.8r.8r.8r.8r.8r.8r.8r.8x.8y.8r.8w.8v.8w.8a.8a.7G.2V.2V.2V.2V.2V.8a.8e.8e.8v.8w.8r.8r.8r.8y.8r.8r.8r.8r.8y.8r.8s.8r.8v.8v.8e.8a.7G.2V.8b.2V.2V.2V.8b#ch#CR#CS#Cw#CT#Cv#Cw#CU#Cw#CV#CW#CU#Cw#CU#Cw#Cw#Cw#Cv#CX#CY#Cw#CZ#Cw#Cv#Cv#Cw#Cw#CU#C0#C0#CW#CV#C0#C0#Cw#Cw#Cw#Cv#CX#CX#Cw#CX#CZ#CX#Cv#Cw#Cw#Cw#C0#C0#CV#CX#CZ#Cw#CX#Cw#CZ#Cv#Cv#Cv#CU#C0#CZ#C1#C2#qf.8e.8r.8r.8r.8r.8w.8w.8r.8a.8a.2V.2V.2V.8b.2V.2V.8a.8a.8w.8v.8w.8r##Y.8x.8r.8r.8r.8r.8r.8r.8y.8x.8s.8r.8v.8w.2Q.8a.7G.2V.2V.2V.8b.2V.8..8a.8a.8r.8v.8w.8y.8y.8y.8r.8r.8r.7G.7G.8c.7G.8a.7G.74.2V.2R.2R.8..2V#C3#C4Qt.Qt.Qt.Qt.Qt.Qt.Qt.Qt.Qt.Qt.Qt.Qt.Qt.Qt.Qt.Qt.Qt.Qt.Qt.Qt.Qt.Qt.Qt.Qt.Qt.Qt.Qt.Qt.Qt.Qt.Qt.Qt.Qt.Qt.Qt.Qt.Qt.Qt.Qt.Qt.Qt.Qt.Qt.Qt.Qt.Qt.Qt.Qt.Qt.Qt.Qt.Qt.Qt.Qt.Qt.Qt.Qt.Qt.Qt.Qt.Qt.Qt.Qt.Qt.Qt.Qt.Qt.Qt.Qt.Qt.Qt.Qt.Qt.Qt.Qt.Qt.Qt.Qt.Qt.Qt.Qt.Qt.Qt.Qt.Qt.Qt.Qt.Qt.Qt.Qt.Qt.",
"Qt.Qt.#wO#oK.8a.8e.8e.7G.8a#qf.8b.2V.2V.1u.2R.2V.2V#qf.8a.7G.8e.8w.8e.8w.8r.8w.8r.8r.8r.8w.8w.8r.8r.8w.8e.8e.7G.8a.8a.2V.2V.2R.1u.2V.2V.8.#qf.8a.8a.8w.8e.8w.8r.8r.8e.8r.8r.8w.8r.8r.8r.8e.8e.8a.8a#qf.8..2V.2S.1s.2V.2V.8b#dv#C5#C6#C7#Cw#CZ#CU#C8#C9#CW#D.#C9#CW#C8#Cw#Cv#Cv#Cw#Cw#C7#C0#Cw#C7#D##Cv#Cv#Cv#CV#CW#C9#D.#D.#CW#C8#CU#Cv#Cv#Cw#Cw#C7#CX#C0#C7#Cw#Cw#Cv#Cv#Cw#C8#CW#C9#C0#CZ#Cw#CX#CX#C7#Cw#Cw#Cw#CV#CW#Da#Db#Dc.2Q.8r.8w.8e.8w.8w.8e.8c.8a#qf.8..2V.2V.1u.1u.2V.2V.7G.8a.8a.8e.8w.8e.8r.8r.8r.8w.8r.8r.8r.8w.8r.8r.8r.8e.8e.8a.8a#qf.8..2V.2S.1s.2S.2V.8b#qf.8a.8e.8w.8e.8w.8r.8r.8w.8r.8e.7G.78.7G.7G.7G.7G.7G.2V.79.2R.2V.2V#CQ#BzQt.Qt.Qt.Qt.Qt.Qt.Qt.Qt.Qt.Qt.Qt.Qt.Qt.Qt.Qt.Qt.Qt.Qt.Qt.Qt.Qt.Qt.Qt.Qt.Qt.Qt.Qt.Qt.Qt.Qt.Qt.Qt.Qt.Qt.Qt.Qt.Qt.Qt.Qt.Qt.Qt.Qt.Qt.Qt.Qt.Qt.Qt.Qt.Qt.Qt.Qt.Qt.Qt.Qt.Qt.Qt.Qt.Qt.Qt.Qt.Qt.Qt.Qt.Qt.Qt.Qt.Qt.Qt.Qt.Qt.Qt.Qt.Qt.Qt.Qt.Qt.Qt.Qt.Qt.Qt.Qt.Qt.Qt.Qt.Qt.Qt.Qt.Qt.Qt.Qt.Qt.",
"Qt.Qt.#rP.Z6.7G.8w.8a.8..8b.74.2V.1u.2R.2R.2R.1s.2V.2V.8..8b.8a.8a.8c.8a.8e.8e.8a.8e.8w.8a.8a.8e.8a.8e.8a.8a.8b.74.2V.2S.1u.2R.2R.1u.1s.2V.74.7G#qf.8a.8e.8e.8e.8e.8a.8w.8a.8a.8w.8a.8I.8e.8a.8..7G.2V.2V.1u.2R.2R.2R.1u.2S.81#Dd#De#D##Da#CX#C0#Df#CW#D.#D.#Dg#CW#C0#CV#C0#Cv#Da#Cw#Dh#Di#Dj#D##Da#Cv#C0#CV#Dk#CW#D.#D.#D.#CW#Df#Dk#CV#Cv#CX#Da#D##Dj#CV#D##Da#Da#Cv#CV#C8#Dk#CW#Dg#CV#Dh#Da#CV#Dj#D##Da#CX#C0#Dk#CW#Da#Dl#Dm#Dn.8e.8c.8w.7G.8e.8a.8a.8b.74.2V.1u.2R.2R.2R.1u.2V.2V.8b.8H.8a.8e.8e.8a.8w.8e.8a.8w.8w.8a.8a.8e.8e.8c.8w.8a.8b.8..2V.2V.1u.2R.2R.2R.1s.2V.74.7G.8b.8a.8e.8w.8e.8w.8e.8a.8r.8a.8a.8c.8e.8a.8H.8..2V.2V.1u.2S.2V.Z4.76Qt.Qt.Qt.Qt.Qt.Qt.Qt.Qt.Qt.Qt.Qt.Qt.Qt.Qt.Qt.Qt.Qt.Qt.Qt.Qt.Qt.Qt.Qt.Qt.Qt.Qt.Qt.Qt.Qt.Qt.Qt.Qt.Qt.Qt.Qt.Qt.Qt.Qt.Qt.Qt.Qt.Qt.Qt.Qt.Qt.Qt.Qt.Qt.Qt.Qt.Qt.Qt.Qt.Qt.Qt.Qt.Qt.Qt.Qt.Qt.Qt.Qt.Qt.Qt.Qt.Qt.Qt.Qt.Qt.Qt.Qt.Qt.Qt.Qt.Qt.Qt.Qt.Qt.Qt.Qt.Qt.Qt.Qt.Qt.Qt.Qt.Qt.Qt.Qt.Qt.Qt.",
"Qt.Qt.#rP.Z6.74.7G.7G.7G.7G.2V.2R.1r.1u.1u.1u.2T.1t.2V.74.7G.7G.7G.7G.7G.7G.7G.78.8d.78.7G.7G.7G.7G.8c.7G.7G.7G.74.2V.2R.2T.1u.1u.1u.1r.2R.74.7G.7G.7G.7G.7G.7G.8..7G.8d.8c.8a.7G.7G.7G.7G.7G.7G.7G.2V.2R.2T.2R.2S.2R.2R.1t.81#Do#Dp#Da#Da#CV#CW#Df#D.#CW#D.#D.#CW#CW#Dq#CV#C0#Da#CX#Da#CV#Da#Da#Da#C0#C0#CW#Dr#CW#D.#Ds#D.#D.#Df#Dq#CW#C0#Da#Da#Da#CV#CV#Da#Da#Da#C0#C8#Dq#Df#CW#D.#Di#Da#Da#C9#Di#Da#CV#CV#Df#Dt#Du#Da#Dv#Dw#qf.7G.7G.8c.7G.8c.7G.7G.7G.2V.2V.1r.2R.1u.1u.1t.1t.2V.74.7G.7G.7G.8c.7G.7G.7G.7G.8d.8d.7G.7G.7G.7G.7G.7G.7G.7G.8..2V.2R.1r.1u.2R.1u.2T.2R.2V.7G.7G.7G.7G.7G.7G.7G.7G.7G.8c.8e.8e.8c.7G.8e.7G.8a.7G.2V.2V.1t.2R.Z4.76Qt.Qt.Qt.Qt.Qt.Qt.Qt.Qt.Qt.Qt.Qt.Qt.Qt.Qt.Qt.Qt.Qt.Qt.Qt.Qt.Qt.Qt.Qt.Qt.Qt.Qt.Qt.Qt.Qt.Qt.Qt.Qt.Qt.Qt.Qt.Qt.Qt.Qt.Qt.Qt.Qt.Qt.Qt.Qt.Qt.Qt.Qt.Qt.Qt.Qt.Qt.Qt.Qt.Qt.Qt.Qt.Qt.Qt.Qt.Qt.Qt.Qt.Qt.Qt.Qt.Qt.Qt.Qt.Qt.Qt.Qt.Qt.Qt.Qt.Qt.Qt.Qt.Qt.Qt.Qt.Qt.Qt.Qt.Qt.Qt.Qt.Qt.Qt.Qt.Qt.Qt.",
"Qt.Qt.#rP.Z6.74.8c.7G.7G.7G.74.2V.1t.2T.1u.1u.2T.1r.2V.74.7G.7G.7G.8c.7G.7G.7G.7G.8d.78.8d.7G.7G.7G.7G.7G.7G.7G.7G.2V.2R.1r.1u.1u.1u.1r.2R.2V.7G.8a.7G.7G.8c.7G.7G.7G.8d.8c.7G.7G.7G.7G.7G.8a.7G.8..2V.2R.2T.2R.2S.2R.2R.1t#Dx#Dy#Dz#Da#CV#Dg#Dr#DA#DB#DC#DD#DD#Ds#DE#DE#CW#Dk#Dg#CV#Da#DF#Da#Dj#Dg#Dk#Df#DE#DE#Ds#DD#DD#DD#DB#DA#DE#CW#Dk#C9#CV#Dj#DG#DF#Di#Dj#Dg#Dk#CW#Dr#DE#Ds#DD#DG#Di#Di#DG#DG#Dj#CV#Dg#Df#DE#Ds#DH#DI#Dw.8..7G.7G.8..7G.8c.7G.7G.7G.74.2V.1t.1r.1u.1u.2R.1r.2R.2V.78.7G.7G.7G.7G.7G.7G.78.78.8#.8d.7G.78.7G.7G.8c.8..7G.7G.2V.2R.1r.73.1u.1u.2T.1r.2V.74.7G.7G.7G.8c.7G.7G.78.7G.8d.7G.7G.7G.7G.8c.7G.7G.7G.2V.2V.2R.2R.Z4.76Qt.Qt.Qt.Qt.Qt.Qt.Qt.Qt.Qt.Qt.Qt.Qt.Qt.Qt.Qt.Qt.Qt.Qt.Qt.Qt.Qt.Qt.Qt.Qt.Qt.Qt.Qt.Qt.Qt.Qt.Qt.Qt.Qt.Qt.Qt.Qt.Qt.Qt.Qt.Qt.Qt.Qt.Qt.Qt.Qt.Qt.Qt.Qt.Qt.Qt.Qt.Qt.Qt.Qt.Qt.Qt.Qt.Qt.Qt.Qt.Qt.Qt.Qt.Qt.Qt.Qt.Qt.Qt.Qt.Qt.Qt.Qt.Qt.Qt.Qt.Qt.Qt.Qt.Qt.Qt.Qt.Qt.Qt.Qt.Qt.Qt.Qt.Qt.Qt.Qt.Qt.",
"Qt.Qt.#rP.Z6.7G.8e.8a.8a.8b.8..2V.2V.1u.2R.2R.1u.1s.2V.74.8..8a.8a.8e.8e.8e.8e.8a.8c.8w.8e.8a.8a.8a.8c.8a.8e.7G.7G.74.2V.1s.2R.2R.1u.1s.2V.2V.7G.7G.8e.8a.8c.8a.8a.8a.8e.8a.8a.8e.8w.8w.8e.8e.7G.8..74.2V.1u.2R.2R.2R.1u.2V#Dx#Dy#DJ#Di#C9#CV#Ds#DK#DB#DL#DB#DL#DM#DK#Ds#CW#C0#CV#CV#CV#Da#DF#DF#DC#DC#Dg#Dg#DC#DB#DB#DB#DB#DN#DK#DO#Dq#Dk#CV#C9#CV#DP#Da#Di#C9#CV#CV#CW#DO#DK#DQ#DL#C9#Di#C9#C9#Da#CV#Dk#CV#Ds#DO#DB#DR#DS#DT#DU.8a.8a.7G.7G.8c.8a.8a.8H.8..2V.2V.1u.2R.2R.2R.1u.2V.2V.8..7G.8a.8c.8c.8a.8a.8e.8a.8c.8e.8a.8e.8e.7G.8w.8a.8a.8b.74.2V.1s.1u.2R.2R.1s.2R.2V.74.8b.8a.8a.8e.8a.8e.8e.8a.8e.8a.8e.8e.8c.8e.8a.8a.8b.74.2V.1u.2V.Z3#gYQt.Qt.Qt.Qt.Qt.Qt.Qt.Qt.Qt.Qt.Qt.Qt.Qt.Qt.Qt.Qt.Qt.Qt.Qt.Qt.Qt.Qt.Qt.Qt.Qt.Qt.Qt.Qt.Qt.Qt.Qt.Qt.Qt.Qt.Qt.Qt.Qt.Qt.Qt.Qt.Qt.Qt.Qt.Qt.Qt.Qt.Qt.Qt.Qt.Qt.Qt.Qt.Qt.Qt.Qt.Qt.Qt.Qt.Qt.Qt.Qt.Qt.Qt.Qt.Qt.Qt.Qt.Qt.Qt.Qt.Qt.Qt.Qt.Qt.Qt.Qt.Qt.Qt.Qt.Qt.Qt.Qt.Qt.Qt.Qt.Qt.Qt.Qt.Qt.Qt.Qt.",
"Qt.Qt.#rP#oK.8w.8e.8w.8c.7G.8a.8..2V.2V.1u.1s.2V.2V.8b#qf.8a.7G.8w.8a.8w.8r.8r.8e.8r.8r.8r.8e.8r.8r.8w.8e.8e.8a.8a#qf.7G.2V.2V.1s.2S.2V.7G#qf.8a.8a.8e.8e.8w.8r.8r.8w.8r.8r.8w.8r.8r.8r.8e.8e.8c.8a#qf.8..2V.2S.1s.2V.2V.2V#.O#DV#DW#Dg#DX#CW#Ds#DO#DB#DY#DZ#DY#DB#DM#DO#Dt#CW#Df#CW#Dg#DP#DX#CW#Df#DC#Dg#DP#Dg#DC#CW#CW#DA#Ds#DM#Ds#DA#Df#CW#DX#D0#C9#DP#Dg#CW#CW#CW#Dt#DO#D1#DB#DY#C9#Dg#DX#C9#DP#D0#DX#CW#Ds#DO#DB#DF#D2#D3#DU.8r.8r.8e.8r.8e.8w.8e.7G.8a.8a.2V.2V.2V.1u.2V.2V.2V.8a.8a.7G.8w.8w.8e.8r.8r.8a.8r.8r.8r.8w.8r.8r.8w.8e.8e.8a.8a#qf.8..2V.2V.2R.2R.2V.2V.8..8a.7G.8a.8e.8w.8w.8r.8w.8w.8r.8a.8r.8r.8w.8a.8w.8c.8a.8a.8b.2V.2V.Z7#wNQt.Qt.Qt.Qt.Qt.Qt.Qt.Qt.Qt.Qt.Qt.Qt.Qt.Qt.Qt.Qt.Qt.Qt.Qt.Qt.Qt.Qt.Qt.Qt.Qt.Qt.Qt.Qt.Qt.Qt.Qt.Qt.Qt.Qt.Qt.Qt.Qt.Qt.Qt.Qt.Qt.Qt.Qt.Qt.Qt.Qt.Qt.Qt.Qt.Qt.Qt.Qt.Qt.Qt.Qt.Qt.Qt.Qt.Qt.Qt.Qt.Qt.Qt.Qt.Qt.Qt.Qt.Qt.Qt.Qt.Qt.Qt.Qt.Qt.Qt.Qt.Qt.Qt.Qt.Qt.Qt.Qt.Qt.Qt.Qt.Qt.Qt.Qt.Qt.Qt.Qt.",
"Qt.Qt.#D4.9K.8r.8r.8w.8v.8w.8a.8a.2V.2V.2V.2V.2V.2V.7G.8a.8w.8v.8w.8r.8x.8r.8r.8r.8r.8r.8r.8r.8r.8y##Y.8r.8w.8v.8e.8a.8..2V.2V.2V.2V.2V.8..8e.8a.8w.8w.8w.8x.8y.8y.8r.8r.8r.8r.8y.8y##Y.8r.8v.8y.8w.8a.7G.2V.8..2V.74.2V.8b.81#D5#DJ#D6#DD#Ds#D7#DQ#DZ#DZ#DQ#DZ#DZ#DQ#Ds#Ds#DB#Ds#DD#DG#Dg#C9#CV#C9#CV#CV#Da#C9#C9#Dk#CV#Df#DQ#DQ#D7#Ds#DB#Ds#DD#D6#Dg#Dg#DR#DD#Ds#DB#Ds#D7#DQ#DZ#DZ#Dg#D8#DD#DC#DH#DR#DD#Ds#DB#DQ#DZ#DD#D9#E..2Q.8r.8r.8r.8r.8r.8w.8w.8v.8a.8a.7G.2V.2V.2V.2V.2V.7G.8a.8a.8v.8w.8w.8r.8r.8y.8r.8r.8r.8r.8r.8r.8r##Y.8r.8w.8v.8e.8e.8a.2V.2S.2V.2V.2S.2V.8a.8a.8w.8w.8w.8y.8r.8y.8r.8r.8r.8r.8y.8r.8x.8r.8w.8v.8w.8a.8a.2V.8y#E##EaQt.Qt.Qt.Qt.Qt.Qt.Qt.Qt.Qt.Qt.Qt.Qt.Qt.Qt.Qt.Qt.Qt.Qt.Qt.Qt.Qt.Qt.Qt.Qt.Qt.Qt.Qt.Qt.Qt.Qt.Qt.Qt.Qt.Qt.Qt.Qt.Qt.Qt.Qt.Qt.Qt.Qt.Qt.Qt.Qt.Qt.Qt.Qt.Qt.Qt.Qt.Qt.Qt.Qt.Qt.Qt.Qt.Qt.Qt.Qt.Qt.Qt.Qt.Qt.Qt.Qt.Qt.Qt.Qt.Qt.Qt.Qt.Qt.Qt.Qt.Qt.Qt.Qt.Qt.Qt.Qt.Qt.Qt.Qt.Qt.Qt.Qt.Qt.Qt.Qt.Qt.",
"Qt.Qt.#D4.64.8x.8x.8y.8y.8r.8a.7G.78.8b.8..74.8..2V.7G.8a.8r.8y.8v.8r.8s.8x.8y.8y.8s.8s.8s.8y#.O.8x.8s.8r.8y.8r.8r.8a.7G.8b.8..74.74.2V.7G.8a.8w.8r.8r.8r.8s.8x#.O.8r.8s.8s.8y.8y.8x.8s.8r.8r.8r.8r.7G.7G.8b.8b.2V.8b.8b.74#Eb#Ec#Ed#DD#DY#Ds#Ee#Ef#DZ#Eg#DZ#DQ#D7#DB#Ee#D7#DD#DD#D6#D8#DD#CW#Dk#Dg#CV#Da#Dg#Da#Dj#Dg#Dk#Df#Ds#DN#DY#DN#DD#DD#D6#D8#DL#DD#DL#DY#Ds#DD#DN#DQ#Eg#Ds#DY#DL#DD#DD#DL#DD#DL#DY#DN#Ee#Eh#Ef#DY#Ei#Cr#Ej.8R.8x.8x.8x.8r.8r.8y.8y.8r.8a.7G.2V.8..74.8..2V.7G.8a.8r.8y.8v.8r.8r.8x.8R.8x.8r.8L.8s.8y.8R#.O.8x.8t.8t.8y.8r.8a.8c.2V.8..74.74.2V.8..8a.8a.8r.8r.8y.8x.8x#.O.8y.8y.8s.8y.8x.8x.8x.8y.8y.8t.8r.8a.7G.8a#Ek#El#EmQt.Qt.Qt.Qt.Qt.Qt.Qt.Qt.Qt.Qt.Qt.Qt.Qt.Qt.Qt.Qt.Qt.Qt.Qt.Qt.Qt.Qt.Qt.Qt.Qt.Qt.Qt.Qt.Qt.Qt.Qt.Qt.Qt.Qt.Qt.Qt.Qt.Qt.Qt.Qt.Qt.Qt.Qt.Qt.Qt.Qt.Qt.Qt.Qt.Qt.Qt.Qt.Qt.Qt.Qt.Qt.Qt.Qt.Qt.Qt.Qt.Qt.Qt.Qt.Qt.Qt.Qt.Qt.Qt.Qt.Qt.Qt.Qt.Qt.Qt.Qt.Qt.Qt.Qt.Qt.Qt.Qt.Qt.Qt.Qt.Qt.Qt.Qt.Qt.Qt.Qt."};
